<?xml version="1.0" encoding="UTF-8"?>
<map version="1.10" tiledversion="1.11.2" orientation="orthogonal" renderorder="right-down" width="25" height="20" tilewidth="16" tileheight="16" infinite="0" nextlayerid="3" nextobjectid="1">
 <tileset firstgid="1" source="townInterior.tsx"/>
 <layer id="2" name="Tile Layer 2" width="25" height="20">
  <data encoding="csv">
0,0,0,0,0,0,0,0,0,0,0,0,0,0,0,0,0,3,3,3,0,0,0,0,1,
0,0,0,0,0,0,0,0,0,0,35,0,35,411,0,0,0,35,35,35,35,35,35,0,0,
0,0,0,0,0,67,67,67,67,67,67,0,0,0,0,0,0,0,0,0,0,0,0,0,0,
0,0,99,99,99,99,99,99,99,0,0,99,0,0,0,0,0,0,0,0,0,0,0,0,0,
0,0,0,0,0,0,0,232,232,0,0,232,232,233,233,233,0,0,0,0,232,232,232,232,0,
0,0,232,232,232,232,232,232,232,232,0,0,0,233,233,233,0,0,0,0,232,232,233,233,0,
0,0,0,0,0,0,0,0,0,0,0,0,0,0,0,0,0,0,0,0,0,0,0,0,0,
0,0,0,0,0,0,0,0,0,0,0,232,232,232,232,232,232,232,0,0,0,0,232,232,0,
0,0,0,0,0,0,0,0,0,0,0,0,232,232,232,232,232,0,0,0,0,0,232,232,0,
0,0,0,0,0,0,0,0,0,0,0,232,232,232,232,232,232,232,232,0,0,0,232,232,232,
0,0,0,233,0,0,0,0,0,0,0,232,232,232,232,232,232,0,0,0,0,0,232,232,232,
0,0,233,233,0,0,0,0,0,0,0,0,0,0,0,0,0,0,0,0,0,0,232,232,232,
0,0,233,233,0,0,0,0,232,232,232,232,0,0,0,0,0,0,0,0,0,0,232,232,0,
0,0,233,233,0,0,0,0,0,0,0,0,0,0,0,0,0,0,0,0,0,0,232,232,0,
0,0,233,233,0,0,0,0,0,0,0,0,0,0,0,0,0,0,0,0,0,0,232,232,0,
0,0,233,0,0,0,0,0,0,0,0,0,0,0,0,0,0,0,0,0,0,0,232,232,0,
0,0,0,0,0,0,0,0,0,0,0,0,0,0,0,0,0,0,0,0,0,0,0,232,0,
0,0,0,0,0,0,0,0,0,0,0,0,0,232,232,232,232,232,0,0,0,0,0,0,0,
0,232,232,232,232,232,232,232,232,232,232,232,232,232,232,232,232,232,232,232,232,232,232,232,0,
0,5,5,5,5,5,5,5,5,5,5,5,5,5,5,5,5,5,5,5,5,5,5,5,0
</data>
 </layer>
 <layer id="1" name="Tile Layer 1" width="25" height="20">
  <data encoding="csv">
1,2,3,3,3,3,3,3,3,3,3,3,3,3,3,3,3,3,669,670,3,3,3,4,1,
33,34,35,35,35,35,35,35,35,35,226,35,411,35,35,35,35,35,701,702,35,35,35,36,37,
65,66,67,67,67,828,67,67,412,67,258,67,67,67,67,67,67,67,733,734,67,67,67,68,69,
65,99,99,578,579,99,99,350,351,99,99,550,99,99,99,99,99,99,765,766,99,99,99,99,69,
65,233,233,610,611,233,233,382,383,264,265,582,264,409,856,857,265,265,797,798,264,264,264,265,69,
65,233,233,642,643,233,233,515,516,264,265,201,232,441,888,889,233,233,201,201,233,233,233,233,69,
65,233,233,233,233,233,233,201,201,232,233,233,264,265,265,265,265,265,233,233,233,233,233,233,69,
65,232,233,233,233,233,233,233,233,264,265,265,1416,1417,1418,1419,1420,264,265,265,265,265,265,265,69,
65,264,265,265,265,265,265,265,265,265,265,265,1448,1449,1450,1451,1452,264,265,265,265,265,555,556,69,
65,232,233,233,233,233,233,233,252,253,254,0,1480,1481,1482,1483,1484,232,233,233,233,233,587,588,69,
65,264,265,265,265,265,265,265,284,285,286,232,232,232,232,232,232,264,265,265,265,265,619,620,69,
65,232,1377,1378,233,233,233,233,316,317,318,232,233,233,233,233,233,233,233,233,233,233,232,232,69,
65,264,1409,1410,265,265,265,232,232,232,232,232,265,265,265,265,265,265,265,265,265,265,232,232,69,
65,232,1441,1442,232,232,232,232,232,232,232,232,232,232,232,233,264,265,265,232,233,233,1036,1037,69,
65,264,1473,1474,264,264,264,264,264,264,264,264,264,264,264,265,249,250,251,264,265,265,1068,1069,69,
65,232,233,233,233,233,233,233,233,233,233,233,233,233,232,233,281,282,283,232,233,233,1100,1101,69,
65,264,265,265,265,265,265,265,265,265,265,265,265,265,264,265,200,201,200,264,265,265,265,265,69,
65,232,233,233,233,233,233,233,233,233,233,233,233,233,233,233,232,233,232,233,232,233,265,265,69,
161,162,166,166,166,166,166,166,166,166,166,163,265,164,166,166,166,166,166,166,166,166,166,167,168,
1,1,1,1,1,1,1,1,1,1,1,97,166,131,1,1,1,1,1,1,1,1,1,1,1
</data>
 </layer>
</map>
