<?xml version="1.0" encoding="UTF-8"?>
<map version="1.10" tiledversion="1.11.2" orientation="orthogonal" renderorder="right-down" width="18" height="15" tilewidth="16" tileheight="16" infinite="0" nextlayerid="7" nextobjectid="8">
 <tileset firstgid="1" name="barn" tilewidth="16" tileheight="16" tilecount="84" columns="4">
  <image source="Content (unpacked)/Maps/coopTiles.png" width="64" height="336"/>
  <tile id="12">
   <properties>
    <property name="Type" value="Wood"/>
   </properties>
  </tile>
  <tile id="33">
   <properties>
    <property name="Passable" type="int" value="0"/>
    <property name="Trough" value="T"/>
   </properties>
  </tile>
  <tile id="53">
   <properties>
    <property name="Type" value="Wood"/>
   </properties>
  </tile>
  <tile id="54">
   <properties>
    <property name="Type" value="Wood"/>
   </properties>
  </tile>
 </tileset>
 <tileset firstgid="85" name="p" tilewidth="16" tileheight="16" tilecount="64" columns="4">
  <image source="Content (unpacked)/Maps/paths.png" width="64" height="256"/>
 </tileset>
 <layer id="1" name="Tile Layer 1" width="18" height="15">
  <data encoding="csv">
0,0,0,0,0,0,0,0,0,0,0,0,0,0,0,0,0,0,
0,0,0,0,0,0,0,0,0,0,0,0,0,0,0,0,0,0,
0,0,0,0,0,0,0,0,0,0,0,0,0,0,0,0,0,0,
0,0,0,0,0,0,0,0,0,0,0,0,0,0,0,0,0,0,
0,0,0,0,0,0,0,0,0,0,0,0,0,0,0,0,0,0,
0,0,0,0,0,0,0,0,0,0,0,0,0,0,0,0,0,0,
0,0,0,0,0,0,0,0,0,0,0,0,0,0,0,0,0,0,
0,0,0,0,0,0,0,0,0,0,0,0,0,0,0,0,0,0,
0,0,0,0,0,0,0,0,0,0,0,0,0,0,0,0,0,0,
0,0,0,0,0,0,0,0,0,0,0,0,0,0,0,0,0,0,
0,0,0,0,0,0,0,0,0,0,0,0,0,0,0,0,0,0,
0,0,0,0,0,0,0,0,0,0,0,0,0,0,0,0,0,0,
0,0,0,0,0,0,0,0,0,0,0,0,0,0,0,0,0,0,
0,0,0,0,0,0,0,0,0,0,0,0,0,0,0,0,0,0,
0,0,0,0,0,0,0,0,0,0,0,0,0,0,0,0,0,0
</data>
 </layer>
 <layer id="2" name="Back" width="18" height="15">
  <data encoding="csv">
13,13,13,13,13,13,13,13,13,13,13,13,13,13,13,13,13,13,
17,13,13,13,13,13,13,13,13,13,13,13,13,13,13,13,13,17,
21,13,13,13,13,13,13,13,13,13,13,13,13,13,13,13,13,21,
13,66,54,54,54,54,54,38,34,34,34,34,54,54,54,54,38,13,
13,37,13,26,13,53,13,57,54,54,47,54,54,13,26,13,56,13,
13,13,13,13,55,13,13,13,55,13,53,13,13,14,16,55,13,13,
13,13,55,13,13,13,53,13,13,13,55,13,18,19,19,24,55,13,
13,13,55,13,55,13,55,13,13,53,13,13,18,19,20,13,13,13,
13,13,13,13,13,13,13,37,55,13,55,37,22,23,24,13,13,13,
13,13,13,13,13,13,14,15,16,13,13,13,53,13,13,13,53,13,
13,13,13,13,13,13,18,19,20,13,13,13,14,15,16,13,13,13,
13,67,67,67,67,67,22,23,24,13,56,13,18,19,20,13,13,13,
13,19,19,19,19,20,53,13,13,13,13,13,22,23,24,13,55,13,
13,22,23,23,19,20,55,37,13,13,55,13,13,37,13,13,14,13,
13,13,13,13,13,13,13,13,55,13,13,13,13,13,55,13,13,13
</data>
 </layer>
 <layer id="3" name="Buildings" width="18" height="15">
  <data encoding="csv">
1,2,2,2,2,2,2,2,2,2,2,2,2,2,2,2,2,3,
5,17,61,25,17,17,17,62,17,17,25,17,62,17,25,17,17,7,
5,21,21,21,48,21,21,29,30,30,30,30,31,21,21,48,21,7,
5,73,76,0,0,0,0,41,0,0,0,0,42,74,75,0,0,7,
5,0,0,0,0,0,0,0,0,0,0,0,0,0,0,0,0,7,
5,60,0,0,0,0,0,0,0,0,0,0,0,0,0,0,0,7,
5,64,58,0,0,0,0,0,0,0,0,0,0,0,0,0,0,7,
9,63,63,0,0,0,0,0,0,0,0,0,0,0,0,0,0,7,
1,2,2,2,2,12,0,0,0,0,0,0,0,0,0,0,0,7,
5,17,17,17,17,17,0,0,0,0,0,0,0,0,0,0,0,7,
5,21,21,21,21,21,0,0,0,0,0,0,0,0,0,0,0,7,
5,43,44,73,43,44,0,0,0,0,0,0,0,0,0,0,0,7,
5,0,0,0,0,0,0,0,0,0,0,0,0,0,0,0,0,7,
5,0,0,0,0,0,0,0,0,0,0,0,0,0,0,0,76,7,
49,49,49,49,49,49,49,49,49,49,5,0,7,49,49,49,49,49
</data>
 </layer>
 <layer id="4" name="Front" width="18" height="15">
  <data encoding="csv">
1,2,2,2,2,2,2,2,2,2,2,2,2,2,2,2,2,3,
5,65,0,0,0,0,0,0,0,0,0,0,0,0,0,0,0,7,
5,69,72,0,0,0,0,0,0,0,0,0,0,70,71,0,0,7,
5,0,0,0,0,0,0,0,0,0,0,0,0,0,0,0,0,7,
5,0,0,0,0,0,0,0,0,0,0,0,0,0,0,0,0,7,
5,0,0,0,0,0,0,0,0,0,0,0,0,0,0,0,0,7,
5,59,59,0,0,0,0,0,0,0,0,0,0,0,0,0,0,7,
9,10,10,10,10,4,0,0,0,0,0,0,0,0,0,0,0,7,
1,2,2,2,2,12,0,0,0,0,0,0,0,0,0,0,0,7,
5,0,0,65,0,0,0,0,0,0,0,0,0,0,0,0,0,7,
5,39,40,69,39,40,0,0,0,0,0,0,0,0,0,0,0,7,
5,0,0,0,0,0,0,0,0,0,0,0,0,0,0,0,0,7,
5,0,0,0,0,0,0,0,0,0,0,0,0,0,0,0,72,7,
9,10,10,10,10,10,10,10,10,10,4,0,8,10,10,10,10,11,
49,49,49,49,49,49,49,49,49,49,9,10,11,49,49,49,49,49
</data>
 </layer>
 <objectgroup id="6" name="Object">
  <object id="1" x="63" y="76.5">
   <point/>
  </object>
  <object id="2" x="121.5" y="130.5">
   <point/>
  </object>
  <object id="3" x="255.667" y="171.333">
   <point/>
  </object>
  <object id="4" x="234" y="82">
   <point/>
  </object>
  <object id="5" name="outCAB" x="184" y="209.5">
   <point/>
  </object>
  <object id="6" name="out" x="167.292" y="223.875" width="33.9167" height="17.125">
   <properties>
    <property name="targetMap" value="farm"/>
   </properties>
  </object>
  <object id="7" name="bac" x="1" y="1.5" width="287" height="239"/>
 </objectgroup>
</map>
