<?xml version="1.0" encoding="UTF-8"?>
<map version="1.10" tiledversion="1.11.2" orientation="orthogonal" renderorder="right-down" width="15" height="20" tilewidth="16" tileheight="16" infinite="0" nextlayerid="10" nextobjectid="11">
 <tileset firstgid="1" name="Paths" tilewidth="16" tileheight="16" tilecount="64" columns="4">
  <image source="Content (unpacked)/Maps/paths.png" width="64" height="256"/>
 </tileset>
 <tileset firstgid="65" name="v15_townInterior_2" tilewidth="16" tileheight="16" tilecount="1312" columns="32">
  <image source="Content (unpacked)/Maps/townInterior_2.png" width="512" height="656"/>
 </tileset>
 <tileset firstgid="1377" name="1" tilewidth="16" tileheight="16" tilecount="2176" columns="32">
  <image source="Content (unpacked)/Maps/townInterior.png" width="512" height="1088"/>
  <tile id="936">
   <animation>
    <frame tileid="936" duration="100"/>
    <frame tileid="1864" duration="100"/>
    <frame tileid="1866" duration="100"/>
    <frame tileid="1868" duration="100"/>
   </animation>
  </tile>
  <tile id="937">
   <animation>
    <frame tileid="937" duration="100"/>
    <frame tileid="1865" duration="100"/>
    <frame tileid="1867" duration="100"/>
    <frame tileid="1869" duration="100"/>
   </animation>
  </tile>
 </tileset>
 <tileset firstgid="3553" source="Cursors.tsx"/>
 <layer id="1" name="Tile Layer 1" width="15" height="20">
  <data encoding="csv">
0,0,0,0,0,0,0,0,0,0,0,0,0,0,0,
0,0,0,0,0,0,0,0,0,0,0,0,0,0,0,
0,0,0,0,0,0,0,0,0,0,0,0,0,0,0,
0,0,0,0,0,0,0,0,0,0,0,0,0,0,0,
0,0,0,0,0,0,0,0,0,0,0,0,0,0,0,
0,0,0,0,0,0,0,0,0,0,0,0,0,0,0,
0,0,0,0,0,0,0,0,0,0,0,0,0,0,0,
0,0,0,0,0,0,0,0,0,0,0,0,0,0,0,
0,0,0,0,0,0,0,0,0,0,0,0,0,0,0,
0,0,0,0,0,0,0,0,0,0,0,0,0,0,0,
0,0,0,0,0,0,0,0,0,0,0,0,0,0,0,
0,0,0,0,0,0,0,0,0,0,0,0,0,0,0,
0,0,0,0,0,0,0,0,0,0,0,0,0,0,0,
0,0,0,0,0,0,0,0,0,0,0,0,0,0,0,
0,0,0,0,0,0,0,0,0,0,0,0,0,0,0,
0,0,0,0,0,0,0,0,0,0,0,0,0,0,0,
0,0,0,0,0,0,0,0,0,0,0,0,0,0,0,
0,0,0,0,0,0,0,0,0,0,0,0,0,0,0,
0,0,0,0,0,0,0,0,0,0,0,0,0,0,0,
0,0,0,0,0,0,0,0,0,0,0,0,0,0,0
</data>
 </layer>
 <layer id="2" name="Back" width="15" height="20">
  <data encoding="csv">
0,0,0,0,0,0,0,0,0,0,0,0,0,0,0,
0,1499,1466,1466,1466,1466,1466,1466,1466,1466,1466,1467,0,0,0,
0,1402,1435,1435,1435,1435,1435,1435,1435,1435,1402,1402,0,0,0,
1983,1402,1489,1489,1489,1489,1489,1489,1489,1489,1489,1402,0,0,0,
1608,1575,1576,1576,1577,1576,1577,1605,1577,1576,340,1090,1984,0,0,
1640,1641,1640,1625,1626,1627,1640,1637,339,340,1057,1058,2016,0,0,
1608,1609,1608,1657,1658,1659,3462,1609,371,372,1089,1090,1984,0,0,
1640,1641,1640,1641,1640,1641,1640,1641,1640,1641,1640,1641,2016,0,0,
0,1545,1400,1401,1608,1399,1399,1399,1400,1401,1400,1401,1040,1679,0,
0,1545,1398,1398,1640,1398,1401,1398,1400,1398,1398,1398,1072,1040,1377,
0,1545,1545,1678,2079,1678,1678,1678,1678,1678,1678,1678,1104,1072,1377,
0,1377,1952,1951,2015,1022,2374,2374,1952,1951,1952,1951,2372,1104,1377,
0,1377,1983,1984,1983,2371,2375,2375,2376,1984,1983,2379,2375,2372,1377,
0,1377,2015,2016,2015,2371,2375,2375,654,2374,2374,655,2375,2375,1377,
0,1377,1983,2326,2327,2371,2375,2375,2375,2375,2375,2375,2375,2375,1377,
0,1377,1951,1952,1951,181,2079,2047,2079,2047,2079,2047,2079,2047,1377,
0,1377,1983,1984,1983,1984,1983,1984,1983,1984,1983,1984,1983,3490,1377,
0,1377,2015,2016,2015,2016,2015,3522,2015,2016,2015,2016,2015,3489,1377,
0,1377,1983,1984,1983,1632,1983,1984,1983,1984,1983,1984,1983,3521,1377,
0,1377,2015,2016,2015,2374,2015,2016,2015,2016,2015,2016,2015,2016,1377
</data>
 </layer>
 <objectgroup id="8" name="Object">
  <object id="1" name="out" x="92.5" y="297">
   <properties>
    <property name="targetMap" value="farm"/>
   </properties>
   <point/>
  </object>
  <object id="2" name="outStore" x="92" y="282.5">
   <point/>
  </object>
  <object id="5" name="door" x="55" y="161.5" width="34.5" height="13"/>
 </objectgroup>
 <layer id="3" name="Back2" width="15" height="20">
  <data encoding="csv">
0,0,0,0,0,0,0,0,0,0,0,0,0,0,0,
0,0,0,0,0,0,0,0,0,0,0,0,0,0,0,
0,0,0,0,0,0,0,0,0,0,0,0,0,0,0,
0,0,0,0,0,0,0,0,0,0,0,0,0,0,0,
0,0,0,0,0,0,0,0,0,0,0,0,0,0,0,
0,0,0,0,0,0,0,0,0,0,0,0,0,0,0,
0,0,0,0,0,0,0,0,0,0,0,0,0,0,0,
0,0,0,0,0,0,0,0,0,0,0,0,0,0,0,
0,0,0,0,0,0,0,0,0,0,0,0,0,0,0,
0,0,0,0,0,0,0,0,0,0,0,0,0,0,0,
0,0,0,0,0,0,0,0,0,0,0,0,0,0,0,
0,0,0,0,0,0,0,0,0,0,0,0,0,0,0,
0,0,0,0,0,0,0,0,0,0,0,0,0,0,0,
0,0,0,0,0,0,0,0,0,0,0,0,0,0,0,
0,0,0,0,0,0,0,0,0,0,0,0,0,0,0,
0,0,0,1005,1006,0,0,0,0,0,0,0,0,0,0,
0,0,0,1037,1038,0,0,0,0,0,0,0,0,0,0,
0,0,0,0,0,0,0,0,0,0,0,0,0,0,0,
0,0,0,0,0,0,0,0,0,0,0,0,0,0,0,
0,0,0,0,0,0,0,0,0,0,0,0,0,0,0
</data>
 </layer>
 <layer id="4" name="Buildings" width="15" height="20">
  <data encoding="csv">
1377,1377,1377,1377,1377,1377,1377,1377,1377,1377,1377,1377,1377,0,0,
1377,605,0,0,0,0,0,0,0,0,0,606,1377,0,0,
1377,1456,1457,1457,1457,1457,1457,1457,1457,1457,1457,1458,1377,0,0,
1377,1488,1859,1860,1591,1489,1489,1489,1489,1733,1734,1490,1377,0,0,
1377,1520,1891,1892,0,2022,2023,0,0,0,0,1522,1377,0,0,
1377,1778,0,0,0,0,0,0,0,1697,1698,0,1377,0,0,
1377,788,0,0,0,0,0,1900,0,0,0,1829,1377,0,0,
1377,1377,1377,1377,0,1377,1377,1377,1377,1379,1379,1379,1377,1377,0,
1377,1377,0,1532,0,1531,0,0,0,0,0,1532,0,1377,1377,
1377,1377,1457,1564,0,1563,1457,1457,2280,2281,2282,2283,1458,0,1377,
1377,1377,1489,1596,0,1595,1489,1596,2312,2313,2314,2315,1490,1458,1377,
1377,1377,1911,0,0,0,0,0,2344,2345,2346,2347,1522,1490,1377,
1377,1377,0,0,0,0,0,0,0,2377,2378,0,0,1522,1377,
1377,1377,1898,0,2270,0,0,0,0,0,0,0,2342,2343,1377,
1377,1377,2327,2327,1112,0,0,0,0,0,0,0,0,0,1377,
1377,1377,1930,0,0,0,0,0,0,0,0,0,0,594,1377,
1377,1377,0,0,0,0,0,0,0,1881,1882,1883,0,626,1377,
1377,1377,0,0,0,0,0,0,0,1913,1914,1915,1833,0,1377,
1377,1377,1872,0,0,0,0,0,0,0,1899,0,0,1809,1377,
1377,1377,1377,1377,1377,0,1377,1377,1377,1377,1377,1377,1377,1377,1377
</data>
 </layer>
 <layer id="5" name="Front" width="15" height="20">
  <data encoding="csv">
0,1378,1387,1387,1387,1387,1387,1387,1387,1387,1387,1380,0,1377,1377,
1409,1418,2721,0,303,304,0,1633,2309,0,2721,1420,1413,1377,1377,
1441,637,0,0,335,336,0,1665,0,1701,1702,638,1445,1377,1377,
1441,0,1889,1860,0,1990,1991,0,0,1735,1736,0,1445,1377,1377,
1441,1746,0,0,0,0,0,0,0,1767,1768,0,1445,1377,1377,
1441,756,0,0,0,0,0,0,0,0,0,2723,1445,1377,1377,
1537,2026,1542,1539,0,1540,1542,1542,1094,1095,1542,1543,1544,1377,1377,
0,1386,1379,1571,0,1570,1387,1387,1387,2045,2046,2968,1380,0,1377,
0,1441,0,0,0,0,2341,0,0,2077,2078,3000,1420,1393,0,
0,1441,2339,2340,0,0,2373,0,0,0,0,0,0,1420,1413,
0,1441,1879,0,0,0,0,0,0,0,0,0,0,0,1445,
0,1441,0,0,0,0,0,0,0,0,0,0,0,0,1445,
0,1441,1866,0,2206,0,0,0,0,0,0,0,2310,2311,1445,
0,1441,2296,2295,1857,0,0,0,0,0,0,0,0,0,1445,
0,1441,0,0,0,0,0,0,0,0,0,0,0,562,1445,
0,1441,0,0,0,0,0,0,0,1849,1850,1851,0,2026,1445,
1377,1441,0,0,0,0,0,0,0,0,1743,0,1801,0,1445,
0,1441,1840,0,0,0,0,0,0,0,1867,0,0,0,1445,
0,1537,1538,1542,1539,0,1540,1096,1097,1542,1542,1542,1542,1543,1544,
0,0,0,0,1473,1542,1507,0,0,0,0,0,0,1377,1377
</data>
 </layer>
 <layer id="6" name="Front2" width="15" height="20">
  <data encoding="csv">
0,0,0,0,0,0,0,0,0,0,0,0,0,0,0,
0,509,0,0,0,0,0,0,0,0,0,0,0,0,0,
0,541,0,0,0,0,0,0,0,0,0,0,0,0,0,
0,0,0,1810,0,0,0,0,0,0,0,0,0,0,0,
0,0,0,0,0,0,0,0,0,0,0,0,0,0,0,
0,0,0,0,0,0,0,0,0,0,0,0,0,0,0,
0,1538,0,0,0,0,0,0,1542,1542,0,0,0,0,0,
0,0,0,0,0,0,0,0,0,0,0,0,0,0,0,
0,0,0,0,0,0,0,0,0,0,0,0,0,0,0,
0,0,0,0,0,0,0,0,0,0,0,0,0,0,0,
0,0,0,0,0,0,0,0,0,0,0,0,0,0,0,
0,0,0,0,0,0,0,0,0,0,0,0,0,0,0,
0,0,0,0,0,0,0,0,0,0,0,0,0,0,0,
0,0,0,0,0,0,0,0,0,0,0,0,0,0,0,
0,0,0,0,0,0,0,0,0,0,0,0,0,0,0,
0,0,0,0,0,0,0,0,0,0,0,0,0,0,0,
0,0,0,0,0,0,0,0,0,0,0,0,0,0,0,
0,0,0,0,0,0,0,0,0,0,0,0,0,0,0,
0,0,0,0,0,0,0,1542,1542,0,0,0,0,0,0,
0,0,0,0,0,0,0,0,0,0,0,0,0,0,0
</data>
 </layer>
 <layer id="9" name="door" width="15" height="20">
  <data encoding="csv">
0,0,0,0,0,0,0,0,0,0,0,0,0,0,0,
0,0,0,0,0,0,0,0,0,0,0,0,0,0,0,
0,0,0,0,0,0,0,0,0,0,0,0,0,0,0,
0,0,0,0,0,0,0,0,0,0,0,0,0,0,0,
0,0,0,0,0,0,0,0,0,0,0,0,0,0,0,
0,0,0,0,0,0,0,0,0,0,0,0,0,0,0,
0,0,0,0,0,0,0,0,0,0,0,0,0,0,0,
0,0,0,0,3981,0,0,0,0,0,0,0,0,0,0,
0,0,0,0,4025,0,0,0,0,0,0,0,0,0,0,
0,0,0,0,4069,0,0,0,0,0,0,0,0,0,0,
0,0,0,0,0,0,0,0,0,0,0,0,0,0,0,
0,0,0,0,0,0,0,0,0,0,0,0,0,0,0,
0,0,0,0,0,0,0,0,0,0,0,0,0,0,0,
0,0,0,0,0,0,0,0,0,0,0,0,0,0,0,
0,0,0,0,0,0,0,0,0,0,0,0,0,0,0,
0,0,0,0,0,0,0,0,0,0,0,0,0,0,0,
0,0,0,0,0,0,0,0,0,0,0,0,0,0,0,
0,0,0,0,0,0,0,0,0,0,0,0,0,0,0,
0,0,0,0,0,0,0,0,0,0,0,0,0,0,0,
0,0,0,0,0,0,0,0,0,0,0,0,0,0,0
</data>
 </layer>
</map>
