<?xml version="1.0" encoding="UTF-8"?>
<map version="1.10" tiledversion="1.11.2" orientation="orthogonal" renderorder="right-down" width="32" height="25" tilewidth="16" tileheight="16" infinite="0" nextlayerid="10" nextobjectid="3">
 <tileset firstgid="1" name="p" tilewidth="16" tileheight="16" tilecount="64" columns="4">
  <image source="Content (unpacked)/Maps/paths.png" width="64" height="256"/>
 </tileset>
 <tileset firstgid="65" name="1" tilewidth="16" tileheight="16" tilecount="2176" columns="32">
  <image source="Content (unpacked)/Maps/townInterior.png" width="512" height="1088"/>
 </tileset>
 <tileset firstgid="2241" name="2" tilewidth="16" tileheight="16" tilecount="1312" columns="32">
  <image source="Content (unpacked)/Maps/townInterior_2.png" width="512" height="656"/>
 </tileset>
 <layer id="1" name="Tile Layer 1" width="32" height="25">
  <data encoding="csv">
0,0,0,0,0,0,0,0,0,0,0,0,0,0,0,0,0,0,0,0,0,0,0,0,0,0,0,0,0,0,0,0,
0,0,0,0,0,0,0,0,0,0,0,0,0,0,0,0,0,0,0,0,0,0,0,0,0,0,0,0,0,0,0,0,
0,0,0,0,0,0,0,0,0,0,0,0,0,0,0,0,0,0,0,0,0,0,0,0,0,0,0,0,0,0,0,0,
0,0,0,0,0,0,0,0,0,0,0,0,0,0,0,0,0,0,0,0,0,0,0,0,0,0,0,0,0,0,0,0,
0,0,0,0,0,0,0,0,0,0,0,0,0,0,0,0,0,0,0,0,0,0,0,0,0,0,0,0,0,0,0,0,
0,0,0,0,0,0,0,0,0,0,0,0,0,0,0,0,0,0,0,0,0,0,0,0,0,0,0,0,0,0,0,0,
0,0,0,0,0,0,0,0,0,0,0,0,0,0,0,0,0,0,0,0,0,0,0,0,0,0,0,0,0,0,0,0,
0,0,0,0,0,0,0,0,0,0,0,0,0,0,0,0,0,0,0,0,0,0,0,0,0,0,0,0,0,0,0,0,
0,0,0,0,0,0,0,0,0,0,0,0,0,0,0,0,0,0,0,0,0,0,0,0,0,0,0,0,0,0,0,0,
0,0,0,0,0,0,0,0,0,0,0,0,0,0,0,0,0,0,0,0,0,0,0,0,0,0,0,0,0,0,0,0,
0,0,0,0,0,0,0,0,0,0,0,0,0,0,0,0,0,0,0,0,0,0,0,0,0,0,0,0,0,0,0,0,
0,0,0,0,0,0,0,0,0,0,0,0,0,0,0,0,0,0,0,0,0,0,0,0,0,0,0,0,0,0,0,0,
0,0,0,0,0,0,0,0,0,0,0,0,0,0,0,0,0,0,0,0,0,0,0,0,0,0,0,0,0,0,0,0,
0,0,0,0,0,0,0,0,0,0,0,0,0,0,0,0,0,0,0,0,0,0,0,0,0,0,0,0,0,0,0,0,
0,0,0,0,0,0,0,0,0,0,0,0,0,0,0,0,0,0,0,0,0,0,0,0,0,0,0,0,0,0,0,0,
0,0,0,0,0,0,0,0,0,0,0,0,0,0,0,0,0,0,0,0,0,0,0,0,0,0,0,0,0,0,0,0,
0,0,0,0,0,0,0,0,0,0,0,0,0,0,0,0,0,0,0,0,0,0,0,0,0,0,0,0,0,0,0,0,
0,0,0,0,0,0,0,0,0,0,0,0,0,0,0,0,0,0,0,0,0,0,0,0,0,0,0,0,0,0,0,0,
0,0,0,0,0,0,0,0,0,0,0,0,0,0,0,0,0,0,0,0,0,0,0,0,0,0,0,0,0,0,0,0,
0,0,0,0,0,0,0,0,0,0,0,0,0,0,0,0,0,0,0,0,0,0,0,0,0,0,0,0,0,0,0,0,
0,0,0,0,0,0,0,0,0,0,0,0,0,0,0,0,0,0,0,0,0,0,0,0,0,0,0,0,0,0,0,0,
0,0,0,0,0,0,0,0,0,0,0,0,0,0,0,0,0,0,0,0,0,0,0,0,0,0,0,0,0,0,0,0,
0,0,0,0,0,0,0,0,0,0,0,0,0,0,0,0,0,0,0,0,0,0,0,0,0,0,0,0,0,0,0,0,
0,0,0,0,0,0,0,0,0,0,0,0,0,0,0,0,0,0,0,0,0,0,0,0,0,0,0,0,0,0,0,0,
0,0,0,0,0,0,0,0,0,0,0,0,0,0,0,0,0,0,0,0,0,0,0,0,0,0,0,0,0,0,0,0
</data>
 </layer>
 <objectgroup id="9" name="Object">
  <object id="1" name="out" x="96.6667" y="390.583" width="14.6667" height="9.5">
   <properties>
    <property name="targetMap" value="farm1"/>
   </properties>
  </object>
  <object id="2" name="outStore" x="106.667" y="383.333">
   <point/>
  </object>
 </objectgroup>
 <layer id="2" name="Back" width="32" height="25">
  <data encoding="csv">
65,65,65,65,65,65,65,65,65,65,65,65,65,65,65,65,65,65,65,65,65,65,65,65,65,0,0,0,0,0,0,0,
65,3326,3327,3327,3327,3327,3309,3327,3327,3327,3328,65,65,103,104,104,104,104,104,104,104,104,104,105,65,0,0,0,0,0,0,0,
65,3358,3359,3359,3359,3359,3341,3359,3359,3359,3360,65,65,135,136,136,136,136,136,136,136,136,136,137,65,0,0,0,0,0,0,0,
65,3390,283,283,283,283,3373,283,283,283,3392,65,65,167,65,65,65,65,65,171,171,171,171,169,65,0,0,0,0,0,0,0,
65,2574,2574,200,293,265,264,2373,264,265,295,65,65,636,669,572,3267,3267,669,669,669,669,669,637,65,65,65,65,65,65,65,65,
65,2574,2574,263,325,297,296,297,2183,2216,297,65,65,668,700,604,669,669,700,668,700,700,700,700,65,65,2837,2838,2838,2838,2838,65,
65,2574,2567,69,328,329,328,329,2215,2150,2516,65,65,700,700,700,668,700,700,668,700,700,700,3107,65,65,2869,2870,2870,2870,2870,65,
65,265,313,314,315,297,2216,297,296,2149,2516,65,65,668,700,700,700,668,700,668,700,668,700,3139,65,65,2901,328,329,328,301,65,
65,329,345,346,347,329,328,297,65,65,65,65,65,700,65,65,65,65,65,65,65,65,65,65,65,98,70,3446,70,2574,2574,65,
65,65,0,1108,0,65,296,69,99,99,99,99,99,668,99,99,99,99,99,99,99,99,99,99,99,99,2568,264,293,265,329,65,
0,65,65,1140,65,65,328,328,131,131,131,131,131,668,131,131,131,131,131,131,131,131,131,131,131,131,2184,2183,325,2150,2815,65,
0,65,65,65,65,264,393,393,163,163,163,163,163,393,65,65,65,65,65,65,65,65,65,65,65,263,2184,2215,329,2148,2373,65,
65,0,0,0,0,65,328,329,264,265,264,265,265,329,264,265,264,265,264,265,264,265,264,264,265,264,2150,296,297,296,2150,65,
65,0,0,0,0,65,65,65,65,65,65,65,1108,1108,65,65,65,65,65,65,65,65,65,65,65,328,2149,2149,70,328,2149,65,
65,0,99,0,0,0,0,0,99,0,65,65,1108,1108,65,65,2942,2943,2943,2943,2943,2943,2943,2944,65,296,2148,2149,2149,296,2149,65,
65,0,131,0,0,0,0,0,131,0,65,65,264,265,65,65,2974,2975,2975,2975,2975,2975,2975,2976,65,65,65,65,65,65,65,65,
65,0,163,0,163,0,0,0,163,0,65,65,296,297,65,65,3006,3007,3007,3007,3007,3007,3007,3008,65,0,0,0,0,0,0,0,
65,2193,265,293,265,264,265,293,265,2516,99,99,328,2216,99,99,1075,1075,1075,1075,1075,2365,1075,1043,65,0,0,0,0,0,0,0,
65,2574,263,325,297,2150,297,325,265,2574,214,214,296,2150,131,131,1075,1112,1075,1075,1075,1075,1074,1074,65,0,0,0,0,0,0,0,
65,2567,329,328,69,2149,329,328,329,328,214,214,2183,2149,0,0,1074,1144,1074,1074,1074,1074,1074,1074,65,0,0,0,0,0,0,0,
65,296,316,317,318,2148,265,264,265,264,265,264,2215,2148,264,1279,1074,1074,1074,1074,1074,1074,1074,1074,65,0,0,0,0,0,0,0,
65,328,348,349,350,328,2184,2184,2184,2150,65,65,1108,1108,65,65,1074,1074,1074,1074,1074,1074,1074,2365,65,0,0,0,0,0,0,0,
65,296,380,381,382,296,328,2216,2184,2149,65,65,1140,1140,65,65,1074,1074,1074,1074,1074,1074,1074,1075,65,0,0,0,0,0,0,0,
65,328,2184,2184,329,328,2183,328,328,2149,65,65,65,65,65,65,1074,1074,1074,1074,1074,1074,1074,1074,65,0,0,0,0,0,0,0,
65,65,65,65,65,65,2215,65,65,65,65,65,65,65,65,65,65,65,65,65,65,65,65,65,65,0,0,0,0,0,0,0
</data>
 </layer>
 <layer id="3" name="Back2" width="32" height="25">
  <data encoding="csv">
0,0,0,0,0,0,0,0,0,0,0,0,0,0,0,0,0,0,0,0,0,0,0,0,0,0,0,0,0,0,0,0,
0,0,0,0,0,0,0,0,0,0,0,0,0,0,0,0,0,0,0,0,0,0,0,0,0,0,0,0,0,0,0,0,
0,0,0,0,0,0,0,0,0,0,0,0,0,0,0,0,0,0,0,0,0,0,0,0,0,0,0,0,0,0,0,0,
0,0,0,0,0,0,0,0,2524,2527,0,0,0,0,0,0,0,0,0,0,0,0,0,0,0,0,0,0,0,0,0,0,
0,0,0,0,0,0,0,0,2556,2559,0,0,0,0,0,0,0,0,3304,3305,3306,3307,3308,0,0,0,0,0,0,0,0,0,
0,0,0,0,0,0,2696,2697,2588,2591,0,0,0,0,0,0,0,0,3336,3337,3338,3339,3340,0,0,0,0,0,0,0,0,0,
0,0,0,0,0,0,0,0,2386,2387,0,0,0,0,0,0,0,0,3368,3369,3370,3371,3372,0,0,0,0,0,0,0,0,0,
0,0,0,0,0,0,0,0,2418,2419,0,0,0,0,0,0,0,0,0,0,0,0,0,0,0,0,0,0,0,0,0,0,
0,0,0,0,0,0,0,0,0,0,0,0,0,0,0,0,0,0,0,0,0,0,0,0,0,0,0,0,0,0,0,0,
0,0,0,0,0,0,0,0,0,0,0,0,0,0,0,0,0,0,0,0,0,0,0,0,0,0,0,0,0,0,0,0,
0,0,0,0,0,0,0,0,0,0,0,0,0,0,0,0,0,0,0,0,0,0,0,0,0,0,0,0,0,0,0,0,
0,0,0,0,0,0,0,0,0,0,0,0,0,0,0,0,0,0,0,0,0,0,0,0,0,0,0,0,0,0,0,0,
0,0,0,0,0,0,0,0,0,0,0,0,2897,2898,0,0,0,0,0,0,0,0,0,0,0,0,0,0,0,0,0,0,
0,0,0,0,0,0,0,0,0,0,0,0,0,0,0,0,0,0,0,0,0,0,0,0,0,0,0,0,0,0,0,0,
0,0,0,0,0,0,0,0,0,0,0,0,0,0,0,0,0,0,0,0,0,0,0,0,0,0,0,0,0,0,0,0,
0,0,0,0,0,0,0,0,0,0,0,0,0,0,0,0,0,0,0,0,0,0,0,0,0,0,0,0,0,0,0,0,
0,0,0,0,0,0,0,0,0,0,0,0,2442,2443,0,0,0,0,0,0,0,0,0,0,0,0,0,0,0,0,0,0,
0,0,0,0,0,0,0,0,0,0,0,0,2474,2475,0,0,0,0,0,0,0,0,0,0,0,0,0,0,0,0,0,0,
0,0,0,0,0,0,0,0,0,0,0,0,2506,2507,0,0,0,0,0,0,0,0,0,0,0,0,0,0,0,0,0,0,
0,0,0,0,0,0,0,0,0,0,0,0,0,0,0,0,0,0,0,0,0,0,0,0,0,0,0,0,0,0,0,0,
0,0,0,0,0,0,0,3363,3364,0,0,0,2897,2898,0,0,0,0,0,0,0,0,0,0,0,0,0,0,0,0,0,0,
0,0,0,0,0,0,0,0,0,0,0,0,0,0,0,0,0,0,0,0,0,0,0,0,0,0,0,0,0,0,0,0,
0,0,0,0,0,0,0,0,0,0,0,0,0,0,0,0,0,0,0,0,0,0,0,0,0,0,0,0,0,0,0,0,
0,0,0,0,0,0,0,0,0,0,0,0,0,0,0,0,0,0,0,0,0,0,0,0,0,0,0,0,0,0,0,0,
0,0,0,0,0,0,0,0,0,0,0,0,0,0,0,0,0,0,0,0,0,0,0,0,0,0,0,0,0,0,0,0
</data>
 </layer>
 <layer id="4" name="Buildings" width="32" height="25">
  <data encoding="csv">
0,0,0,0,0,0,0,0,0,0,0,0,0,0,0,0,0,0,0,0,0,0,0,0,0,0,0,0,0,0,0,0,
0,2781,0,0,0,220,3398,219,0,0,2782,0,0,0,0,0,0,0,0,0,0,0,0,0,65,0,0,0,0,0,0,0,
65,144,145,145,145,252,3430,251,145,145,146,0,0,138,139,139,139,645,139,139,139,139,139,140,65,0,0,0,0,0,0,0,
65,176,421,422,177,284,3373,283,742,743,178,0,65,170,171,171,676,677,171,836,837,838,650,172,65,0,0,0,0,0,0,0,
65,208,0,0,0,1245,0,1094,774,775,801,0,65,202,780,0,708,709,0,0,0,0,682,204,65,0,0,0,0,0,0,0,
65,517,385,386,0,0,0,0,618,0,865,0,65,779,0,0,0,0,0,385,933,386,0,509,65,0,2485,0,0,0,0,65,
65,1224,0,0,0,0,1256,0,0,0,929,0,65,0,0,0,0,0,0,0,0,0,951,541,65,0,138,139,139,139,139,65,
65,0,0,0,0,0,0,0,0,0,428,0,65,0,0,0,0,0,0,0,0,0,0,600,65,0,170,171,171,171,171,65,
65,0,0,0,0,0,0,0,65,65,65,65,65,0,65,65,65,65,65,65,65,65,65,65,65,0,202,699,697,698,1137,65,
65,65,65,0,65,65,65,0,119,0,0,0,120,0,119,0,0,0,0,0,0,0,0,0,0,120,466,0,0,0,1137,65,
0,65,65,0,65,65,65,185,151,139,139,139,152,185,151,139,139,139,139,139,139,139,139,139,139,152,0,0,0,0,1169,65,
0,65,65,65,65,65,65,0,183,171,171,171,184,0,183,171,171,171,171,171,171,171,171,171,171,184,0,0,586,0,0,65,
0,0,65,0,65,65,65,0,0,0,0,0,0,0,0,0,0,0,0,0,0,0,0,0,0,0,0,490,491,492,0,65,
0,66,67,67,67,67,67,67,67,68,65,65,0,0,65,65,65,65,65,65,65,65,65,65,65,65,0,522,523,524,521,65,
0,98,99,99,99,99,99,99,99,100,0,65,0,0,65,65,0,0,0,0,0,0,0,0,65,65,0,587,0,587,0,65,
0,130,2190,131,131,131,131,131,2190,132,0,65,0,0,65,65,0,0,0,0,0,0,0,0,65,65,65,65,65,65,65,65,
0,162,2222,163,994,163,163,163,2222,164,0,65,0,0,65,65,1068,1068,1037,1068,1068,107,107,2705,65,0,0,0,0,0,0,0,
0,194,2221,0,1026,0,0,0,2221,196,2257,2258,0,0,219,220,1070,1070,1070,1070,1070,1071,0,1104,65,0,0,0,0,0,0,0,
65,2585,0,0,0,0,982,0,0,951,2289,2290,0,0,251,252,0,0,909,0,0,0,0,1040,65,0,0,0,0,0,0,0,
65,0,0,0,0,0,1014,1016,1016,1016,2321,2322,0,0,283,284,0,0,0,0,0,0,0,1040,65,0,0,0,0,0,0,0,
65,779,0,0,0,0,0,0,0,0,0,0,0,0,0,0,0,0,0,0,0,0,0,1040,65,0,0,0,0,0,0,0,
65,810,0,0,0,0,0,0,0,0,65,65,0,0,65,65,0,0,0,0,0,0,0,1103,65,0,0,0,0,0,0,0,
65,779,0,0,0,0,0,0,0,0,65,65,0,0,65,65,0,0,0,0,0,0,909,0,65,0,0,0,0,0,0,0,
65,0,0,0,0,0,0,0,0,599,65,65,0,0,65,65,0,0,0,0,0,0,0,0,65,0,0,0,0,0,0,0,
65,65,65,65,65,65,0,65,65,65,65,65,65,65,65,65,65,65,65,65,65,65,65,65,65,0,0,0,0,0,0,0
</data>
 </layer>
 <layer id="5" name="Front" width="32" height="25">
  <data encoding="csv">
65,66,67,2186,67,67,67,2186,67,67,68,65,0,66,67,67,2186,67,67,67,67,2186,67,68,0,65,65,65,65,65,65,65,
97,106,1057,0,321,0,0,0,891,3399,108,101,97,106,278,321,0,0,241,0,272,0,246,108,101,65,65,65,65,65,65,65,
2217,2813,389,390,353,0,0,0,0,3431,2814,133,129,0,0,353,644,899,0,804,805,806,0,0,133,65,65,65,65,65,65,65,
129,0,487,488,0,0,0,0,940,941,0,133,2217,0,748,0,0,0,0,417,869,418,545,0,133,65,65,65,65,65,65,65,
129,1411,3432,3433,0,0,0,0,0,0,898,133,129,747,0,0,0,0,0,449,901,450,0,477,133,0,66,2186,67,2186,67,76,
2217,0,0,0,0,0,0,0,0,0,0,2218,129,0,0,0,0,0,0,0,0,0,919,0,2218,97,106,0,321,0,1409,133,
129,0,0,0,0,0,0,0,0,0,396,133,129,0,0,0,0,0,0,0,0,0,0,568,133,2217,2517,635,353,634,0,2218,
129,2577,0,0,0,0,0,0,228,230,231,232,129,0,228,3183,3184,2185,230,2864,2865,2866,230,231,232,129,0,667,665,666,1105,133,
225,2609,227,0,228,2185,227,121,258,67,2186,67,259,121,258,2186,67,67,67,2186,67,67,67,2186,67,259,434,0,0,0,464,133,
0,0,129,0,133,0,129,153,0,0,1180,1181,0,153,0,274,242,278,311,0,247,0,240,821,0,0,0,0,0,0,1095,133,
65,0,161,230,195,0,2217,0,0,0,1212,1213,0,0,280,0,0,0,0,0,0,0,0,0,0,0,0,0,554,0,0,133,
65,0,0,0,0,0,129,0,0,0,0,0,0,0,0,0,0,0,0,0,0,0,0,0,0,0,0,458,459,460,0,2218,
65,65,65,65,65,0,225,226,230,2185,230,227,0,0,228,2185,230,230,230,230,2185,230,230,230,230,227,0,0,431,397,489,133,
65,66,2191,67,67,2186,67,67,2191,68,65,129,0,0,133,65,66,67,2186,67,67,2186,67,68,65,129,0,555,0,555,0,133,
97,106,2223,290,278,966,0,290,2223,108,101,129,0,0,133,97,106,321,3422,3423,3424,0,0,108,101,225,226,230,2185,230,231,232,
129,0,0,322,0,965,967,322,0,0,2218,129,0,0,133,2217,0,353,3454,3455,3456,1141,1142,0,133,65,65,65,65,65,65,65,
2217,0,0,0,0,0,0,0,0,0,258,259,0,0,258,259,1038,1110,1037,1109,1068,1069,0,0,2218,65,65,65,65,65,65,65,
129,2553,0,0,0,0,950,0,0,919,0,0,0,0,2503,2504,0,0,877,0,0,0,0,1069,133,65,65,65,65,65,65,65,
129,0,0,0,0,0,545,983,984,983,0,0,0,0,2535,2536,0,0,0,0,0,0,0,0,133,65,65,65,65,65,65,65,
129,747,0,0,0,0,0,0,0,0,0,0,0,0,0,0,0,0,0,0,0,0,0,1111,133,65,65,65,65,65,65,65,
129,746,0,0,0,0,0,0,0,0,228,227,0,0,228,227,0,0,0,0,0,0,0,772,133,65,65,65,65,65,65,65,
2217,747,0,0,0,0,0,0,0,0,2218,129,0,0,133,129,0,0,0,0,0,0,877,0,2218,65,65,65,65,65,65,65,
129,0,0,0,0,0,0,0,0,567,133,225,226,231,232,129,0,0,0,0,0,0,0,0,133,65,65,65,65,65,65,65,
225,0,2864,2866,230,227,0,228,2185,231,232,65,65,65,65,225,1068,1068,1068,1069,0,0,0,0,232,65,65,65,65,65,65,65,
0,0,0,0,0,129,0,133,0,0,0,0,0,0,0,0,0,0,0,0,0,0,0,0,0,65,65,65,65,65,65,65
</data>
 </layer>
 <layer id="6" name="Front2" width="32" height="25">
  <data encoding="csv">
0,0,0,0,0,0,0,0,0,0,0,0,0,0,0,0,0,0,0,0,0,0,0,0,0,0,0,0,0,0,0,0,
0,0,0,0,0,0,0,3404,0,0,3402,0,0,3325,0,0,0,0,0,0,0,0,0,2621,0,0,0,0,0,0,0,0,
0,0,0,0,0,0,0,3436,0,0,3434,0,0,3357,0,0,0,0,0,0,0,0,0,2653,0,0,0,0,0,0,0,0,
0,0,0,0,0,0,0,0,0,0,0,0,0,0,0,0,0,0,0,0,0,0,0,0,0,0,0,0,0,0,0,0,
0,0,0,0,0,0,0,0,0,0,0,0,0,0,0,0,0,0,0,0,0,0,0,0,0,0,0,0,0,0,0,0,
0,0,0,0,0,0,0,0,0,0,0,0,0,0,0,0,0,0,0,0,0,0,0,0,0,0,2740,0,0,0,0,0,
0,0,0,0,0,0,0,0,0,0,0,0,0,0,0,0,0,0,0,0,384,0,0,0,0,0,2772,0,0,0,0,0,
0,0,0,0,0,0,0,0,0,0,0,0,0,0,0,230,230,0,0,578,416,773,0,0,0,0,0,0,0,0,0,0,
0,226,0,0,0,0,0,0,0,0,0,0,0,0,0,0,0,0,0,0,0,0,0,0,0,0,0,0,0,0,0,0,
0,0,0,0,0,0,0,0,0,0,0,0,0,0,0,0,0,0,0,0,0,0,0,0,0,0,0,0,0,0,0,0,
0,0,0,0,0,0,0,0,0,0,0,0,0,0,0,0,0,0,0,0,0,0,0,0,0,0,0,0,0,0,0,0,
0,0,0,0,0,0,0,0,0,0,0,0,0,0,0,0,0,0,0,0,0,0,0,0,0,0,0,0,0,0,0,0,
0,0,0,0,0,0,0,0,0,0,0,0,0,0,0,0,0,0,0,0,0,0,0,0,0,0,0,0,0,0,0,0,
0,0,0,0,0,0,0,0,0,0,0,0,0,0,0,0,0,0,0,0,0,0,0,0,0,0,0,0,0,0,0,0,
0,0,0,0,0,0,0,0,0,3385,0,0,0,0,0,0,0,0,0,0,0,0,0,0,0,0,0,0,0,0,0,0,
0,0,0,0,0,0,0,0,0,3417,0,0,0,0,0,0,0,0,0,0,0,0,0,0,0,0,0,0,0,0,0,0,
0,0,0,0,0,0,0,0,0,0,0,0,0,0,0,0,0,0,0,0,0,0,0,0,0,0,0,0,0,0,0,0,
0,0,0,0,0,0,0,0,0,0,0,0,0,0,0,0,0,0,0,0,0,0,0,0,0,0,0,0,0,0,0,0,
0,0,0,0,0,0,0,0,0,0,0,0,0,0,0,0,0,0,0,0,0,0,0,0,0,0,0,0,0,0,0,0,
0,0,0,0,0,0,0,0,0,0,0,0,0,0,0,0,0,0,0,0,0,0,0,0,0,0,0,0,0,0,0,0,
0,0,0,0,0,0,0,0,0,0,0,0,0,0,0,0,0,0,0,0,0,0,0,0,0,0,0,0,0,0,0,0,
0,0,0,0,0,0,0,0,0,0,0,0,0,0,0,0,0,0,0,0,0,0,0,0,0,0,0,0,0,0,0,0,
0,0,0,0,0,0,0,0,0,0,0,0,0,0,0,0,0,0,0,0,0,0,0,0,0,0,0,0,0,0,0,0,
0,0,399,577,0,0,0,0,0,0,0,0,0,0,0,0,1109,1111,1110,2264,0,0,0,0,0,0,0,0,0,0,0,0,
0,0,0,0,0,0,0,0,0,0,0,0,0,0,0,0,0,0,0,0,0,0,0,0,0,0,0,0,0,0,0,0
</data>
 </layer>
 <layer id="7" name="Front3" width="32" height="25">
  <data encoding="csv">
0,0,0,0,0,0,0,0,0,0,0,0,0,0,0,0,0,0,0,0,0,0,0,0,0,0,0,0,0,0,0,0,
0,0,0,0,0,0,0,0,0,0,0,0,0,0,0,0,0,0,0,0,0,0,0,0,0,0,0,0,0,0,0,0,
0,0,0,0,0,0,0,0,0,0,0,0,0,0,0,0,0,0,0,0,0,0,0,0,0,0,0,0,0,0,0,0,
0,0,0,0,0,0,0,0,0,0,0,0,0,0,0,0,0,0,0,0,0,0,0,0,0,0,0,0,0,0,0,0,
0,0,0,0,0,0,0,0,0,0,0,0,0,0,0,0,0,0,0,0,0,0,0,0,0,0,0,0,0,0,0,0,
0,0,0,0,0,0,0,0,0,0,0,0,0,0,0,0,0,0,0,0,0,0,0,0,0,0,0,0,0,0,0,0,
0,0,0,0,0,0,0,0,0,0,0,0,0,0,0,0,0,0,0,0,0,0,0,0,0,0,0,0,0,0,0,0,
0,0,0,0,0,0,0,0,0,0,0,0,0,0,0,0,0,0,0,230,230,2185,0,0,0,0,0,0,0,0,0,0,
0,0,0,0,0,0,0,0,0,0,0,0,0,0,0,0,0,0,0,0,0,0,0,0,0,0,0,0,0,0,0,0,
0,0,0,0,0,0,0,0,0,0,0,0,0,0,0,0,0,0,0,0,0,0,0,0,0,0,0,0,0,0,0,0,
0,0,0,0,0,0,0,0,0,0,0,0,0,0,0,0,0,0,0,0,0,0,0,0,0,0,0,0,0,0,0,0,
0,0,0,0,0,0,0,0,0,0,0,0,0,0,0,0,0,0,0,0,0,0,0,0,0,0,0,0,0,0,0,0,
0,0,0,0,0,0,0,0,0,0,0,0,0,0,0,0,0,0,0,0,0,0,0,0,0,0,0,0,0,0,0,0,
0,0,0,0,0,0,0,0,0,0,0,0,0,0,0,0,0,0,0,0,0,0,0,0,0,0,0,0,0,0,0,0,
0,0,0,0,0,0,0,0,0,0,0,0,0,0,0,0,0,0,0,0,0,0,0,0,0,0,0,0,0,0,0,0,
0,0,0,0,0,0,0,0,0,0,0,0,0,0,0,0,0,0,0,0,0,0,0,0,0,0,0,0,0,0,0,0,
0,0,0,0,0,0,0,0,0,0,0,0,0,0,0,0,0,0,0,0,0,0,0,0,0,0,0,0,0,0,0,0,
0,0,0,0,0,0,0,0,0,0,0,0,0,0,0,0,0,0,0,0,0,0,0,0,0,0,0,0,0,0,0,0,
0,0,0,0,0,0,0,0,0,0,0,0,0,0,0,0,0,0,0,0,0,0,0,0,0,0,0,0,0,0,0,0,
0,0,0,0,0,0,0,0,0,0,0,0,0,0,0,0,0,0,0,0,0,0,0,0,0,0,0,0,0,0,0,0,
0,0,0,0,0,0,0,0,0,0,0,0,0,0,0,0,0,0,0,0,0,0,0,0,0,0,0,0,0,0,0,0,
0,0,0,0,0,0,0,0,0,0,0,0,0,0,0,0,0,0,0,0,0,0,0,0,0,0,0,0,0,0,0,0,
0,0,0,0,0,0,0,0,0,0,0,0,0,0,0,0,0,0,0,0,0,0,0,0,0,0,0,0,0,0,0,0,
0,226,230,2185,0,0,0,0,0,0,0,0,0,0,0,0,226,230,2185,230,230,2185,230,231,0,0,0,0,0,0,0,0,
0,0,0,0,0,0,0,0,0,0,0,0,0,0,0,0,0,0,0,0,0,0,0,0,0,0,0,0,0,0,0,0
</data>
 </layer>
</map>
