<?xml version="1.0" encoding="UTF-8"?>
<map version="1.10" tiledversion="1.11.2" orientation="orthogonal" renderorder="right-down" width="12" height="10" tilewidth="16" tileheight="16" infinite="0" nextlayerid="8" nextobjectid="8">
 <tileset firstgid="1" name="Coop" tilewidth="16" tileheight="16" tilecount="84" columns="4">
  <image source="Content (unpacked)/Maps/coopTiles.png" width="64" height="336"/>
  <tile id="12">
   <properties>
    <property name="Type" value="Wood"/>
   </properties>
  </tile>
  <tile id="33">
   <properties>
    <property name="Passable" type="int" value="0"/>
    <property name="Trough" value="T"/>
   </properties>
  </tile>
  <tile id="53">
   <properties>
    <property name="Type" value="Wood"/>
   </properties>
  </tile>
  <tile id="54">
   <properties>
    <property name="Type" value="Wood"/>
   </properties>
  </tile>
 </tileset>
 <layer id="1" name="Tile Layer 1" width="12" height="10">
  <data encoding="csv">
0,0,0,0,0,0,0,0,0,0,0,0,
0,0,0,0,0,0,0,0,0,0,0,0,
0,0,0,0,0,0,0,0,0,0,0,0,
0,0,0,0,0,0,0,0,0,0,0,0,
0,0,0,0,0,0,0,0,0,0,0,0,
0,0,0,0,0,0,0,0,0,0,0,0,
0,0,0,0,0,0,0,0,0,0,0,0,
0,0,0,0,0,0,0,0,0,0,0,0,
0,0,0,0,0,0,0,0,0,0,0,0,
0,0,0,0,0,0,0,0,0,0,0,0
</data>
 </layer>
 <layer id="2" name="Back" width="12" height="10">
  <data encoding="csv">
17,13,13,13,13,13,13,13,13,13,13,17,
17,13,13,13,13,13,13,13,13,13,13,17,
21,13,13,13,13,13,13,13,13,13,13,21,
54,57,54,54,54,54,34,34,34,34,54,54,
13,13,26,55,53,57,47,54,54,54,47,13,
13,55,13,13,13,13,13,55,13,55,13,13,
13,55,37,55,13,13,55,13,53,14,16,13,
13,53,55,13,13,55,14,16,14,19,20,13,
55,55,13,55,13,56,22,24,22,23,24,13,
13,54,54,54,13,13,13,13,13,13,13,13
</data>
 </layer>
 <layer id="3" name="Buildings" width="12" height="10">
  <data encoding="csv">
1,2,2,2,2,2,2,2,2,2,2,3,
5,62,25,17,17,17,25,62,17,61,25,7,
5,21,48,21,21,29,30,30,30,30,31,7,
5,0,0,0,0,33,0,0,0,0,35,7,
5,0,0,0,0,0,0,0,0,0,0,7,
5,0,0,0,0,0,0,0,0,0,58,7,
5,60,0,0,0,0,0,0,0,0,0,7,
5,64,0,0,0,0,0,0,0,0,0,7,
5,63,0,0,0,0,0,0,0,0,0,7,
49,5,0,7,49,49,49,49,49,49,49,49
</data>
 </layer>
 <layer id="4" name="Front" width="12" height="10">
  <data encoding="csv">
1,2,2,2,2,2,2,2,2,2,2,3,
5,0,0,0,0,0,0,0,0,0,0,7,
5,0,0,0,0,0,0,0,0,0,0,7,
5,0,0,0,0,0,0,0,0,0,0,7,
5,0,0,0,0,0,0,0,0,0,0,7,
5,0,0,0,0,0,0,0,0,0,0,7,
5,0,0,0,0,0,0,0,0,0,0,7,
5,59,0,0,0,0,0,0,0,0,0,7,
9,4,0,8,10,10,10,10,10,10,10,11,
49,9,10,11,49,49,49,49,49,49,49,49
</data>
 </layer>
 <objectgroup id="7" name="Object">
  <object id="1" x="32.6667" y="63">
   <point/>
  </object>
  <object id="2" x="49.1667" y="93">
   <point/>
  </object>
  <object id="3" x="138.667" y="81.3333">
   <point/>
  </object>
  <object id="4" x="125.5" y="113.5">
   <point/>
  </object>
  <object id="5" name="outCAB" x="44.3333" y="137">
   <point/>
  </object>
  <object id="6" name="out" x="23.5833" y="145.667" width="32.9167" height="14.75">
   <properties>
    <property name="targetMap" value="farm"/>
   </properties>
  </object>
  <object id="7" name="bac" x="-2.16667" y="-0.833333" width="197.667" height="162.333"/>
 </objectgroup>
</map>
