<?xml version="1.0" encoding="UTF-8"?>
<map version="1.10" tiledversion="1.11.2" orientation="orthogonal" renderorder="right-down" width="25" height="15" tilewidth="16" tileheight="16" infinite="0" nextlayerid="7" nextobjectid="23">
 <tileset firstgid="1" name="p" tilewidth="16" tileheight="16" tilecount="64" columns="4">
  <image source="Content (unpacked)/Maps/paths.png" width="64" height="256"/>
 </tileset>
 <tileset firstgid="65" name="barn" tilewidth="16" tileheight="16" tilecount="84" columns="4">
  <image source="Content (unpacked)/Maps/coopTiles.png" width="64" height="336"/>
  <tile id="12">
   <properties>
    <property name="Type" value="Wood"/>
   </properties>
  </tile>
  <tile id="33">
   <properties>
    <property name="Passable" type="int" value="0"/>
    <property name="Trough" value="T"/>
   </properties>
  </tile>
  <tile id="53">
   <properties>
    <property name="Type" value="Wood"/>
   </properties>
  </tile>
  <tile id="54">
   <properties>
    <property name="Type" value="Wood"/>
   </properties>
  </tile>
 </tileset>
 <layer id="1" name="Tile Layer 1" width="25" height="15">
  <data encoding="csv">
0,0,0,0,0,0,0,0,0,0,0,0,0,0,0,0,0,0,0,0,0,0,0,0,0,
0,0,0,0,0,0,0,0,0,0,0,0,0,0,0,0,0,0,0,0,0,0,0,0,0,
0,0,0,0,0,0,0,0,0,0,0,0,0,0,0,0,0,0,0,0,0,0,0,0,0,
0,0,0,0,0,0,0,0,0,0,0,0,0,0,0,0,0,0,0,0,0,0,0,0,0,
0,0,0,0,0,0,0,0,0,0,0,0,0,0,0,0,0,0,0,0,0,0,0,0,0,
0,0,0,0,0,0,0,0,0,0,0,0,0,0,0,0,0,0,0,0,0,0,0,0,0,
0,0,0,0,0,0,0,0,0,0,0,0,0,0,0,0,0,0,0,0,0,0,0,0,0,
0,0,0,0,0,0,0,0,0,0,0,0,0,0,0,0,0,0,0,0,0,0,0,0,0,
0,0,0,0,0,0,0,0,0,0,0,0,0,0,0,0,0,0,0,0,0,0,0,0,0,
0,0,0,0,0,0,0,0,0,0,0,0,0,0,0,0,0,0,0,0,0,0,0,0,0,
0,0,0,0,0,0,0,0,0,0,0,0,0,0,0,0,0,0,0,0,0,0,0,0,0,
0,0,0,0,0,0,0,0,0,0,0,0,0,0,0,0,0,0,0,0,0,0,0,0,0,
0,0,0,0,0,0,0,0,0,0,0,0,0,0,0,0,0,0,0,0,0,0,0,0,0,
0,0,0,0,0,0,0,0,0,0,0,0,0,0,0,0,0,0,0,0,0,0,0,0,0,
0,0,0,0,0,0,0,0,0,0,0,0,0,0,0,0,0,0,0,0,0,0,0,0,0
</data>
 </layer>
 <layer id="2" name="Back" width="25" height="15">
  <data encoding="csv">
77,77,77,77,77,77,77,77,77,77,77,77,77,77,77,77,77,77,0,0,0,77,77,77,85,
77,77,77,77,77,77,77,77,77,77,77,77,77,77,77,77,77,77,77,77,77,77,77,77,81,
77,77,77,77,77,77,77,77,77,77,77,77,77,77,77,77,77,77,77,77,77,77,77,77,85,
77,130,118,118,118,118,118,102,98,98,98,98,98,98,98,98,98,98,98,98,118,118,118,102,119,
77,101,78,90,80,77,119,121,118,111,118,118,111,118,118,111,118,118,111,118,118,90,77,120,119,
77,77,82,83,84,101,77,77,77,77,119,101,119,78,79,80,77,77,77,117,77,77,77,119,119,
77,77,86,87,88,77,119,77,119,77,77,77,82,83,83,88,77,119,77,78,79,80,77,77,119,
77,77,119,77,119,77,77,77,77,77,119,77,82,83,84,119,77,77,77,82,83,83,79,80,119,
77,77,77,77,77,77,119,77,119,101,77,77,86,87,88,77,101,119,77,86,87,83,83,83,119,
77,77,77,77,77,77,77,77,119,77,77,77,78,79,80,77,77,77,77,77,77,86,87,87,119,
77,77,77,77,77,77,119,77,77,77,120,77,82,83,84,77,77,119,77,77,77,77,77,77,119,
77,131,131,130,131,131,77,77,117,77,77,101,82,83,84,77,77,77,77,78,79,80,77,77,119,
77,83,83,83,83,84,120,77,77,77,119,77,86,87,88,77,77,119,78,83,83,84,77,77,119,
77,86,87,87,83,84,119,77,119,77,119,77,78,79,80,119,78,79,83,83,83,83,80,77,119,
77,77,77,77,77,77,77,77,77,77,77,77,77,77,77,77,77,77,77,77,77,84,77,77,0
</data>
 </layer>
 <layer id="3" name="Buildings" width="25" height="15">
  <data encoding="csv">
65,66,66,66,66,66,66,66,66,66,66,66,66,66,66,66,66,66,66,66,66,66,66,66,67,
69,81,81,89,81,81,81,126,81,89,81,81,89,81,81,89,81,81,89,126,81,89,125,81,71,
69,85,85,85,85,85,85,93,114,115,115,115,115,115,115,115,115,115,115,116,95,85,85,85,71,
69,137,0,0,0,0,0,105,0,0,0,0,0,0,0,0,0,0,0,0,99,138,139,140,71,
69,0,0,0,0,0,0,0,0,0,0,0,0,0,0,0,0,0,0,0,0,0,0,124,71,
69,0,0,0,0,0,0,0,0,0,0,0,0,0,0,0,0,0,0,0,0,0,0,128,71,
69,140,0,0,0,0,0,0,0,0,0,0,0,0,0,0,0,0,0,0,0,0,0,0,71,
73,122,127,0,0,0,0,0,0,0,0,0,0,0,0,0,0,0,0,0,0,0,0,0,71,
65,66,66,66,66,76,0,0,0,0,0,0,0,0,0,0,0,0,0,0,0,0,0,0,71,
69,81,126,81,81,81,0,0,0,0,0,0,0,0,0,0,0,0,0,0,0,0,0,0,71,
69,85,85,85,85,85,0,0,0,0,0,0,0,0,0,0,0,0,0,0,0,0,0,0,71,
69,107,108,137,107,108,0,0,0,0,0,0,0,0,0,0,0,0,0,0,0,0,0,0,71,
69,0,0,0,0,0,0,0,0,0,0,0,0,0,0,0,0,0,0,0,0,0,0,140,71,
69,0,0,0,0,0,0,0,0,0,0,0,0,0,0,0,0,0,0,0,0,0,0,122,71,
113,113,113,113,113,113,113,113,113,113,69,0,71,113,113,113,113,113,113,113,113,113,113,113,113
</data>
 </layer>
 <layer id="4" name="Front" width="25" height="15">
  <data encoding="csv">
65,66,66,66,66,66,66,66,66,66,66,66,66,66,66,66,66,66,66,66,66,66,66,66,67,
69,129,0,0,0,0,0,0,0,0,0,0,0,0,0,0,0,0,0,0,0,0,0,0,71,
69,133,0,0,0,0,0,0,0,0,0,0,0,0,0,0,0,0,0,0,0,134,135,136,71,
69,0,0,0,0,0,0,0,0,0,0,0,0,0,0,0,0,0,0,0,0,0,0,0,71,
69,0,0,0,0,0,0,0,0,0,0,0,0,0,0,0,0,0,0,0,0,0,0,0,71,
69,136,0,0,0,0,0,0,0,0,0,0,0,0,0,0,0,0,0,0,0,0,0,0,71,
69,0,123,0,0,0,0,0,0,0,0,0,0,0,0,0,0,0,0,0,0,0,0,0,71,
73,74,74,74,74,68,0,0,0,0,0,0,0,0,0,0,0,0,0,0,0,0,0,0,71,
65,66,66,66,66,76,0,0,0,0,0,0,0,0,0,0,0,0,0,0,0,0,0,0,71,
69,0,0,129,0,0,0,0,0,0,0,0,0,0,0,0,0,0,0,0,0,0,0,0,71,
69,103,104,133,103,104,0,0,0,0,0,0,0,0,0,0,0,0,0,0,0,0,0,0,71,
69,0,0,0,0,0,0,0,0,0,0,0,0,0,0,0,0,0,0,0,0,0,0,136,71,
69,0,0,0,0,0,0,0,0,0,0,0,0,0,0,0,0,0,0,0,0,0,0,0,71,
73,74,74,74,74,74,74,74,74,74,68,0,72,74,74,74,74,74,74,74,74,74,74,74,75,
113,113,113,113,113,113,113,113,113,113,73,74,75,113,113,113,113,113,113,113,113,113,113,113,113
</data>
 </layer>
 <objectgroup id="6" name="Object">
  <object id="1" x="323.213" y="145.923">
   <point/>
  </object>
  <object id="2" x="261.344" y="170.32">
   <point/>
  </object>
  <object id="3" x="351.675" y="92.0589">
   <point/>
  </object>
  <object id="4" x="280.145" y="94.2175">
   <point/>
  </object>
  <object id="5" x="120.906" y="135.066">
   <point/>
  </object>
  <object id="6" x="276.094" y="209.353">
   <point/>
  </object>
  <object id="7" x="79.4961" y="74.1992">
   <point/>
  </object>
  <object id="8" x="186.369" y="95.369">
   <point/>
  </object>
  <object id="9" x="132" y="91">
   <point/>
  </object>
  <object id="10" x="111" y="185.5">
   <point/>
  </object>
  <object id="11" x="187.5" y="142.5">
   <point/>
  </object>
  <object id="12" x="314.5" y="181">
   <point/>
  </object>
  <object id="18" name="out" x="167.667" y="226" width="33.4167" height="14.75">
   <properties>
    <property name="targetMap" value="farm"/>
   </properties>
  </object>
  <object id="21" name="outCAB" x="189" y="212.5">
   <point/>
  </object>
  <object id="22" name="bac" x="1.1665" y="-2.1665" width="398.667" height="243.333"/>
 </objectgroup>
</map>
