<?xml version="1.0" encoding="UTF-8"?>
<map version="1.10" tiledversion="1.11.2" orientation="orthogonal" renderorder="right-down" width="23" height="10" tilewidth="16" tileheight="16" infinite="0" nextlayerid="7" nextobjectid="16">
 <tileset firstgid="1" name="p" tilewidth="16" tileheight="16" tilecount="64" columns="4">
  <image source="Content (unpacked)/Maps/paths.png" width="64" height="256"/>
 </tileset>
 <tileset firstgid="65" name="Coop" tilewidth="16" tileheight="16" tilecount="84" columns="4">
  <image source="Content (unpacked)/Maps/coopTiles.png" width="64" height="336"/>
  <tile id="12">
   <properties>
    <property name="Type" value="Wood"/>
   </properties>
  </tile>
  <tile id="33">
   <properties>
    <property name="Passable" type="int" value="0"/>
    <property name="Trough" value="T"/>
   </properties>
  </tile>
  <tile id="53">
   <properties>
    <property name="Type" value="Wood"/>
   </properties>
  </tile>
  <tile id="54">
   <properties>
    <property name="Type" value="Wood"/>
   </properties>
  </tile>
 </tileset>
 <layer id="1" name="Tile Layer 1" width="23" height="10">
  <data encoding="csv">
0,0,0,0,0,0,0,0,0,0,0,0,0,0,0,0,0,0,0,0,0,0,0,
0,0,0,0,0,0,0,0,0,0,0,0,0,0,0,0,0,0,0,0,0,0,0,
0,0,0,0,0,0,0,0,0,0,0,0,0,0,0,0,0,0,0,0,0,0,0,
0,0,0,0,0,0,0,0,0,0,0,0,0,0,0,0,0,0,0,0,0,0,0,
0,0,0,0,0,0,0,0,0,0,0,0,0,0,0,0,0,0,0,0,0,0,0,
0,0,0,0,0,0,0,0,0,0,0,0,0,0,0,0,0,0,0,0,0,0,0,
0,0,0,0,0,0,0,0,0,0,0,0,0,0,0,0,0,0,0,0,0,0,0,
0,0,0,0,0,0,0,0,0,0,0,0,0,0,0,0,0,0,0,0,0,0,0,
0,0,0,0,0,0,0,0,0,0,0,0,0,0,0,0,0,0,0,0,0,0,0,
0,0,0,0,0,0,0,0,0,0,0,0,0,0,0,0,0,0,0,0,0,0,0
</data>
 </layer>
 <layer id="2" name="Back" width="23" height="10">
  <data encoding="csv">
85,77,77,77,77,77,77,77,77,77,77,77,0,0,0,0,0,0,0,0,0,0,81,
81,77,81,77,77,77,77,77,77,77,77,77,77,77,77,0,0,0,0,0,0,0,81,
85,77,77,77,77,77,77,77,77,77,77,77,77,77,77,0,0,0,0,0,0,0,85,
77,130,118,118,118,118,98,98,98,98,98,98,98,98,98,98,98,98,118,130,118,130,77,
77,78,80,119,90,121,118,111,121,118,111,118,121,118,111,118,121,111,118,77,90,77,77,
77,86,88,77,120,77,119,77,77,119,101,77,77,77,119,77,77,77,119,77,77,77,77,
77,77,101,77,77,77,77,77,119,77,77,77,119,77,77,78,79,79,79,80,119,77,77,
77,77,119,77,77,120,119,77,78,79,80,119,77,77,79,83,83,83,83,83,80,79,79,
77,77,77,77,119,77,77,77,82,83,84,77,117,77,83,83,87,87,87,83,83,83,83,
77,77,119,77,77,77,77,77,86,77,77,77,77,77,77,77,77,77,77,77,77,77,77
</data>
 </layer>
 <layer id="3" name="Buildings" width="23" height="10">
  <data encoding="csv">
65,66,66,66,66,66,66,66,66,66,66,66,66,66,66,66,66,66,66,66,66,66,67,
69,81,81,81,89,126,81,89,81,81,89,126,81,81,89,81,81,89,125,81,89,81,71,
69,85,85,85,112,93,114,115,115,115,115,115,115,115,115,115,115,116,95,85,112,85,71,
69,137,0,0,0,97,0,0,0,0,0,0,0,0,0,0,0,0,99,137,122,137,71,
69,0,0,0,0,0,0,0,0,0,0,0,0,0,0,0,0,0,0,0,0,124,71,
69,0,0,0,0,0,0,0,0,0,0,0,0,0,0,0,0,0,0,0,0,128,71,
69,122,0,0,0,0,0,0,0,0,0,0,0,0,0,0,0,0,0,0,0,127,71,
69,127,0,0,0,0,0,0,0,0,0,0,0,0,0,0,0,0,0,0,0,0,71,
69,127,0,0,0,0,0,0,0,0,0,0,0,0,0,0,0,0,0,0,0,0,71,
113,69,0,71,113,113,113,113,113,113,113,113,113,113,113,113,113,113,113,113,113,113,113
</data>
 </layer>
 <layer id="4" name="Front" width="23" height="10">
  <data encoding="csv">
65,66,66,66,66,66,66,66,66,66,66,66,66,66,66,66,66,66,66,66,66,66,67,
69,129,0,0,0,0,0,0,0,0,0,0,0,0,0,0,0,0,0,129,0,129,71,
69,133,0,0,0,0,0,0,0,0,0,0,0,0,0,0,0,0,0,133,0,133,71,
69,0,0,0,0,0,0,0,0,0,0,0,0,0,0,0,0,0,0,0,0,0,71,
69,0,0,0,0,0,0,0,0,0,0,0,0,0,0,0,0,0,0,0,0,0,71,
69,0,0,0,0,0,0,0,0,0,0,0,0,0,0,0,0,0,0,0,0,123,71,
69,123,0,0,0,0,0,0,0,0,0,0,0,0,0,0,0,0,0,0,0,0,71,
69,123,0,0,0,0,0,0,0,0,0,0,0,0,0,0,0,0,0,0,0,0,71,
73,68,0,72,74,74,74,74,74,74,74,74,74,74,74,74,74,74,74,74,74,74,75,
113,73,74,75,113,113,113,113,113,113,113,113,113,113,113,113,113,113,113,113,113,113,113
</data>
 </layer>
 <objectgroup id="6" name="Object">
  <object id="1" x="248.619" y="119.8">
   <point/>
  </object>
  <object id="2" x="192.121" y="121.062">
   <point/>
  </object>
  <object id="3" x="278.955" y="91.5188">
   <point/>
  </object>
  <object id="4" x="224.618" y="93.1585">
   <point/>
  </object>
  <object id="5" x="103.655" y="124.189">
   <point/>
  </object>
  <object id="6" x="72.1982" y="77.9519">
   <point/>
  </object>
  <object id="7" x="153.383" y="94.0332">
   <point/>
  </object>
  <object id="8" x="112.082" y="90.7144">
   <point/>
  </object>
  <object id="9" x="41.1297" y="76.5">
   <point/>
  </object>
  <object id="10" x="154.242" y="129.836">
   <point/>
  </object>
  <object id="11" x="321.216" y="122.582">
   <point/>
  </object>
  <object id="14" name="out" x="23.0092" y="145.757" width="34.3602" height="14.4146">
   <properties>
    <property name="targetMap" value="farm"/>
   </properties>
  </object>
  <object id="13" name="outCAB" x="46.4997" y="134.25">
   <point/>
  </object>
  <object id="12" x="285.5" y="120">
   <point/>
  </object>
  <object id="15" name="bac" x="0.514082" y="-0.555524" width="368.475" height="162.333"/>
 </objectgroup>
</map>
