<?xml version="1.0" encoding="UTF-8"?>
<map version="1.10" tiledversion="1.11.2" orientation="orthogonal" renderorder="right-down" width="12" height="10" tilewidth="16" tileheight="16" infinite="0" nextlayerid="9" nextobjectid="4">
 <tileset firstgid="1" name="paths" tilewidth="16" tileheight="16" tilecount="64" columns="4">
  <image source="Content (unpacked)/Maps/paths.png" width="64" height="256"/>
 </tileset>
 <tileset firstgid="65" name="untitled tile sheet2" tilewidth="16" tileheight="16" tilecount="1312" columns="32">
  <image source="Content (unpacked)/Maps/townInterior_2.png" width="512" height="656"/>
  <tile id="1218">
   <animation>
    <frame tileid="1218" duration="125"/>
    <frame tileid="1218" duration="125"/>
    <frame tileid="1218" duration="125"/>
    <frame tileid="1218" duration="125"/>
    <frame tileid="1219" duration="125"/>
    <frame tileid="1220" duration="125"/>
    <frame tileid="1219" duration="125"/>
    <frame tileid="1218" duration="125"/>
    <frame tileid="1218" duration="125"/>
    <frame tileid="1218" duration="125"/>
    <frame tileid="1218" duration="125"/>
    <frame tileid="1218" duration="125"/>
    <frame tileid="1218" duration="125"/>
    <frame tileid="1218" duration="125"/>
    <frame tileid="1218" duration="125"/>
   </animation>
  </tile>
  <tile id="1250">
   <animation>
    <frame tileid="1250" duration="125"/>
    <frame tileid="1250" duration="125"/>
    <frame tileid="1250" duration="125"/>
    <frame tileid="1250" duration="125"/>
    <frame tileid="1251" duration="125"/>
    <frame tileid="1252" duration="125"/>
    <frame tileid="1251" duration="125"/>
    <frame tileid="1250" duration="125"/>
    <frame tileid="1250" duration="125"/>
    <frame tileid="1250" duration="125"/>
    <frame tileid="1250" duration="125"/>
    <frame tileid="1250" duration="125"/>
    <frame tileid="1250" duration="125"/>
    <frame tileid="1250" duration="125"/>
    <frame tileid="1250" duration="125"/>
   </animation>
  </tile>
 </tileset>
 <tileset firstgid="1377" name="untitled tile sheet" tilewidth="16" tileheight="16" tilecount="2176" columns="32">
  <image source="Content (unpacked)/Maps/townInterior.png" width="512" height="1088"/>
 </tileset>
 <layer id="1" name="Tile Layer 1" width="12" height="10">
  <data encoding="csv">
0,0,0,0,0,0,0,0,0,0,0,0,
0,0,0,0,0,0,0,0,0,0,0,0,
0,0,0,0,0,0,0,0,0,0,0,0,
0,0,0,0,0,0,0,0,0,0,0,0,
0,0,0,0,0,0,0,0,0,0,0,0,
0,0,0,0,0,0,0,0,0,0,0,0,
0,0,0,0,0,0,0,0,0,0,0,0,
0,0,0,0,0,0,0,0,0,0,0,0,
0,0,0,0,0,0,0,0,0,0,0,0,
0,0,0,0,0,0,0,0,0,0,0,0
</data>
 </layer>
 <layer id="2" name="Back20" width="12" height="10">
  <data encoding="csv">
0,0,1379,1379,1806,1806,1806,1806,1806,1806,1806,1639,
0,1293,2603,1294,1294,1294,1294,1294,1294,1294,1295,1639,
0,1325,2602,1326,1326,1326,1326,1326,1326,1326,1326,1639,
0,1357,1489,1489,1489,1489,1489,1489,1489,1489,1359,1639,
0,1575,1577,1577,1576,1577,1576,1577,1576,1607,197,1639,
1608,1609,3462,1608,1609,1608,1609,1608,1609,1608,1576,1639,
1640,1641,3461,1609,170,1382,1382,1640,1381,1640,3462,1639,
1608,1609,3461,1641,1608,1609,3461,1608,1609,1608,3461,1639,
1640,1641,3460,1576,1640,1641,3460,1576,1641,1640,3461,1639,
1377,0,1377,1377,1639,3462,1609,1639,1639,1639,1704,1639
</data>
 </layer>
 <layer id="3" name="Back21" width="12" height="10">
  <data encoding="csv">
0,0,0,0,0,0,0,0,0,0,0,0,
0,0,0,0,0,0,0,0,0,0,0,0,
0,0,0,0,0,0,0,0,0,0,0,0,
0,0,0,0,0,0,0,0,0,0,0,0,
0,0,0,0,0,0,0,0,0,0,0,0,
0,0,0,0,0,0,0,0,0,0,0,0,
0,0,0,0,89,90,91,0,0,0,0,0,
0,0,0,0,121,122,123,0,0,0,0,0,
0,0,0,0,0,0,0,0,0,0,0,0,
0,0,0,0,0,0,0,0,0,0,0,0
</data>
 </layer>
 <layer id="4" name="Buildings" width="12" height="10">
  <data encoding="csv">
1377,1378,0,0,1379,1379,3498,1379,1379,1379,1387,1388,
1383,1418,0,75,76,77,0,0,0,0,0,1445,
1441,1456,1457,1564,107,1563,1457,1457,1457,1457,1457,1445,
1441,1488,1356,1596,139,1595,1489,2381,2284,2285,1489,1445,
1441,1520,0,0,0,0,0,2351,2316,2317,1347,3530,
3529,1829,0,2382,2726,2727,2382,2382,0,0,0,1445,
1441,0,0,2696,0,0,0,2697,0,0,0,1445,
1441,1769,0,2728,0,0,0,2729,0,0,0,1445,
1441,433,0,0,0,0,0,0,0,0,2577,1445,
1377,1377,1377,1377,1441,0,1445,1377,1377,1377,1377,1377
</data>
 </layer>
 <layer id="5" name="Front" width="12" height="10">
  <data encoding="csv">
0,0,0,0,0,0,0,0,0,0,0,0,
1409,0,1292,1360,1360,1360,2633,2632,2601,2634,356,0,
0,0,1324,0,0,0,0,2506,2507,2583,388,0,
0,0,0,0,0,0,0,1857,2600,1985,1315,0,
0,2723,0,2350,2694,2695,2667,0,0,0,0,0,
0,0,0,2664,0,0,0,2665,0,0,0,0,
0,1737,0,0,0,0,0,0,0,0,2513,0,
0,401,0,0,0,0,0,0,0,0,2545,0,
1537,433,0,1542,1539,0,1540,1542,0,0,1543,1544,
0,0,0,0,0,0,0,0,0,0,0,0
</data>
 </layer>
 <layer id="6" name="Front2" width="12" height="10">
  <data encoding="csv">
0,0,0,0,0,0,0,0,0,0,1380,1377,
0,1146,0,0,0,0,0,0,0,0,1420,1413,
0,1178,0,0,0,0,0,0,0,0,1283,0,
0,0,0,0,0,0,0,0,0,0,0,0,
0,0,0,0,0,0,0,0,0,0,0,0,
0,0,0,0,0,0,0,0,0,0,0,0,
0,0,0,0,0,0,0,0,0,0,0,0,
0,0,0,0,0,0,0,0,0,0,0,0,
0,1538,3497,0,0,0,0,0,3497,1542,0,0,
0,0,0,0,0,0,0,0,0,0,0,0
</data>
 </layer>
 <objectgroup id="8" name="Object">
  <object id="1" name="out" x="80.3333" y="152.833" width="16.6667" height="7">
   <properties>
    <property name="targetMap" value="Beach"/>
   </properties>
  </object>
  <object id="2" name="outStore" x="88.6667" y="146">
   <point/>
  </object>
  <object id="3" name="Shopping" x="71.6667" y="92.8333" width="32" height="17"/>
 </objectgroup>
</map>
