<?xml version="1.0" encoding="UTF-8"?>
<map version="1.10" tiledversion="1.11.2" orientation="orthogonal" renderorder="right-down" width="20" height="24" tilewidth="16" tileheight="16" infinite="0" nextlayerid="6" nextobjectid="7">
 <tileset firstgid="1" name="untitled tile sheet" tilewidth="16" tileheight="16" tilecount="2176" columns="32">
  <image source="Content (unpacked)/Maps/townInterior.png" width="512" height="1088"/>
  <tile id="1885">
   <properties>
    <property name="Type" value="Wood"/>
   </properties>
  </tile>
  <tile id="1887">
   <properties>
    <property name="Type" value="Stone"/>
   </properties>
  </tile>
  <tile id="1945">
   <properties>
    <property name="Type" value="Stone"/>
   </properties>
  </tile>
  <tile id="1946">
   <properties>
    <property name="Diggable" value="T"/>
    <property name="Type" value="Dirt"/>
   </properties>
  </tile>
  <tile id="2046">
   <animation>
    <frame tileid="2046" duration="250"/>
    <frame tileid="2046" duration="250"/>
    <frame tileid="2046" duration="250"/>
    <frame tileid="2046" duration="250"/>
    <frame tileid="2009" duration="250"/>
    <frame tileid="2009" duration="250"/>
    <frame tileid="2009" duration="250"/>
    <frame tileid="2009" duration="250"/>
   </animation>
  </tile>
  <tile id="2047">
   <animation>
    <frame tileid="2047" duration="250"/>
    <frame tileid="2047" duration="250"/>
    <frame tileid="2047" duration="250"/>
    <frame tileid="1977" duration="250"/>
    <frame tileid="1977" duration="250"/>
    <frame tileid="1977" duration="250"/>
    <frame tileid="1977" duration="250"/>
    <frame tileid="2047" duration="250"/>
   </animation>
  </tile>
  <tile id="2075">
   <properties>
    <property name="Diggable" value="T"/>
    <property name="Type" value="Dirt"/>
   </properties>
  </tile>
  <tile id="2076">
   <properties>
    <property name="Diggable" type="bool" value="true"/>
    <property name="Type" value="Dirt"/>
   </properties>
  </tile>
  <tile id="2078">
   <properties>
    <property name="Type" value="Wood"/>
   </properties>
  </tile>
  <tile id="2079">
   <properties>
    <property name="Type" value="Wood"/>
   </properties>
  </tile>
  <tile id="2106">
   <properties>
    <property name="Type" value="Wood"/>
   </properties>
  </tile>
  <tile id="2107">
   <properties>
    <property name="Diggable" value="T"/>
    <property name="Type" value="Dirt"/>
   </properties>
  </tile>
  <tile id="2108">
   <properties>
    <property name="Diggable" value="T"/>
    <property name="Type" value="Dirt"/>
   </properties>
  </tile>
  <tile id="2109">
   <properties>
    <property name="Type" value="Stone"/>
   </properties>
  </tile>
 </tileset>
 <objectgroup id="5" name="Object">
  <object id="1" name="plantable" x="256" y="158">
   <polygon points="0,0 -191,1.5 -193,161.5 1.5,161.5"/>
  </object>
  <object id="2" name="outGreenHouse" x="177.5" y="348.5">
   <point/>
  </object>
  <object id="6" name="out" x="154.5" y="368" width="26.5" height="13">
   <properties>
    <property name="targetMap" value="farm"/>
   </properties>
  </object>
 </objectgroup>
 <layer id="2" name="Back" width="20" height="24">
  <data encoding="csv">
1,1,1,1,1,1,1,1,1,1,1,1,1,1,1,1,1,1,1,1,
1,0,0,0,0,0,0,0,0,0,0,0,0,0,0,0,0,0,0,1,
1,0,0,0,0,0,0,0,0,0,0,0,0,0,0,0,0,0,0,1,
1,0,0,0,0,0,0,0,0,0,0,0,0,0,0,0,0,0,0,1,
1,0,0,0,0,0,0,0,0,0,0,0,0,0,0,0,0,0,0,1,
1,0,0,0,0,0,0,0,0,0,0,0,0,0,0,0,0,0,0,1,
1,0,0,0,0,0,0,0,0,2044,2044,0,0,0,0,0,0,0,0,1,
1,1888,1888,1888,1888,1888,1888,1888,1888,1888,2110,1888,1888,1888,1888,1888,1888,1888,1888,1,
1,2110,2110,2110,2110,2110,2110,2110,2110,2110,2110,2110,2110,2110,2110,2110,2110,2110,1946,1,
1,2110,1946,2079,1886,1886,1886,1886,1886,1886,1886,1886,1886,1886,1886,1886,2079,2110,1946,1,
1,2110,1946,2107,2076,2076,2076,2076,2076,2076,2076,2076,2076,2076,2076,2077,2107,2110,1946,1,
1,2110,1946,2107,1947,2108,1947,2108,2108,2108,2108,2108,1947,2108,2108,2109,2107,2110,1946,1,
1,2110,1946,2107,2108,2108,2108,2108,2108,2108,2108,2108,1947,2108,2108,2109,2107,2110,1946,1,
1,2110,1946,2107,2108,2108,1947,2108,1947,2108,1947,2108,1947,1947,2108,2109,2107,2110,1946,1,
1,2110,1946,2107,2108,2108,2108,2108,2108,1947,2108,1947,2108,2108,2108,2109,2107,2110,1946,1,
1,2110,1946,2107,2108,2108,2108,1947,1947,1947,2108,1947,1947,2108,2108,2109,2107,2110,1946,1,
1,2110,1946,2107,2108,2108,1947,2108,1947,1947,2108,1947,2108,2108,2108,2109,2107,2110,1946,1,
1,2110,1946,2107,2108,2108,1947,2108,2108,2108,2108,2108,2108,1947,2108,2109,2107,2110,1946,1,
1,2110,1946,2107,1947,2108,2108,2108,2108,2108,2108,2108,2108,1947,2108,2109,2107,2110,1946,1,
1,2110,1946,2107,2108,2108,2108,2108,2108,2108,2108,2108,2108,2108,2108,2109,2107,2110,1946,1,
1,2110,1946,2079,2080,2080,2080,2080,2080,2080,2080,2080,2080,2080,2080,2080,2079,2110,1946,1,
1,2110,1946,1888,1888,1888,1888,1888,1888,1888,1888,1888,1888,1888,1888,1888,1888,2110,1946,1,
1,2110,2110,2110,2110,2110,2110,2110,2110,2110,2110,2110,2110,2110,2110,2110,2110,2110,1946,1,
1,1,1,1,1,1,1,1,1,1,2110,1,1,1,1,1,1,1,1,1
</data>
 </layer>
 <layer id="3" name="Buildings" width="20" height="24">
  <data encoding="csv">
0,2,11,11,11,11,11,11,11,11,11,11,11,11,11,11,11,11,12,0,
33,0,1980,1981,1980,1981,1980,1981,1980,1980,1980,1980,1981,1980,1981,1980,1981,1980,0,12,
65,0,2012,2013,2012,2013,2012,2013,2012,2012,2012,2012,2013,2012,2013,2012,2013,2012,0,69,
65,0,2044,2045,2044,2045,2044,2045,2044,2044,2044,2044,2045,2044,2045,2044,2045,2044,0,69,
65,1979,1981,1980,1981,1980,1981,1980,1981,1980,1980,1981,1980,1981,1980,1981,1980,1981,1982,69,
65,2011,2013,2012,2013,2012,2013,2012,2013,2012,2012,2013,2012,2013,2012,2013,2012,2013,2014,69,
65,2043,2045,2044,2045,2044,2045,2044,2045,0,0,2045,2044,2045,2044,2045,2044,2045,2046,69,
65,2075,1983,1984,1919,1920,0,0,2112,2047,2048,0,0,0,536,1368,1983,1984,2078,69,
65,1920,0,0,0,0,0,0,0,0,0,0,0,0,0,0,0,0,1201,69,
65,434,0,0,0,0,0,0,0,0,0,0,0,0,0,0,0,0,0,69,
65,0,0,0,0,0,0,0,0,0,0,0,0,0,0,0,0,0,0,69,
65,0,0,0,0,0,0,0,0,0,0,0,0,0,0,0,0,0,0,69,
65,0,0,0,0,0,0,0,0,0,0,0,0,0,0,0,0,0,0,69,
65,0,0,0,0,0,0,0,0,0,0,0,0,0,0,0,0,0,0,69,
65,0,0,0,0,0,0,0,0,0,0,0,0,0,0,0,0,0,0,69,
65,0,0,0,0,0,0,0,0,0,0,0,0,0,0,0,0,0,0,69,
65,0,0,0,0,0,0,0,0,0,0,0,0,0,0,0,0,0,0,69,
65,0,0,0,0,0,0,0,0,0,0,0,0,0,0,0,0,0,0,69,
65,0,0,0,0,0,0,0,0,0,0,0,0,0,0,0,0,0,0,69,
65,0,0,0,0,0,0,0,0,0,0,0,0,0,0,0,0,0,0,69,
65,0,0,0,0,0,0,0,0,0,0,0,0,0,0,0,0,0,0,69,
65,433,0,0,0,0,0,0,0,0,0,0,0,0,0,0,0,0,434,69,
161,435,1983,1984,897,0,0,0,0,0,0,0,0,0,0,0,1983,1984,1920,168,
0,1,1,1,1,1,1,1,1,97,0,131,1,1,1,1,1,1,0,0
</data>
 </layer>
 <layer id="4" name="Front" width="20" height="24">
  <data encoding="csv">
0,0,0,0,0,0,0,0,0,0,0,0,0,0,0,0,0,0,4,0,
0,1979,0,0,0,0,0,0,0,0,0,0,0,0,0,0,0,0,1982,37,
0,2011,0,0,0,0,0,0,0,0,0,0,0,0,0,0,0,0,2014,0,
0,2043,0,0,0,0,0,0,0,0,0,0,0,0,0,0,0,0,2046,0,
0,2075,0,0,0,0,0,0,0,0,0,0,0,0,0,0,0,0,2078,0,
0,0,0,0,0,0,0,0,0,0,0,0,0,0,0,0,0,0,0,0,
0,0,1951,1952,1887,0,0,0,0,2015,2016,0,0,0,504,1336,1951,1952,1137,0,
0,0,0,0,0,0,0,0,0,0,0,0,0,0,0,0,0,0,1169,0,
0,0,0,0,0,0,0,0,0,0,0,0,0,0,0,0,0,0,0,0,
0,0,0,0,0,0,0,0,0,0,0,0,0,0,0,0,0,0,0,0,
0,0,0,0,0,0,0,0,0,0,0,0,0,0,0,0,0,0,0,0,
0,0,0,0,0,0,0,0,0,0,0,0,0,0,0,0,0,0,0,0,
0,0,0,0,0,0,0,0,0,0,0,0,0,0,0,0,0,0,0,0,
0,0,0,0,0,0,0,0,0,0,0,0,0,0,0,0,0,0,0,0,
0,0,0,0,0,0,0,0,0,0,0,0,0,0,0,0,0,0,0,0,
0,0,0,0,0,0,0,0,0,0,0,0,0,0,0,0,0,0,0,0,
0,0,0,0,0,0,0,0,0,0,0,0,0,0,0,0,0,0,0,0,
0,0,0,0,0,0,0,0,0,0,0,0,0,0,0,0,0,0,0,0,
0,0,0,0,0,0,0,0,0,0,0,0,0,0,0,0,0,0,0,0,
0,0,0,0,0,0,0,0,0,0,0,0,0,0,0,0,0,0,0,0,
0,0,0,0,0,0,0,0,0,0,0,0,0,0,0,0,0,0,0,0,
0,0,1951,1952,866,0,0,0,0,0,0,0,0,0,0,0,1951,1952,0,0,
0,162,166,166,166,166,166,166,166,163,0,164,166,166,166,166,166,166,167,0,
0,0,0,0,0,0,0,0,0,97,166,131,0,0,0,0,0,0,0,0
</data>
 </layer>
</map>
