<?xml version="1.0" encoding="UTF-8"?>
<map version="1.10" tiledversion="1.11.2" orientation="orthogonal" renderorder="right-down" width="25" height="20" tilewidth="16" tileheight="16" infinite="0" nextlayerid="5" nextobjectid="7">
 <tileset firstgid="1" source="townInterior.tsx"/>
 <layer id="4" name="Tile Layer 3" width="25" height="20">
  <data encoding="csv">
0,0,0,0,0,0,0,0,0,0,0,0,0,0,0,0,0,0,0,0,0,0,0,0,0,
0,0,0,0,0,0,0,0,0,0,0,0,0,0,0,0,0,0,0,0,0,0,0,0,0,
0,0,0,0,0,0,0,0,0,0,0,0,0,0,0,0,0,0,0,0,0,0,0,0,0,
0,0,0,0,0,0,0,0,0,0,0,0,0,0,0,0,0,0,0,0,0,0,0,0,0,
0,0,0,0,0,0,0,0,0,0,0,0,0,0,0,0,0,0,0,0,0,0,0,0,0,
0,0,0,0,0,0,0,0,0,0,0,0,0,0,0,0,0,0,0,0,0,0,0,0,0,
0,0,0,0,0,0,0,0,0,0,0,0,0,0,0,0,0,0,0,0,0,0,0,0,0,
0,0,0,0,0,0,232,232,232,232,0,0,0,0,0,0,0,0,0,0,0,0,0,0,0,
0,0,0,0,0,0,0,0,0,0,0,0,0,0,0,0,0,0,0,0,0,0,0,0,0,
0,0,0,0,0,0,0,0,0,0,0,0,0,0,0,0,0,0,0,0,0,0,0,0,0,
0,0,0,0,0,0,0,0,0,0,0,0,0,0,0,0,0,0,0,0,0,0,0,0,0,
0,0,0,0,0,0,0,0,0,0,0,0,0,0,0,0,0,0,0,0,0,0,0,0,0,
0,0,0,0,0,0,0,0,0,0,0,0,0,0,0,0,0,0,0,0,0,0,0,0,0,
0,0,0,0,0,0,0,0,0,0,0,0,0,0,0,0,0,0,0,0,0,0,0,0,0,
0,0,0,0,0,0,0,0,0,0,0,0,0,0,0,0,0,0,0,0,0,0,0,0,0,
0,0,0,0,0,0,0,0,0,0,0,0,0,0,0,0,0,0,0,0,0,0,0,0,0,
0,0,0,0,0,0,0,0,0,0,0,0,0,0,0,0,0,0,0,0,0,0,0,0,0,
0,0,0,0,0,0,0,0,0,0,0,0,0,0,0,0,0,0,0,0,0,0,0,0,0,
0,0,0,0,0,0,0,0,0,0,0,0,0,0,0,0,0,0,0,0,0,0,0,0,0,
0,0,0,0,0,0,0,0,0,0,0,0,0,0,0,0,0,0,0,0,0,0,0,0,0
</data>
 </layer>
 <layer id="2" name="Tile Layer 2" width="25" height="20">
  <data encoding="csv">
0,0,0,0,0,0,0,0,0,0,0,0,0,0,0,0,0,3,3,3,0,0,0,0,1,
0,0,0,0,0,0,0,0,0,0,35,0,35,411,0,0,0,35,35,35,35,35,35,0,0,
0,0,0,0,0,67,67,67,67,67,67,0,0,0,0,0,0,0,0,0,0,0,0,0,0,
0,0,99,99,99,99,99,99,99,99,0,99,99,99,99,99,99,0,0,0,99,99,99,99,0,
0,0,232,0,0,0,0,232,232,232,0,232,232,233,233,233,0,0,0,0,232,1326,1327,232,0,
0,0,232,232,232,232,232,232,232,232,0,0,0,233,233,233,0,0,0,0,233,233,233,233,0,
0,0,0,0,0,0,0,0,0,0,0,0,0,0,0,0,0,0,0,0,233,233,233,233,0,
0,0,0,0,0,232,232,856,857,232,0,232,232,232,232,232,232,232,0,0,0,0,232,232,0,
0,0,232,232,232,232,232,232,232,0,0,0,232,232,232,232,232,0,0,0,0,0,232,232,0,
0,0,0,0,0,0,0,0,0,0,0,232,232,232,232,232,232,232,232,0,0,0,232,232,232,
0,0,0,233,0,0,0,0,0,0,0,232,232,232,232,232,232,0,0,0,0,0,232,232,232,
0,0,233,233,0,0,0,0,0,0,0,0,0,0,0,0,0,0,0,0,0,0,232,232,232,
0,0,233,233,0,0,0,0,232,232,232,232,0,0,0,0,0,0,0,0,0,0,232,232,0,
0,0,233,233,0,0,0,0,0,0,0,0,0,0,0,0,0,0,0,0,0,0,232,232,0,
0,0,233,233,0,0,0,0,0,0,0,0,0,0,0,0,0,0,0,0,0,0,232,232,0,
0,0,233,0,0,0,0,0,0,0,0,0,0,0,0,0,0,0,0,0,0,0,232,232,0,
0,0,0,0,0,0,0,0,0,0,0,0,0,0,0,233,233,233,233,0,0,0,0,232,0,
0,0,0,0,0,0,0,0,0,0,0,0,0,232,232,232,232,232,0,0,0,0,0,0,0,
0,232,232,232,232,232,232,232,232,232,232,232,232,232,232,232,232,232,232,232,232,232,232,232,0,
0,5,5,5,5,5,5,5,5,5,5,5,5,5,5,5,5,5,5,5,5,5,5,5,0
</data>
 </layer>
 <layer id="1" name="Tile Layer 1" width="25" height="20">
  <data encoding="csv">
1,2,3,3,3,3,3,3,3,3,3,3,3,3,3,3,3,3,669,670,3,3,3,4,1,
33,34,35,35,35,35,35,35,35,35,226,35,411,35,35,35,35,35,701,702,35,35,35,36,37,
65,66,67,67,67,828,67,67,412,67,258,67,67,67,67,67,67,67,733,734,67,67,67,68,69,
65,99,569,570,0,571,99,350,351,550,99,0,0,0,0,0,0,99,765,766,99,578,579,99,69,
65,233,601,602,232,603,233,382,383,582,265,0,0,0,0,0,232,265,797,798,264,610,611,265,69,
65,233,633,634,0,635,233,515,516,264,265,232,232,0,0,0,232,233,201,201,233,642,643,233,69,
65,233,233,233,233,233,233,201,201,232,233,233,264,265,265,265,265,265,233,233,233,0,1326,1327,69,
65,232,233,233,233,233,409,963,964,264,265,265,1416,1417,1418,1419,1420,264,265,265,265,265,1358,1359,69,
65,264,815,265,265,265,441,888,889,265,265,265,1448,1449,1450,1451,1452,264,265,265,265,265,555,556,69,
65,232,233,233,233,233,233,233,252,253,254,233,1480,1481,1482,1483,1484,232,233,233,233,233,587,588,69,
65,264,265,265,265,265,265,265,284,285,286,233,233,233,233,233,233,233,265,265,265,265,619,620,69,
65,232,1377,1378,233,233,233,233,316,317,318,233,233,233,233,233,233,233,233,233,233,233,232,232,69,
65,264,1409,1410,265,265,265,232,233,233,233,233,233,265,265,265,265,265,265,265,265,265,232,232,69,
65,232,1441,1442,233,233,233,233,233,233,233,233,233,233,233,233,264,265,265,232,233,233,1036,1037,69,
65,264,1473,1474,264,264,264,264,264,264,264,264,264,264,264,265,249,250,251,264,265,265,1068,1069,69,
65,232,233,233,233,233,233,233,233,233,233,233,233,233,232,233,281,282,283,232,233,233,1100,1101,69,
65,264,265,265,265,265,265,265,233,233,233,233,265,265,264,233,233,233,233,264,265,265,265,265,69,
65,232,233,233,233,233,233,233,233,233,233,233,233,233,233,233,232,233,232,233,232,233,265,265,69,
161,162,166,166,166,166,166,166,166,166,166,163,265,164,166,166,166,166,166,166,166,166,166,167,168,
1,1,1,1,1,1,1,1,1,1,1,97,166,131,1,1,1,1,1,1,1,1,1,1,1
</data>
 </layer>
 <objectgroup id="3" name="Object">
  <object id="3" name="out" x="202.59" y="302.182">
   <properties>
    <property name="targetMap" value="farm"/>
   </properties>
   <point/>
  </object>
  <object id="4" name="walkable" x="320.25" y="80">
   <polygon points="0,0 0.5,-16.25 15.5,-16.25 16,16 48.75,16 48.5,-14.75 63.75,-15 63.25,17 51,16 35.75,33.75 32.5,55.25 28.75,84 29,100.25 59.4167,98.5 60.75,125.583 31,126.75 30.5,175.25 31.75,177.75 61.75,177.75 61.25,205 52.25,213.5 -112.75,215 -112.25,230.5 -128.25,232 -127.75,212.5 -162.75,214.5 -229.5,214.5 -293.75,214 -302.75,206.333 -303.285,158.632 -256.061,158.337 -257.663,97.1144 -283.26,97.3855 -289.57,157.442 -303.858,157.395 -305.368,95.9914 -304.334,63.226 -304.914,50.1082 -286.378,48.8383 -288.583,62.753 -272.031,63.6588 -271.552,48.1228 -304.836,48.625 -304.25,-15.5 -290.75,-14.5 -290.25,16.5 -255.75,16.5 -255.25,-16 -240.75,-14.5 -242.25,19 -224.75,15.6667 -221.25,-16 -207.75,-13.5 -208.599,17.8452 -224.114,32.183 -226.75,64 -175.417,65 -173.799,29.6692 -222.845,30.9981 -208.611,17.4949 -173.42,17.6734 -172.25,2 -154.75,2 -155.75,-15.5 -129.818,40.4926 -128.888,80.2712 -50.239,81.0021 -47.9562,39.1593 -129.636,40.4371 -154.461,-15.3874 -34.25,-14.5 -35.75,4"/>
  </object>
  <object id="5" name="outHouse" x="200.167" y="285.667">
   <point/>
  </object>
 </objectgroup>
</map>
