<?xml version="1.0" encoding="UTF-8"?>
<map version="1.10" tiledversion="1.11.2" orientation="orthogonal" renderorder="right-down" width="30" height="30" tilewidth="16" tileheight="16" infinite="0" nextlayerid="7" nextobjectid="5">
 <tileset firstgid="1" name="untitled tile sheet" tilewidth="16" tileheight="16" tilecount="2176" columns="32">
  <image source="Content (unpacked)/Maps/townInterior.png" width="512" height="1088"/>
  <tile id="1910">
   <animation>
    <frame tileid="1910" duration="1000"/>
    <frame tileid="1910" duration="1000"/>
    <frame tileid="1910" duration="1000"/>
    <frame tileid="1910" duration="1000"/>
    <frame tileid="1911" duration="1000"/>
    <frame tileid="1910" duration="1000"/>
    <frame tileid="1910" duration="1000"/>
    <frame tileid="1910" duration="1000"/>
    <frame tileid="1910" duration="1000"/>
    <frame tileid="1910" duration="1000"/>
    <frame tileid="1910" duration="1000"/>
    <frame tileid="1911" duration="1000"/>
    <frame tileid="1911" duration="1000"/>
    <frame tileid="1911" duration="1000"/>
   </animation>
  </tile>
  <tile id="1942">
   <animation>
    <frame tileid="1942" duration="1000"/>
    <frame tileid="1942" duration="1000"/>
    <frame tileid="1942" duration="1000"/>
    <frame tileid="1942" duration="1000"/>
    <frame tileid="1943" duration="1000"/>
    <frame tileid="1942" duration="1000"/>
    <frame tileid="1942" duration="1000"/>
    <frame tileid="1942" duration="1000"/>
    <frame tileid="1942" duration="1000"/>
    <frame tileid="1942" duration="1000"/>
    <frame tileid="1942" duration="1000"/>
    <frame tileid="1943" duration="1000"/>
    <frame tileid="1943" duration="1000"/>
    <frame tileid="1943" duration="1000"/>
   </animation>
  </tile>
  <tile id="2039">
   <animation>
    <frame tileid="2039" duration="500"/>
    <frame tileid="2040" duration="500"/>
    <frame tileid="2039" duration="500"/>
    <frame tileid="2039" duration="500"/>
    <frame tileid="2039" duration="500"/>
    <frame tileid="2039" duration="500"/>
    <frame tileid="2039" duration="500"/>
    <frame tileid="2039" duration="500"/>
    <frame tileid="2039" duration="500"/>
    <frame tileid="2039" duration="500"/>
    <frame tileid="2039" duration="500"/>
    <frame tileid="2039" duration="500"/>
    <frame tileid="2039" duration="500"/>
    <frame tileid="2039" duration="500"/>
    <frame tileid="2041" duration="500"/>
    <frame tileid="2041" duration="500"/>
    <frame tileid="2039" duration="500"/>
    <frame tileid="2039" duration="500"/>
    <frame tileid="2039" duration="500"/>
    <frame tileid="2039" duration="500"/>
    <frame tileid="2039" duration="500"/>
    <frame tileid="2039" duration="500"/>
    <frame tileid="2040" duration="500"/>
    <frame tileid="2039" duration="500"/>
    <frame tileid="2039" duration="500"/>
    <frame tileid="2039" duration="500"/>
    <frame tileid="2039" duration="500"/>
    <frame tileid="2039" duration="500"/>
   </animation>
  </tile>
  <tile id="2071">
   <animation>
    <frame tileid="2071" duration="1000"/>
    <frame tileid="2071" duration="1000"/>
    <frame tileid="2071" duration="1000"/>
    <frame tileid="2071" duration="1000"/>
    <frame tileid="2071" duration="1000"/>
    <frame tileid="2071" duration="1000"/>
    <frame tileid="2071" duration="1000"/>
    <frame tileid="2073" duration="1000"/>
    <frame tileid="2071" duration="1000"/>
    <frame tileid="2071" duration="1000"/>
    <frame tileid="2071" duration="1000"/>
    <frame tileid="2071" duration="1000"/>
    <frame tileid="2071" duration="1000"/>
    <frame tileid="2071" duration="1000"/>
   </animation>
  </tile>
 </tileset>
 <layer id="1" name="Tile Layer 1" width="30" height="30">
  <data encoding="csv">
0,0,0,0,0,0,0,0,0,0,0,0,0,0,0,0,0,0,0,0,0,0,0,0,0,0,0,0,0,0,
0,0,0,0,0,0,0,0,0,0,0,0,0,0,0,0,0,0,0,0,0,0,0,0,0,0,0,0,0,0,
0,0,0,0,0,0,0,0,0,0,0,0,0,0,0,0,0,0,0,0,0,0,0,0,0,0,0,0,0,0,
0,0,0,0,0,0,0,0,0,0,0,0,0,0,0,0,0,0,0,0,0,0,0,0,0,0,0,0,0,0,
0,0,0,0,0,0,0,0,0,0,0,0,0,0,0,0,0,0,0,0,0,0,0,0,0,0,0,0,0,0,
0,0,0,0,0,0,0,0,0,0,0,0,0,0,0,0,0,0,0,0,0,0,0,0,0,0,0,0,0,0,
0,0,0,0,0,0,0,0,0,0,0,0,0,0,0,0,0,0,0,0,0,0,0,0,0,0,0,0,0,0,
0,0,0,0,0,0,0,0,0,0,0,0,0,0,0,0,0,0,0,0,0,0,0,0,0,0,0,0,0,0,
0,0,0,0,0,0,0,0,0,0,0,0,0,0,0,0,0,0,0,0,0,0,0,0,0,0,0,0,0,0,
0,0,0,0,0,0,0,0,0,0,0,0,0,0,0,0,0,0,0,0,0,0,0,0,0,0,0,0,0,0,
0,0,0,0,0,0,0,0,0,0,0,0,0,0,0,0,0,0,0,0,0,0,0,0,0,0,0,0,0,0,
0,0,0,0,0,0,0,0,0,0,0,0,0,0,0,0,0,0,0,0,0,0,0,0,0,0,0,0,0,0,
0,0,0,0,0,0,0,0,0,0,0,0,0,0,0,0,0,0,0,0,0,0,0,0,0,0,0,0,0,0,
0,0,0,0,0,0,0,0,0,0,0,0,0,0,0,0,0,0,0,0,0,0,0,0,0,0,0,0,0,0,
0,0,0,0,0,0,0,0,0,0,0,0,0,0,0,0,0,0,0,0,0,0,0,0,0,0,0,0,0,0,
0,0,0,0,0,0,0,0,0,0,0,0,0,0,0,0,0,0,0,0,0,0,0,0,0,0,0,0,0,0,
0,0,0,0,0,0,0,0,0,0,0,0,0,0,0,0,0,0,0,0,0,0,0,0,0,0,0,0,0,0,
0,0,0,0,0,0,0,0,0,0,0,0,0,0,0,0,0,0,0,0,0,0,0,0,0,0,0,0,0,0,
0,0,0,0,0,0,0,0,0,0,0,0,0,0,0,0,0,0,0,0,0,0,0,0,0,0,0,0,0,0,
0,0,0,0,0,0,0,0,0,0,0,0,0,0,0,0,0,0,0,0,0,0,0,0,0,0,0,0,0,0,
0,0,0,0,0,0,0,0,0,0,0,0,0,0,0,0,0,0,0,0,0,0,0,0,0,0,0,0,0,0,
0,0,0,0,0,0,0,0,0,0,0,0,0,0,0,0,0,0,0,0,0,0,0,0,0,0,0,0,0,0,
0,0,0,0,0,0,0,0,0,0,0,0,0,0,0,0,0,0,0,0,0,0,0,0,0,0,0,0,0,0,
0,0,0,0,0,0,0,0,0,0,0,0,0,0,0,0,0,0,0,0,0,0,0,0,0,0,0,0,0,0,
0,0,0,0,0,0,0,0,0,0,0,0,0,0,0,0,0,0,0,0,0,0,0,0,0,0,0,0,0,0,
0,0,0,0,0,0,0,0,0,0,0,0,0,0,0,0,0,0,0,0,0,0,0,0,0,0,0,0,0,0,
0,0,0,0,0,0,0,0,0,0,0,0,0,0,0,0,0,0,0,0,0,0,0,0,0,0,0,0,0,0,
0,0,0,0,0,0,0,0,0,0,0,0,0,0,0,0,0,0,0,0,0,0,0,0,0,0,0,0,0,0,
0,0,0,0,0,0,0,0,0,0,0,0,0,0,0,0,0,0,0,0,0,0,0,0,0,0,0,0,0,0,
0,0,0,0,0,0,0,0,0,0,0,0,0,0,0,0,0,0,0,0,0,0,0,0,0,0,0,0,0,0
</data>
 </layer>
 <layer id="2" name="Back" width="30" height="30">
  <data encoding="csv">
1890,1890,1890,1890,1890,1890,1890,1890,1890,1890,1890,1890,1890,1890,1890,1890,1890,1890,1890,1890,1890,1890,1890,1890,1890,1890,1890,1890,1890,1890,
1890,1924,1924,1924,1924,1924,1924,1924,1924,1924,1924,1924,1924,1924,1924,1924,1924,1924,1924,1924,1924,1924,1924,1924,1924,1924,1924,1924,1924,1890,
1890,1956,1956,1956,1956,1956,1956,1956,1956,1956,1956,1956,1956,1956,1956,1956,1956,1956,1956,1956,1956,1956,1956,1956,1956,1956,1956,1956,1956,1890,
1890,1988,1988,1988,1988,1988,1988,1988,1988,1988,1988,1988,1988,1988,1988,1988,1988,1988,1988,1988,1988,1988,1988,1988,1988,1988,1988,1988,1988,1890,
1890,1955,1955,1955,1955,1955,1955,1955,1955,1955,1955,1955,1955,1955,1955,1955,1955,1955,1955,1955,1955,1955,1955,1955,1955,1955,1955,1955,1955,1955,
1890,1955,1890,1890,1955,1890,1890,1890,1890,1890,1890,1890,1955,1890,1890,1955,1890,1955,1955,1955,1955,1955,1955,1955,1955,1955,1955,1955,1954,1890,
1890,1890,1890,1890,1890,1890,1890,1890,1890,1890,1890,1890,1890,1890,1890,1890,1890,1890,1890,1890,1890,1890,1890,1890,1890,1890,1890,1890,1890,1890,
1890,1890,1890,1890,1890,1890,1890,1890,1890,1890,1890,1890,1890,1890,1890,1890,1890,1890,1890,1890,1890,1890,1890,1890,1890,1890,1890,1890,1890,1890,
1890,1890,1890,1890,1890,1890,1890,1890,1890,1890,1890,1890,1890,1890,1890,1890,1890,1890,1890,1890,1890,1890,1890,1890,1890,1890,1890,1890,1890,1890,
1890,1890,1890,1890,1890,1890,1890,1890,1890,1890,1890,1890,1890,1890,1890,1890,1890,1890,1890,1890,1890,1890,1890,1890,1890,1890,1890,1890,1890,1890,
1890,1890,1890,1890,1890,1890,1890,1890,1890,1890,1890,1890,1890,1890,1890,1890,1890,1890,1890,1890,1890,1890,1890,1890,1890,1890,1890,1890,1890,1890,
1890,1890,1986,1890,1890,1890,1986,1890,1890,1890,1986,1890,1890,1890,1986,1890,1890,1890,1986,1890,1890,1890,1986,1890,1890,1890,1890,1986,1890,1890,
1890,1890,1985,1890,1890,1890,1985,1890,1890,1890,1985,1890,1890,1890,1985,1890,1890,1890,1985,1890,1890,1890,1985,1890,1890,1890,1890,1985,1890,1890,
1890,1890,1985,1890,1890,1890,1985,1890,1890,1890,1985,1890,1890,1890,1985,1890,1890,1890,1985,1890,1890,1890,1985,1890,1890,1890,1890,1985,1890,1890,
1890,1890,1985,1890,1890,1890,1985,1890,1890,1890,1985,1890,1890,1890,1985,1890,1890,1890,1985,1890,1890,1890,1985,1890,1890,1890,1890,1985,1890,1890,
1890,1890,1985,1890,1890,1890,1985,1890,1890,1890,1985,1890,1890,1890,1985,1890,1890,1890,1985,1890,1890,1890,1985,1890,1890,1890,1890,1985,1890,1890,
1890,1890,1985,1890,1890,1890,1985,1890,1890,1890,1985,1890,1890,1890,1985,1890,1890,1890,1985,1890,1890,1890,1985,1890,1890,1890,1890,1985,1890,1890,
1890,1890,1985,1890,1890,1890,1985,1890,1890,1890,1985,1890,1890,1890,1985,1890,1890,1890,1985,1890,1890,1890,1985,1890,1890,1890,1890,1985,1890,1890,
1890,1890,1985,1890,1890,1890,1985,1890,1890,1890,1985,1890,1890,1890,1985,1890,1890,1890,1985,1890,1890,1890,1985,1890,1890,1890,1890,1985,1890,1890,
1890,1890,1985,1890,1890,1890,1985,1890,1890,1890,1985,2025,1890,1890,1985,1890,1890,1890,1985,1890,1890,1890,1985,1890,1890,1890,1890,1985,1890,1890,
1890,1890,2017,1955,1954,1890,2017,1890,1890,1890,2017,1955,1954,1890,2017,1955,1954,1890,2017,1955,1954,1890,2017,1955,1954,1890,1890,2017,1955,1890,
1890,1890,1890,1890,1890,1890,1890,1890,1890,1890,1890,1890,1890,1890,1890,1890,1890,1890,1890,1890,1890,1890,1890,1890,1890,1890,1890,1890,1890,1890,
1890,1890,1890,1890,1890,1890,1890,1890,1890,1890,1890,1890,1890,1890,1890,1890,1890,1890,1890,1890,1890,1890,1890,1890,1890,1890,1890,1890,1890,1890,
1890,1890,1890,1890,1890,1890,1890,1890,1890,1890,1890,1890,1890,1890,1890,1890,1890,1890,1890,1890,1890,1890,1890,1890,1890,1890,1890,1890,1890,1890,
1890,1890,1890,1890,1890,1890,1890,1890,1890,1890,1890,1890,1890,1890,1890,1890,1890,1890,1986,1955,1955,1955,1955,1955,1890,1890,1890,1890,1890,1890,
1890,1010,1890,1890,1890,1010,1890,1890,1890,1010,1890,1890,1890,1890,1890,1890,1890,1890,1985,1890,1890,1890,1890,1890,1890,1890,1890,1890,1890,1890,
1890,1010,1890,1890,1985,1010,1890,1890,1985,1010,1890,1890,1890,1890,1890,1890,1890,1890,2017,1955,1955,1955,1955,1955,1954,1890,1890,1890,1890,1890,
1890,1955,1954,1890,2017,1955,1954,1890,2017,1955,1954,1890,1890,1890,1890,1890,1890,1890,1890,1890,1890,1890,1890,1890,1890,1890,1890,1890,1890,1890,
1890,1890,1890,1890,1890,1890,1890,1890,1890,1890,1890,1890,1890,1890,1890,1890,1890,1890,1890,1890,1890,1890,1890,1890,1890,1890,1890,1890,1890,1890,
1890,1890,1890,1890,1890,1890,1890,1890,1890,1890,1890,1890,1890,1890,1890,1890,1890,1890,1890,1890,1890,1890,1890,1890,1890,1890,1890,1890,1890,1890
</data>
 </layer>
 <layer id="3" name="Buildings" width="30" height="30">
  <data encoding="csv">
1857,1858,1858,1858,1858,1858,1858,1858,1858,1858,1858,1858,1858,1858,1858,1858,1858,1858,1858,1858,1858,1858,1858,1858,1858,1858,1858,1858,1858,1859,
1889,1924,1924,1924,1862,1924,1924,1924,0,1924,1924,1924,1862,1924,1924,1924,1924,1924,1924,1924,1924,1924,1924,1924,1924,1924,1924,1924,1924,1891,
1889,1894,1956,1957,1894,0,2018,2019,2020,2021,2022,1957,1894,1956,1957,1894,1956,1967,1968,1969,1970,1969,1970,1969,1970,1969,1970,1971,1972,1891,
1889,1926,1988,1989,1926,1988,1988,1988,1988,1988,1988,1989,1926,1988,1989,1926,1988,1999,2000,2001,2002,2001,2002,2001,2002,2001,2002,2003,2004,1891,
1889,1958,2059,2060,1958,2097,2098,0,0,0,0,0,1958,2061,2062,1958,0,2031,2032,2033,2034,2033,2034,2033,2034,2033,2034,2035,2036,1891,
1889,0,2091,2092,0,0,0,0,0,0,0,0,0,2093,2094,0,0,0,0,0,0,0,0,0,0,0,0,0,0,1891,
1889,0,0,0,0,0,1903,1904,1905,1906,1907,0,0,0,0,0,0,0,0,0,0,0,0,0,0,0,0,0,0,1891,
1889,0,0,0,0,0,1935,1936,1937,1938,1939,0,0,0,0,0,0,0,0,0,0,0,0,0,0,0,0,0,2087,1891,
1889,2087,0,0,0,0,0,0,0,0,0,0,0,0,0,0,0,0,0,0,0,0,0,0,0,0,0,0,2087,1891,
1889,0,0,0,0,0,0,0,0,0,0,0,0,0,0,0,0,0,0,0,0,0,0,0,0,0,0,0,0,1891,
1889,0,0,1927,1928,0,0,1927,1928,0,0,1927,1928,0,0,1927,1928,0,0,1927,1928,0,0,1927,1928,0,0,0,1927,1891,
1889,0,0,1927,1928,0,0,1927,1928,0,0,1927,1928,0,0,1927,1928,0,0,1927,1928,0,0,1927,1928,0,0,0,1927,1891,
1889,0,0,1927,1928,0,0,1927,1928,0,0,1927,1928,0,0,1927,1928,0,0,1927,1928,0,0,1927,1928,0,0,0,1927,1891,
1889,0,0,1927,1928,0,0,1927,1928,0,0,1927,1928,0,0,1927,1928,0,0,1927,1928,0,0,1927,1928,0,0,0,1927,1891,
1889,0,0,1927,1928,0,0,1927,1928,0,0,1927,1928,0,0,1927,1928,0,0,1927,1928,0,0,1927,1928,0,0,0,1927,1891,
1889,0,0,1927,1928,0,0,1927,1928,0,0,1927,1928,0,0,1927,1928,0,0,1927,1928,0,0,1927,1928,2099,0,0,1927,1891,
1889,0,0,1959,1960,0,0,1959,1960,0,0,1959,1960,0,0,1959,1960,0,0,1959,1960,0,0,1959,1960,0,0,0,1959,1891,
1889,0,0,1991,1992,0,0,1993,1992,0,0,1991,1992,0,0,1993,1992,0,0,1991,1992,0,0,1991,1992,0,0,0,1993,1891,
1889,0,2099,1991,1992,0,0,1991,1994,0,0,1991,1992,0,0,1991,1994,0,0,1993,1992,0,0,1995,1992,0,0,0,1991,1891,
1889,0,0,2023,2024,0,0,2023,2024,0,0,2027,2028,0,0,2023,2026,0,0,2027,2024,0,0,2025,2028,0,0,0,2023,1891,
1889,0,0,0,0,0,0,2087,2088,0,0,0,0,0,0,1997,1998,0,0,0,0,0,0,0,0,0,0,0,0,1891,
1889,0,0,0,0,0,0,2087,2088,0,0,0,0,0,0,2029,2030,0,0,0,0,0,0,0,0,0,0,0,2087,1891,
1889,0,0,0,0,0,0,0,0,0,0,0,0,0,0,0,0,0,0,0,0,0,0,0,0,0,0,2063,2064,1891,
1889,1877,1878,0,0,1877,1878,0,0,1877,1878,0,0,0,0,0,0,0,0,2037,2038,2038,2038,2038,2039,0,0,2095,2096,1891,
1889,1909,1910,0,1908,1909,1910,0,1908,1909,1910,0,0,0,0,0,0,0,0,2069,0,2072,0,0,2071,0,0,0,0,1891,
1889,0,1942,0,1940,0,1942,0,1940,1943,1942,0,0,0,0,0,0,0,0,2101,2104,2105,2106,2102,2103,0,0,0,0,1891,
1889,1973,1974,0,0,1973,1974,0,0,1973,1974,0,0,0,0,0,0,0,0,0,0,0,0,0,0,0,0,2097,2098,1891,
1889,0,0,0,0,0,0,0,0,0,0,0,0,0,0,0,0,0,0,0,0,0,0,0,0,0,0,2057,2058,1891,
1921,0,0,0,0,0,0,0,0,0,0,0,0,0,0,0,0,0,0,0,0,0,0,0,0,0,0,2089,2090,1923,
1,1,1,1,1,1,1,1,1,1,1,1,1889,0,0,1891,1,1,1,1,1,1,1,1,1,1,1,1,1,1
</data>
 </layer>
 <objectgroup id="6" name="Object">
  <object id="1" name="outStore" x="229" y="449.5">
   <point/>
  </object>
  <object id="3" name="out" x="208" y="466" width="32" height="13.5">
   <properties>
    <property name="targetMap" value="farm"/>
   </properties>
  </object>
  <object id="4" name="Shopping" x="332" y="416" width="34" height="8"/>
 </objectgroup>
 <layer id="4" name="Front" width="30" height="30">
  <data encoding="csv">
0,0,0,0,0,0,0,0,0,0,0,0,0,0,0,0,0,0,0,0,0,0,0,0,0,0,0,0,0,0,
0,1862,0,0,0,0,1990,0,0,0,1990,0,0,0,0,1862,0,0,0,0,0,0,0,0,0,0,0,0,0,0,
0,0,0,0,0,0,0,0,0,0,0,0,0,0,0,0,0,0,1933,1934,0,0,1901,1902,0,0,1965,1966,0,0,
0,0,0,0,0,2065,2066,0,0,0,0,0,0,0,0,0,0,0,0,0,0,0,0,0,0,0,0,0,0,0,
0,0,0,0,0,0,0,0,0,0,0,0,0,0,0,0,0,0,0,0,0,0,0,0,0,0,0,0,0,0,
0,0,0,0,0,0,1871,1872,1873,1874,1875,0,0,0,0,0,0,0,0,0,0,0,0,0,0,0,0,0,0,0,
0,0,0,0,0,0,0,0,0,0,0,0,0,0,0,0,0,0,0,0,0,0,0,0,0,0,0,0,2055,0,
0,2055,0,0,0,0,0,0,0,0,0,0,0,0,0,0,0,0,0,0,0,0,0,0,0,0,0,0,2055,0,
0,0,0,1863,1864,0,0,1863,1864,0,0,1863,1864,0,0,1863,1864,0,0,1863,1864,0,0,1863,1864,0,0,0,1863,0,
0,0,0,1895,1896,0,0,1895,1896,0,0,1895,1896,0,0,1895,1896,0,0,1895,1896,0,0,1895,1896,0,0,0,1895,0,
0,0,0,0,1964,0,0,0,0,0,0,1897,0,0,0,1929,1898,0,0,0,0,0,0,0,1932,0,0,0,1899,0,
0,0,0,1899,1932,0,0,1897,1900,0,0,1929,1930,0,0,1899,1900,0,0,1931,1900,0,0,1961,1964,0,0,0,1931,0,
0,0,0,1897,1930,0,0,1961,1898,0,0,0,1930,0,0,1899,1964,0,0,1897,1932,0,0,0,1898,0,0,0,0,0,
0,0,0,1931,1900,0,0,1963,1900,0,0,1899,1930,0,0,1961,0,0,0,0,1964,0,0,1931,0,0,0,0,1963,0,
0,0,0,1931,0,0,0,1929,1932,0,0,1963,1898,0,0,1963,1900,0,0,1931,1898,0,0,0,1964,2067,0,0,1897,0,
0,0,0,0,1900,0,0,0,1930,0,0,1897,1964,0,0,0,1930,0,0,1963,0,0,0,1899,1932,0,0,0,1961,0,
0,0,0,1961,1898,0,0,1897,1964,0,0,0,1900,0,0,1931,1932,0,0,1929,1930,0,0,0,1900,0,0,0,1929,0,
0,0,2067,2081,2082,0,0,2081,2082,0,0,2081,2082,0,0,2081,2082,0,0,2081,2082,0,0,2081,2082,0,0,0,0,0,
0,0,0,2049,2083,0,0,2050,2083,0,0,2051,2083,0,0,2052,2083,0,0,2053,2083,0,0,2054,2083,0,0,0,0,0,
0,0,0,0,0,0,0,2055,2056,0,0,0,0,0,0,0,0,0,0,0,0,0,0,0,0,0,0,0,0,0,
0,0,0,0,0,0,0,2055,2056,0,0,0,0,0,0,0,0,0,0,0,0,0,0,0,0,0,0,0,2055,0,
0,0,0,0,0,0,0,0,0,0,0,0,0,0,0,0,0,0,0,0,0,0,0,0,0,0,0,0,0,0,
0,1879,0,0,0,1880,0,0,0,1881,0,0,0,0,0,0,0,0,0,2005,2006,2006,2006,2006,2007,0,0,0,0,0,
0,0,0,0,1876,0,0,0,1876,0,0,0,0,0,0,0,0,0,0,0,0,2040,0,0,0,0,0,0,0,0,
0,0,0,0,0,0,0,0,0,1911,0,0,0,0,0,0,0,0,0,0,2070,2070,2070,2070,0,0,0,0,0,0,
0,0,0,0,0,0,0,0,0,0,0,0,0,0,0,0,0,0,0,0,0,0,0,0,0,0,0,2065,2066,0,
0,0,0,0,0,0,0,0,0,0,0,0,0,0,0,0,0,0,0,0,0,0,0,0,0,0,0,0,0,0,
0,0,0,0,0,0,0,0,0,0,0,0,0,0,0,0,0,0,0,0,0,0,0,0,0,0,0,0,0,0,
0,1922,1922,1922,1922,1922,1922,1922,1922,1922,1922,1922,1860,0,0,1861,1922,1922,1922,1922,1922,1922,1922,1922,1922,1922,1922,1922,1922,0,
0,0,0,0,0,0,0,0,0,0,0,0,0,0,0,0,0,0,0,0,0,0,0,0,0,0,0,0,0,0
</data>
 </layer>
 <layer id="5" name="AlwaysFront" width="30" height="30">
  <data encoding="csv">
0,0,0,0,0,0,0,0,0,0,0,0,0,0,0,0,0,0,0,0,0,0,0,0,0,0,0,0,0,0,
0,0,0,0,0,0,0,0,0,0,0,0,0,0,0,0,0,0,0,0,0,0,0,0,0,0,0,0,0,0,
0,0,0,0,0,0,0,0,0,0,0,0,0,0,0,0,0,0,0,0,0,0,0,0,0,0,0,0,0,0,
0,0,0,0,0,0,0,0,0,0,0,0,0,0,0,0,0,0,0,0,0,0,0,0,0,0,0,0,0,0,
0,0,0,0,0,0,0,0,0,0,0,0,0,0,0,0,0,0,0,0,0,0,0,0,0,0,0,0,0,0,
0,0,0,0,0,0,0,0,0,0,0,0,0,0,0,0,0,0,0,0,0,0,0,0,0,0,0,0,0,0,
0,0,0,0,0,0,0,0,0,0,0,0,0,0,0,0,0,0,0,0,0,0,0,0,0,0,0,0,0,0,
0,0,0,0,0,0,0,0,0,0,0,0,0,0,0,0,0,0,0,0,0,0,0,0,0,0,0,0,0,0,
0,0,0,0,0,0,0,0,0,0,0,0,0,0,0,0,0,0,0,0,0,0,0,0,0,0,0,0,0,0,
0,0,0,1929,1898,0,0,1931,1964,0,0,1963,1930,0,0,1897,1962,0,0,1929,1932,0,0,1899,1900,0,0,0,0,0,
0,0,0,0,0,0,0,0,0,0,0,0,0,0,0,0,0,0,0,0,0,0,0,0,0,0,0,0,0,0,
0,0,0,0,0,0,0,0,0,0,0,0,0,0,0,0,0,0,0,0,0,0,0,0,0,0,0,0,0,0,
0,0,0,0,0,0,0,0,0,0,0,0,0,0,0,0,0,0,0,0,0,0,0,0,0,0,0,0,0,0,
0,0,0,0,0,0,0,0,0,0,0,0,0,0,0,0,0,0,0,0,0,0,0,0,0,0,0,0,0,0,
0,0,0,0,0,0,0,0,0,0,0,0,0,0,0,0,0,0,0,0,0,0,0,0,0,0,0,0,0,0,
0,0,0,0,0,0,0,0,0,0,0,0,0,0,0,0,0,0,0,0,0,0,0,0,0,0,0,0,0,0,
0,0,0,0,0,0,0,0,0,0,0,0,0,0,0,0,0,0,0,0,0,0,0,0,0,0,0,0,0,0,
0,0,0,0,0,0,0,0,0,0,0,0,0,0,0,0,0,0,0,0,0,0,0,0,0,0,0,0,0,0,
0,0,0,0,0,0,0,0,0,0,0,0,0,0,0,0,0,0,0,0,0,0,0,0,0,0,0,0,0,0,
0,0,0,0,0,0,0,0,0,0,0,0,0,0,0,0,0,0,0,0,0,0,0,0,0,0,0,0,0,0,
0,0,0,0,0,0,0,0,0,0,0,0,0,0,0,0,0,0,0,0,0,0,0,0,0,0,0,0,0,0,
0,0,0,0,0,0,0,0,0,0,0,0,0,0,0,0,0,0,0,0,0,0,0,0,0,0,0,0,0,0,
0,0,0,0,0,0,0,0,0,0,0,0,0,0,0,0,0,0,0,0,0,0,0,0,0,0,0,0,0,0,
0,0,0,0,0,0,0,0,0,0,0,0,0,0,0,0,0,0,0,0,0,0,0,0,0,0,0,0,0,0,
0,0,0,0,0,0,0,0,0,0,0,0,0,0,0,0,0,0,0,0,0,0,0,0,0,0,0,0,0,0,
0,0,0,0,0,0,0,0,0,0,0,0,0,0,0,0,0,0,0,0,0,0,0,0,0,0,0,0,0,0,
0,0,0,0,0,0,0,0,0,0,0,0,0,0,0,0,0,0,0,0,0,0,0,0,0,0,0,0,0,0,
0,0,0,0,0,0,0,0,0,0,0,0,0,0,0,0,0,0,0,0,0,0,0,0,0,0,0,0,0,0,
0,0,0,0,0,0,0,0,0,0,0,0,0,0,0,0,0,0,0,0,0,0,0,0,0,0,0,0,0,0,
0,0,0,0,0,0,0,0,0,0,0,0,0,0,0,0,0,0,0,0,0,0,0,0,0,0,0,0,0,0
</data>
 </layer>
</map>
