<?xml version="1.0" encoding="UTF-8"?>
<map version="1.10" tiledversion="1.11.2" orientation="orthogonal" renderorder="right-down" width="18" height="15" tilewidth="16" tileheight="16" infinite="0" nextlayerid="7" nextobjectid="12">
 <tileset firstgid="1" name="p" tilewidth="16" tileheight="16" tilecount="64" columns="4">
  <image source="Content (unpacked)/Maps/paths.png" width="64" height="256"/>
 </tileset>
 <tileset firstgid="65" name="barn" tilewidth="16" tileheight="16" tilecount="84" columns="4">
  <image source="Content (unpacked)/Maps/coopTiles.png" width="64" height="336"/>
  <tile id="12">
   <properties>
    <property name="Type" value="Wood"/>
   </properties>
  </tile>
  <tile id="33">
   <properties>
    <property name="Passable" type="int" value="0"/>
    <property name="Trough" value="T"/>
   </properties>
  </tile>
  <tile id="53">
   <properties>
    <property name="Type" value="Wood"/>
   </properties>
  </tile>
  <tile id="54">
   <properties>
    <property name="Type" value="Wood"/>
   </properties>
  </tile>
 </tileset>
 <layer id="1" name="Tile Layer 1" width="18" height="15">
  <data encoding="csv">
0,0,0,0,0,0,0,0,0,0,0,0,0,0,0,0,0,0,
0,0,0,0,0,0,0,0,0,0,0,0,0,0,0,0,0,0,
0,0,0,0,0,0,0,0,0,0,0,0,0,0,0,0,0,0,
0,0,0,0,0,0,0,0,0,0,0,0,0,0,0,0,0,0,
0,0,0,0,0,0,0,0,0,0,0,0,0,0,0,0,0,0,
0,0,0,0,0,0,0,0,0,0,0,0,0,0,0,0,0,0,
0,0,0,0,0,0,0,0,0,0,0,0,0,0,0,0,0,0,
0,0,0,0,0,0,0,0,0,0,0,0,0,0,0,0,0,0,
0,0,0,0,0,0,0,0,0,0,0,0,0,0,0,0,0,0,
0,0,0,0,0,0,0,0,0,0,0,0,0,0,0,0,0,0,
0,0,0,0,0,0,0,0,0,0,0,0,0,0,0,0,0,0,
0,0,0,0,0,0,0,0,0,0,0,0,0,0,0,0,0,0,
0,0,0,0,0,0,0,0,0,0,0,0,0,0,0,0,0,0,
0,0,0,0,0,0,0,0,0,0,0,0,0,0,0,0,0,0,
0,0,0,0,0,0,0,0,0,0,0,0,0,0,0,0,0,0
</data>
 </layer>
 <layer id="2" name="Back" width="18" height="15">
  <data encoding="csv">
77,77,77,77,77,77,77,77,77,77,77,77,77,77,77,77,77,77,
81,77,77,77,77,77,77,77,77,77,77,77,77,77,77,77,77,81,
85,77,77,77,77,77,77,77,77,77,77,77,77,77,77,77,77,85,
77,130,118,118,118,118,118,102,98,98,98,98,118,118,118,118,102,77,
77,101,77,90,77,117,77,121,118,118,111,118,118,77,90,77,120,77,
77,77,77,77,119,77,77,77,119,77,117,77,77,78,80,119,77,77,
77,77,119,77,77,77,117,77,77,77,119,77,82,83,83,88,119,77,
77,77,119,77,119,77,119,77,77,117,77,77,82,83,84,77,77,77,
77,77,77,119,77,77,77,101,119,77,119,101,86,87,88,77,77,77,
77,77,77,77,77,77,78,79,80,77,77,77,117,77,77,118,118,77,
77,77,77,77,77,77,82,83,84,77,77,77,78,79,80,77,77,77,
77,131,131,131,131,131,86,87,88,77,120,77,82,83,84,77,77,77,
77,83,83,83,83,84,117,77,77,77,77,77,86,87,88,77,119,77,
77,86,87,87,83,84,119,101,77,77,119,77,77,101,77,77,78,77,
77,77,77,77,77,77,77,77,119,77,77,77,77,77,119,77,77,77
</data>
 </layer>
 <layer id="3" name="Buildings" width="18" height="15">
  <data encoding="csv">
65,66,66,66,66,66,66,66,66,66,66,66,66,66,66,66,66,67,
69,81,125,89,81,81,81,126,81,81,89,81,126,81,89,71,81,71,
69,85,85,85,112,85,85,93,94,94,94,94,95,85,85,71,85,71,
69,137,140,0,0,0,145,105,0,0,0,0,106,138,139,71,0,71,
69,0,0,0,0,0,0,0,0,0,0,0,0,0,0,71,0,71,
69,124,0,0,0,0,0,0,0,0,0,0,0,0,0,71,0,71,
69,128,122,0,0,0,0,0,0,0,0,0,0,0,0,70,66,71,
73,127,127,0,0,0,0,0,0,0,0,0,0,0,0,81,81,71,
65,66,66,0,66,69,0,0,0,0,0,0,0,0,140,85,85,71,
69,81,81,81,81,69,127,0,0,0,0,0,0,0,0,140,127,71,
69,85,85,85,85,69,124,0,0,0,0,0,0,0,0,0,0,71,
69,107,108,137,107,69,128,122,0,0,0,0,0,0,0,0,0,71,
69,0,0,0,0,69,140,0,124,0,0,0,0,0,0,0,0,71,
69,0,0,0,0,69,140,140,128,127,0,0,0,0,0,122,140,71,
113,113,113,113,113,113,113,113,113,113,69,0,71,113,113,113,113,113
</data>
 </layer>
 <layer id="4" name="Front" width="18" height="15">
  <data encoding="csv">
0,0,0,0,0,0,0,0,0,0,0,0,0,0,0,67,113,113,
0,129,0,0,141,142,143,144,0,0,0,0,0,0,0,0,113,113,
0,133,136,0,0,0,0,0,0,0,0,0,0,134,135,0,113,113,
0,0,0,0,0,0,0,0,0,0,0,0,0,0,0,0,113,113,
0,0,0,0,0,0,0,0,0,0,0,0,0,0,0,0,113,113,
0,0,0,0,0,0,0,0,0,0,0,0,0,0,0,0,113,113,
0,123,123,0,0,0,0,0,0,0,0,0,0,0,0,0,0,67,
73,74,68,0,72,68,0,0,0,0,0,0,0,0,136,0,0,71,
113,113,73,74,75,0,123,0,0,0,0,0,0,0,0,136,123,71,
113,113,113,113,113,0,0,0,0,0,0,0,0,0,122,0,0,71,
113,113,113,113,113,0,0,0,0,0,0,0,0,0,0,0,0,71,
113,113,113,113,113,0,136,0,0,0,0,0,0,0,0,0,0,71,
113,113,113,113,113,0,136,136,0,123,0,0,0,0,0,0,136,71,
113,113,113,113,113,73,74,74,74,74,68,0,72,74,74,74,74,75,
0,113,113,0,0,0,113,113,113,113,73,74,75,113,113,113,113,113
</data>
 </layer>
 <objectgroup id="6" name="Object">
  <object id="1" x="193.5" y="164.5">
   <point/>
  </object>
  <object id="2" x="147.5" y="143.5">
   <point/>
  </object>
  <object id="3" x="197.667" y="85.833">
   <point/>
  </object>
  <object id="4" x="158" y="101">
   <point/>
  </object>
  <object id="5" x="66" y="106.5">
   <point/>
  </object>
  <object id="6" x="249" y="172">
   <point/>
  </object>
  <object id="7" x="67.167" y="70.833">
   <point/>
  </object>
  <object id="8" x="102" y="95.5">
   <point/>
  </object>
  <object id="9" name="out" x="167.417" y="224.5" width="33.9167" height="16.5">
   <properties>
    <property name="targetMap" value="farm"/>
   </properties>
  </object>
  <object id="10" name="outCAB" x="186.5" y="215">
   <point/>
  </object>
  <object id="11" name="bac" x="0.0594015" y="-0.688139" width="288.167" height="241.833"/>
 </objectgroup>
</map>
