<?xml version="1.0" encoding="UTF-8"?>
<map version="1.10" tiledversion="1.11.2" orientation="orthogonal" renderorder="right-down" width="35" height="20" tilewidth="16" tileheight="16" infinite="0" nextlayerid="10" nextobjectid="3">
 <tileset firstgid="1" name="1" tilewidth="16" tileheight="16" tilecount="2176" columns="32">
  <image source="Content (unpacked)/Maps/townInterior.png" width="512" height="1088"/>
 </tileset>
 <tileset firstgid="2177" name="townInterior_2" tilewidth="16" tileheight="16" tilecount="1312" columns="32">
  <image source="Content (unpacked)/Maps/townInterior_2.png" width="512" height="656"/>
 </tileset>
 <tileset firstgid="3489" name="Paths" tilewidth="16" tileheight="16" tilecount="64" columns="4">
  <image source="Content (unpacked)/Maps/paths.png" width="64" height="256"/>
 </tileset>
 <layer id="1" name="Tile Layer 1" width="35" height="20">
  <data encoding="csv">
0,0,0,0,0,0,0,0,0,0,0,0,0,0,0,0,0,0,0,0,0,0,0,0,0,0,0,0,0,0,0,0,0,0,0,
0,0,0,0,0,0,0,0,0,0,0,0,0,0,0,0,0,0,0,0,0,0,0,0,0,0,0,0,0,0,0,0,0,0,0,
0,0,0,0,0,0,0,0,0,0,0,0,0,0,0,0,0,0,0,0,0,0,0,0,0,0,0,0,0,0,0,0,0,0,0,
0,0,0,0,0,0,0,0,0,0,0,0,0,0,0,0,0,0,0,0,0,0,0,0,0,0,0,0,0,0,0,0,0,0,0,
0,0,0,0,0,0,0,0,0,0,0,0,0,0,0,0,0,0,0,0,0,0,0,0,0,0,0,0,0,0,0,0,0,0,0,
0,0,0,0,0,0,0,0,0,0,0,0,0,0,0,0,0,0,0,0,0,0,0,0,0,0,0,0,0,0,0,0,0,0,0,
0,0,0,0,0,0,0,0,0,0,0,0,0,0,0,0,0,0,0,0,0,0,0,0,0,0,0,0,0,0,0,0,0,0,0,
0,0,0,0,0,0,0,0,0,0,0,0,0,0,0,0,0,0,0,0,0,0,0,0,0,0,0,0,0,0,0,0,0,0,0,
0,0,0,0,0,0,0,0,0,0,0,0,0,0,0,0,0,0,0,0,0,0,0,0,0,0,0,0,0,0,0,0,0,0,0,
0,0,0,0,0,0,0,0,0,0,0,0,0,0,0,0,0,0,0,0,0,0,0,0,0,0,0,0,0,0,0,0,0,0,0,
0,0,0,0,0,0,0,0,0,0,0,0,0,0,0,0,0,0,0,0,0,0,0,0,0,0,0,0,0,0,0,0,0,0,0,
0,0,0,0,0,0,0,0,0,0,0,0,0,0,0,0,0,0,0,0,0,0,0,0,0,0,0,0,0,0,0,0,0,0,0,
0,0,0,0,0,0,0,0,0,0,0,0,0,0,0,0,0,0,0,0,0,0,0,0,0,0,0,0,0,0,0,0,0,0,0,
0,0,0,0,0,0,0,0,0,0,0,0,0,0,0,0,0,0,0,0,0,0,0,0,0,0,0,0,0,0,0,0,0,0,0,
0,0,0,0,0,0,0,0,0,0,0,0,0,0,0,0,0,0,0,0,0,0,0,0,0,0,0,0,0,0,0,0,0,0,0,
0,0,0,0,0,0,0,0,0,0,0,0,0,0,0,0,0,0,0,0,0,0,0,0,0,0,0,0,0,0,0,0,0,0,0,
0,0,0,0,0,0,0,0,0,0,0,0,0,0,0,0,0,0,0,0,0,0,0,0,0,0,0,0,0,0,0,0,0,0,0,
0,0,0,0,0,0,0,0,0,0,0,0,0,0,0,0,0,0,0,0,0,0,0,0,0,0,0,0,0,0,0,0,0,0,0,
0,0,0,0,0,0,0,0,0,0,0,0,0,0,0,0,0,0,0,0,0,0,0,0,0,0,0,0,0,0,0,0,0,0,0,
0,0,0,0,0,0,0,0,0,0,0,0,0,0,0,0,0,0,0,0,0,0,0,0,0,0,0,0,0,0,0,0,0,0,0
</data>
 </layer>
 <layer id="2" name="Back" width="35" height="20">
  <data encoding="csv">
1,1,1,1,1,1,1,1,1,1,1,0,0,0,0,0,0,0,0,0,0,0,0,0,0,0,0,0,0,0,0,0,0,0,0,
1,2375,2376,2376,2376,2376,2376,2376,2377,1,1,2313,2314,2314,2314,2314,2314,2314,2315,0,0,2316,2317,2317,2317,2317,2317,2317,2318,0,0,0,0,0,0,
1,2407,2408,2408,2408,2408,2376,2376,2409,1,232,2345,2346,2346,2346,2346,2346,2346,2347,0,0,2348,2349,2349,2349,2349,2349,2349,2350,0,0,0,0,0,0,
1,2408,264,265,264,265,264,265,2408,1,264,2346,264,265,107,265,107,107,594,0,0,2348,0,0,107,0,107,107,2350,0,0,0,0,0,0,
1,62,29,29,32,29,29,29,30,1,232,199,201,200,201,229,201,200,2309,0,0,574,575,2145,575,672,575,576,2343,0,0,0,0,0,0,
1,27,61,61,64,61,29,29,28,1,264,252,253,253,254,261,2117,2118,232,0,0,639,640,639,640,704,640,639,640,0,0,0,0,0,0,
1,27,61,61,61,61,61,61,28,1,232,284,285,285,286,233,2149,2150,2086,0,0,607,608,607,2115,2141,608,607,2114,0,0,0,0,0,0,
1,27,61,61,61,61,61,61,28,1,264,284,285,285,286,5,2120,2086,232,0,0,639,640,639,2139,2173,640,639,2113,0,0,0,0,0,0,
1,27,27,61,61,61,61,61,28,1,232,316,317,317,318,2120,2152,2085,264,0,0,2146,2139,2140,1150,1151,1152,607,2145,0,0,0,0,0,0,
1,27,27,61,61,61,61,61,28,1,264,265,264,265,264,2119,264,265,0,0,593,2139,640,639,1182,1183,1184,639,2145,233,0,0,0,0,0,
232,233,232,233,232,233,61,233,232,1,0,2319,2320,2320,2320,2151,2320,2321,0,0,593,2172,608,607,608,607,0,0,0,0,3,0,0,0,0,
264,2444,2445,2445,2445,2445,28,2445,2446,207,0,2351,2352,2352,2352,265,2352,2353,0,0,2320,2139,2320,2320,2320,2320,2320,2320,2320,2320,35,2320,2321,0,0,
232,2476,2477,2477,2477,2477,28,2477,2478,207,0,593,0,107,0,264,593,593,0,0,2352,2172,2352,2352,2352,2352,2352,2352,2352,2352,67,2352,2353,0,0,
264,205,264,265,264,265,293,265,207,207,0,199,200,201,200,329,1216,2309,0,0,264,639,640,265,107,0,113,113,593,0,99,119,593,0,0,
232,1049,1049,1049,2511,1216,2119,3201,3170,233,232,233,232,2152,232,2120,1248,2086,0,0,201,329,201,1215,263,263,263,263,263,295,295,295,297,0,0,
264,1081,1081,1081,2511,1248,2151,2085,3202,2320,2320,265,264,265,264,265,1280,2085,2320,2320,264,2152,264,1247,2311,227,295,295,295,263,263,263,328,0,0,
232,1081,1081,1081,2511,1280,232,2084,2085,2352,2352,201,200,201,200,2152,1248,2085,2352,2352,2119,233,232,1279,327,259,263,263,263,263,263,263,328,0,0,
264,1081,1081,1081,2511,1248,232,233,2085,265,264,329,293,329,293,329,1312,2085,0,0,2151,5,2120,1247,327,263,263,263,263,263,263,263,328,0,0,
232,1081,1081,1081,2511,1280,264,265,2084,200,201,233,2152,2119,2152,232,232,2084,200,201,232,233,2120,1279,327,263,263,263,263,263,263,263,328,0,0,
264,265,264,265,264,265,316,317,318,265,264,265,264,2151,264,264,264,265,264,265,264,265,264,265,0,0,0,0,0,0,0,0,0,0,0
</data>
 </layer>
 <layer id="3" name="Back2" width="35" height="20">
  <data encoding="csv">
0,0,0,0,0,0,0,0,0,0,0,0,0,0,0,0,0,0,0,0,0,0,0,0,0,0,0,0,0,0,0,0,0,0,0,
0,0,0,0,0,0,0,0,0,0,0,0,0,0,0,0,0,0,0,0,0,0,0,0,0,0,0,0,0,0,0,0,0,0,0,
0,0,0,0,0,0,0,0,0,0,0,0,0,0,0,0,0,0,0,0,0,0,0,0,0,0,0,0,0,0,0,0,0,0,0,
0,0,0,0,0,0,0,0,0,0,0,0,0,0,0,0,0,0,0,0,0,0,0,0,0,0,0,0,0,0,0,0,0,0,0,
0,0,0,0,0,0,0,0,0,0,0,0,0,0,0,0,0,0,0,0,0,0,0,0,0,0,0,0,0,0,0,0,0,0,0,
0,0,0,0,0,0,0,0,0,0,0,0,0,0,0,0,0,0,0,0,0,0,0,0,2385,0,0,0,0,0,0,0,0,0,0,
0,0,0,0,0,0,0,0,0,0,0,0,0,0,0,0,0,0,0,0,0,0,0,0,0,0,0,0,0,0,0,0,0,0,0,
0,0,0,0,0,0,0,0,0,0,0,0,0,0,0,0,0,0,0,0,0,0,0,0,0,0,0,0,0,0,0,0,0,0,0,
0,0,0,0,0,0,0,0,0,0,0,0,0,0,0,0,0,0,0,0,0,0,0,0,0,0,2168,0,0,0,0,0,0,0,0,
0,0,0,0,0,0,0,0,0,0,0,0,0,0,0,0,0,0,0,0,0,0,0,0,0,0,0,0,0,0,0,0,0,0,0,
0,0,0,0,0,0,0,0,0,0,0,0,0,0,0,0,0,0,0,0,0,0,0,0,0,0,0,0,0,0,0,0,0,0,0,
0,0,0,0,0,0,0,0,0,0,0,0,0,0,0,0,0,0,0,0,0,0,0,0,0,0,0,0,0,0,0,0,0,0,0,
0,0,0,0,0,0,0,0,0,0,0,0,0,0,0,0,0,0,0,0,0,0,0,0,0,0,0,0,0,0,0,0,0,0,0,
0,0,0,0,0,0,0,0,0,0,0,2380,2381,2382,0,0,0,0,0,0,0,0,0,0,0,0,0,0,0,0,0,0,0,0,0,
0,0,0,0,0,0,0,0,0,0,0,2412,2413,2414,0,0,0,0,0,0,0,0,0,0,0,0,0,0,0,2337,2337,2337,0,0,0,
0,0,0,0,0,0,0,0,0,0,0,0,0,0,0,0,0,0,0,0,0,0,0,0,2337,2337,2337,2337,2337,0,0,0,0,0,0,
0,0,0,0,0,0,0,0,0,0,0,0,2265,2266,0,0,0,0,0,0,0,0,0,0,0,0,0,0,0,0,0,0,0,0,0,
0,0,0,0,0,0,2417,2418,0,0,0,0,0,0,0,0,0,0,0,0,0,0,0,0,0,0,0,0,0,0,0,0,0,0,0,
0,0,0,0,0,0,2449,2450,0,0,0,0,0,0,0,0,0,0,0,0,0,0,0,0,0,0,0,0,0,0,0,0,0,0,0,
0,0,0,0,0,0,2481,2482,0,0,0,0,0,0,0,0,0,0,0,0,0,0,0,0,0,0,0,0,0,0,0,0,0,0,0
</data>
 </layer>
 <layer id="4" name="Back3" width="35" height="20">
  <data encoding="csv">
0,0,0,0,0,0,0,0,0,0,0,0,0,0,0,0,0,0,0,0,0,0,0,0,0,0,0,0,0,0,0,0,0,0,0,
0,0,0,0,0,0,0,0,0,0,0,0,0,0,0,0,0,0,0,0,0,0,0,0,0,0,0,0,0,0,0,0,0,0,0,
0,0,0,0,0,0,0,0,0,0,0,0,0,0,0,0,0,0,0,0,0,0,0,0,0,0,0,0,0,0,0,0,0,0,0,
0,0,0,0,0,0,0,0,0,0,0,0,0,0,0,0,0,0,0,0,0,0,0,0,0,0,0,0,0,0,0,0,0,0,0,
0,0,0,0,0,0,0,0,0,0,0,0,0,0,0,0,0,0,0,0,0,0,0,0,0,0,0,0,0,0,0,0,0,0,0,
0,0,0,0,0,0,0,0,0,0,0,0,0,0,0,0,0,0,0,0,0,0,0,0,0,0,0,0,0,0,0,0,0,0,0,
0,0,0,0,0,0,0,0,0,0,0,0,0,0,0,0,0,0,0,0,0,0,0,0,0,0,0,0,0,0,0,0,0,0,0,
0,0,0,0,0,0,0,0,0,0,0,0,0,0,0,0,0,0,0,0,0,0,0,0,0,0,0,0,0,0,0,0,0,0,0,
0,0,0,0,0,0,0,0,0,0,0,0,0,0,0,0,0,0,0,0,0,0,0,0,0,0,0,0,0,0,0,0,0,0,0,
0,0,0,0,0,0,0,0,0,0,0,0,0,0,0,0,0,0,0,0,0,0,0,0,0,0,0,0,0,0,0,0,0,0,0,
0,0,0,0,0,0,0,0,0,0,0,0,0,0,0,0,0,0,0,0,0,0,0,0,0,0,0,0,0,0,0,0,0,0,0,
0,0,0,0,0,0,0,0,0,0,0,0,0,0,0,0,0,0,0,0,0,0,0,0,0,0,0,0,0,0,0,0,0,0,0,
0,0,0,0,0,0,0,0,0,0,0,0,0,0,0,0,0,0,0,0,0,0,0,0,0,0,0,0,0,0,0,0,0,0,0,
0,0,0,0,0,0,0,0,0,0,0,0,0,0,0,0,0,0,0,0,0,0,0,0,0,0,0,0,0,0,0,0,0,0,0,
0,0,0,0,0,0,0,0,0,0,0,0,0,0,0,0,0,0,0,0,0,0,0,0,0,0,0,0,0,0,0,2370,0,0,0,
0,0,0,0,0,0,0,0,0,0,0,0,0,0,0,0,0,0,0,0,0,0,0,0,0,0,0,0,0,0,0,0,0,0,0,
0,0,0,0,0,0,0,0,0,0,0,0,0,0,0,0,0,0,0,0,0,0,0,0,0,0,0,0,0,0,0,0,0,0,0,
0,0,0,0,0,0,0,0,0,0,0,0,0,0,0,0,0,0,0,0,0,0,0,0,0,0,0,0,0,0,0,0,0,0,0,
0,0,0,0,0,0,0,0,0,0,0,0,0,0,0,0,0,0,0,0,0,0,0,0,0,0,0,0,0,0,0,0,0,0,0,
0,0,0,0,0,0,0,0,0,0,0,0,0,0,0,0,0,0,0,0,0,0,0,0,0,0,0,0,0,0,0,0,0,0,0
</data>
 </layer>
 <layer id="5" name="Buildings" width="35" height="20">
  <data encoding="csv">
1,1,1,1,1,1,1,1,1,1,0,0,0,0,0,0,0,0,0,0,0,0,0,0,0,0,0,0,0,0,0,0,0,0,0,
1,0,0,0,0,0,0,0,0,1,0,0,0,0,0,0,214,0,0,1,1,0,2466,2467,0,0,0,0,0,1,0,0,0,0,0,
1,74,75,75,75,75,75,75,76,1,0,74,75,75,75,75,75,75,76,1,1,74,75,75,75,75,75,75,76,1,0,0,0,0,0,
1,106,107,107,107,107,107,107,108,1,0,106,107,107,215,107,485,486,108,1,1,106,107,107,489,107,357,358,108,1,0,0,0,0,0,
1,138,1313,1314,0,432,1316,1317,140,1,1,138,357,358,0,0,517,518,140,1,1,138,382,383,521,0,0,0,140,1,0,0,0,0,0,
1,453,0,0,0,0,0,0,1315,1,1,618,0,0,0,0,0,0,554,1,1,2170,816,0,0,0,321,322,676,1,0,0,0,0,0,
1,357,358,0,0,0,0,1095,0,1,1,0,321,322,0,0,0,0,0,1,1,815,0,524,0,0,0,0,0,1,0,0,0,0,0,
1,0,0,0,0,1063,0,0,0,1,1,0,0,0,0,0,0,0,801,1,1,0,0,0,0,0,0,0,453,1,0,0,0,0,0,
1,868,870,0,0,0,0,492,1249,1,1,364,0,0,0,0,0,0,865,1,1,0,0,0,0,0,0,587,588,1,0,0,0,0,0,
1,2148,2419,1201,352,0,0,0,0,1,1,1,1,1,1,0,1,1,1,1,1,0,0,0,0,0,0,619,620,1,0,0,0,0,0,
1,1,1,11,11,1,0,1,1,1,1,0,0,0,56,0,55,0,1,1,1,0,593,1,1,1,1,1,1,1,0,0,0,0,0,
1,0,0,0,0,56,0,55,0,1,1,74,75,75,88,0,87,76,1,1,56,0,55,0,0,0,0,0,0,56,0,55,0,0,0,
1,74,75,731,732,88,121,87,76,1,1,106,107,215,120,121,119,108,1,1,88,0,87,75,75,75,75,75,75,88,1390,87,76,0,0,
1,106,107,763,764,120,0,119,108,1,1,138,522,0,0,0,0,140,1,1,120,121,119,107,599,107,107,464,107,120,1422,2338,108,0,0,
1,138,726,795,796,0,0,726,140,1,1,2344,0,0,894,0,0,453,1,1,535,0,0,0,2433,2434,2435,2436,2437,496,0,0,140,1,0,
1,2344,1368,0,0,0,0,0,898,55,56,951,951,951,3224,0,0,0,55,56,897,0,0,0,0,0,0,0,0,0,0,0,2374,1,0,
1,1360,1361,0,1368,0,0,0,726,87,88,0,0,0,0,0,0,0,87,88,0,0,0,0,0,0,522,0,0,0,0,0,2406,1,0,
1,2148,0,0,726,897,0,0,0,119,120,0,0,0,0,0,0,0,119,120,0,0,0,0,0,505,506,507,0,0,0,0,2438,1,0,
1,2148,1368,1360,1361,2344,0,0,0,0,0,0,0,0,0,0,0,0,0,0,0,0,0,0,393,537,538,539,457,0,0,0,0,1,0,
1,1,1,1,1,1,1,1,1,1,1,1,1,0,1,1,1,1,1,1,1,1,1,1,1,1,1,1,1,1,1,1,1,1,0
</data>
 </layer>
 <layer id="6" name="Front" width="35" height="20">
  <data encoding="csv">
0,2,3,3,3,2122,3,3,4,0,0,2,2122,3,3,3,3,2122,4,1,1,2,3,3,2122,3,3,11,4,1,1,1,1,1,1,
33,42,2465,827,257,827,1250,1251,44,37,33,42,2415,2416,827,257,0,0,44,37,33,42,834,835,827,257,827,412,44,37,1,1,1,1,1,
65,0,2497,280,289,311,0,0,0,69,65,0,2447,2448,0,289,0,0,0,69,65,0,2498,2499,0,289,325,326,0,2154,1,1,1,1,1,
2153,0,1281,1282,0,215,1284,1285,0,69,65,0,325,326,0,0,433,481,0,69,2153,0,350,351,513,0,359,360,0,69,1,1,1,1,1,
65,1347,0,0,0,0,0,0,0,69,2153,586,355,356,0,0,0,0,0,2154,65,0,0,0,0,0,391,392,0,69,1,1,1,1,1,
65,325,326,0,0,0,0,0,0,69,65,0,387,388,0,0,0,0,0,69,65,0,0,0,0,0,0,0,0,69,1,1,1,1,1,
65,359,360,0,0,0,0,0,0,2154,65,0,0,0,0,0,0,0,737,69,65,0,0,0,0,0,0,0,1347,69,1,1,1,1,1,
2153,391,392,1137,0,0,0,0,1217,69,65,332,0,2363,0,0,0,0,0,69,65,0,0,0,0,0,0,555,556,2154,1,1,1,1,1,
65,2116,2387,1169,320,0,0,0,0,69,161,162,2121,2395,163,0,164,166,167,168,2153,0,0,0,0,0,0,2383,2384,69,1,1,1,1,1,
161,0,0,2121,166,163,0,164,167,168,0,2,11,3,195,0,194,4,1,1,65,0,164,166,166,166,2121,166,167,168,1,1,1,1,1,
0,2,3,667,668,195,57,194,4,0,33,42,902,901,0,57,0,44,37,10,195,0,194,3,2122,3,3,3,3,2122,3,3,4,1,1,
33,42,176,699,700,0,89,0,44,37,2153,0,0,0,0,89,216,0,2154,65,0,57,0,182,827,257,2339,2340,2341,2190,0,0,44,37,1,
65,0,0,731,732,0,0,216,0,69,65,694,490,0,0,0,0,0,69,65,0,89,216,0,0,289,2371,2372,2373,2222,0,2306,0,69,1,
65,0,694,0,0,0,0,694,0,2154,65,726,0,0,830,0,0,1347,69,2153,503,0,0,0,2401,2402,2403,2404,2405,464,0,0,0,69,1,
2153,2312,1336,0,0,0,0,0,866,194,195,919,920,919,481,0,0,0,194,195,866,0,0,0,0,0,0,0,0,0,0,0,2342,69,1,
65,1328,1329,0,1336,0,0,0,694,2439,2440,0,0,0,0,0,0,0,2469,2470,0,0,0,0,0,0,490,0,0,0,0,0,0,2154,1,
65,2116,0,0,694,866,0,0,0,2471,2472,0,0,0,0,0,0,0,2501,2502,0,0,0,0,0,473,474,475,0,0,0,0,0,69,1,
65,2116,1336,1328,1329,2312,0,0,0,0,0,0,0,0,0,336,337,338,0,0,0,2364,2365,0,361,366,335,365,425,0,0,0,0,69,1,
161,162,166,2121,166,166,166,166,166,2121,166,166,163,0,164,166,369,166,2121,166,166,2396,2397,332,2121,166,166,166,166,166,2121,166,167,168,1,
0,0,0,0,0,0,0,0,0,0,0,0,65,0,69,0,0,0,0,0,0,0,0,0,0,0,0,0,0,0,0,0,0,0,1
</data>
 </layer>
 <layer id="7" name="Front2" width="35" height="20">
  <data encoding="csv">
0,0,0,0,0,0,0,0,0,0,0,0,0,0,0,0,0,0,0,0,0,0,0,0,0,0,0,0,0,0,0,0,0,0,0,
0,0,0,0,0,0,0,0,3324,0,0,0,0,0,0,0,0,0,0,0,0,0,0,0,0,0,0,0,0,0,0,0,0,0,0,
0,0,0,0,0,0,0,0,3356,0,0,0,0,0,0,0,0,0,0,0,0,0,0,0,0,0,0,0,0,0,0,0,0,0,0,
0,0,0,0,0,0,0,0,0,0,0,0,0,0,0,0,0,0,0,0,0,0,0,0,0,0,0,0,0,0,0,0,0,0,0,
0,0,0,0,0,0,0,0,0,0,0,514,0,0,0,0,0,0,0,0,0,0,0,0,0,0,0,0,0,0,0,0,0,0,0,
0,0,0,0,0,0,0,0,0,0,0,0,0,0,0,0,0,0,0,0,0,0,0,0,0,0,0,0,0,0,0,0,0,0,0,
0,0,0,0,0,0,0,0,0,0,0,0,0,0,0,0,0,0,335,0,0,0,0,0,0,0,0,0,0,0,0,0,0,0,0,
0,0,0,0,0,0,0,0,0,0,0,0,0,0,0,0,0,0,0,0,0,0,0,0,0,0,0,0,0,0,0,0,0,0,0,
0,0,0,0,0,0,0,0,0,0,0,0,0,166,0,0,0,0,0,0,0,0,0,0,0,0,0,0,0,0,0,0,0,0,0,
0,162,166,0,0,0,0,0,0,0,0,0,0,0,0,0,0,0,0,0,0,0,0,0,0,0,0,0,0,0,0,0,0,0,0,
0,0,0,0,0,0,0,0,0,0,0,3322,0,0,0,0,0,3323,0,0,0,0,0,0,0,0,0,0,0,0,0,0,0,0,0,
0,0,0,0,0,0,0,0,0,0,0,3354,0,0,0,0,0,3355,0,0,0,0,0,0,0,0,0,0,0,0,0,0,3257,0,0,
0,0,0,0,0,0,0,0,0,0,0,0,0,0,0,0,0,0,0,0,0,0,0,0,0,0,0,0,0,0,0,0,3289,0,0,
0,0,0,0,0,0,0,0,0,0,0,2312,0,0,0,0,0,0,0,0,0,0,0,0,0,0,0,0,0,0,0,0,0,0,0,
0,0,0,0,0,0,0,0,0,0,0,676,0,652,0,0,0,0,0,0,0,0,0,0,0,0,0,0,0,0,0,0,0,0,0,
0,0,0,0,0,0,0,0,0,0,0,0,0,0,0,0,0,0,0,0,0,0,0,0,0,0,0,0,0,0,0,0,0,0,0,
0,0,0,0,0,0,0,0,0,0,0,0,0,0,0,0,0,0,0,0,0,0,0,0,0,0,0,0,0,0,0,0,0,0,0,
0,0,0,0,0,0,0,0,0,0,0,0,0,0,0,0,0,0,0,0,0,0,0,0,0,0,0,0,0,0,0,0,0,0,0,
0,0,0,0,0,0,0,0,0,0,0,0,0,0,0,0,166,0,0,0,0,166,166,166,0,0,0,0,0,0,0,0,0,0,0,
0,0,0,0,0,0,0,0,0,0,0,0,0,0,0,0,0,0,0,0,0,0,0,0,0,0,0,0,0,0,0,0,0,0,0
</data>
 </layer>
 <objectgroup id="9" name="Object">
  <object id="1" name="out" x="207.167" y="312.75" width="16.6667" height="7">
   <properties>
    <property name="targetMap" value="farm2"/>
   </properties>
  </object>
  <object id="2" name="outStore" x="217" y="303.5">
   <point/>
  </object>
 </objectgroup>
</map>
