<?xml version="1.0" encoding="UTF-8"?>
<map version="1.10" tiledversion="1.11.2" orientation="orthogonal" renderorder="right-down" width="48" height="32" tilewidth="16" tileheight="16" infinite="0" nextlayerid="10" nextobjectid="3">
 <tileset firstgid="1" name="2" tilewidth="16" tileheight="16" tilecount="1312" columns="32">
  <image source="Content (unpacked)/Maps/townInterior_2.png" width="512" height="656"/>
 </tileset>
 <tileset firstgid="1313" name="Paths" tilewidth="16" tileheight="16" tilecount="64" columns="4">
  <image source="Content (unpacked)/Maps/paths.png" width="64" height="256"/>
 </tileset>
 <tileset firstgid="1377" name="1" tilewidth="16" tileheight="16" tilecount="2176" columns="32">
  <image source="Content (unpacked)/Maps/townInterior.png" width="512" height="1088"/>
  <tile id="546">
   <animation>
    <frame tileid="546" duration="150"/>
    <frame tileid="546" duration="150"/>
    <frame tileid="546" duration="150"/>
    <frame tileid="546" duration="150"/>
    <frame tileid="546" duration="150"/>
    <frame tileid="547" duration="150"/>
    <frame tileid="548" duration="150"/>
    <frame tileid="546" duration="150"/>
    <frame tileid="547" duration="150"/>
    <frame tileid="548" duration="150"/>
    <frame tileid="546" duration="150"/>
    <frame tileid="547" duration="150"/>
    <frame tileid="548" duration="150"/>
    <frame tileid="546" duration="150"/>
    <frame tileid="547" duration="150"/>
    <frame tileid="548" duration="150"/>
    <frame tileid="546" duration="150"/>
    <frame tileid="547" duration="150"/>
    <frame tileid="548" duration="150"/>
    <frame tileid="546" duration="150"/>
    <frame tileid="547" duration="150"/>
    <frame tileid="548" duration="150"/>
    <frame tileid="546" duration="150"/>
    <frame tileid="546" duration="150"/>
    <frame tileid="546" duration="150"/>
    <frame tileid="546" duration="150"/>
    <frame tileid="546" duration="150"/>
    <frame tileid="546" duration="150"/>
    <frame tileid="546" duration="150"/>
    <frame tileid="546" duration="150"/>
    <frame tileid="546" duration="150"/>
    <frame tileid="546" duration="150"/>
    <frame tileid="546" duration="150"/>
    <frame tileid="546" duration="150"/>
    <frame tileid="546" duration="150"/>
    <frame tileid="546" duration="150"/>
   </animation>
  </tile>
 </tileset>
 <layer id="1" name="Tile Layer 1" width="48" height="32">
  <data encoding="csv">
0,0,0,0,0,0,0,0,0,0,0,0,0,0,0,0,0,0,0,0,0,0,0,0,0,0,0,0,0,0,0,0,0,0,0,0,0,0,0,0,0,0,0,0,0,0,0,0,
0,0,0,0,0,0,0,0,0,0,0,0,0,0,0,0,0,0,0,0,0,0,0,0,0,0,0,0,0,0,0,0,0,0,0,0,0,0,0,0,0,0,0,0,0,0,0,0,
0,0,0,0,0,0,0,0,0,0,0,0,0,0,0,0,0,0,0,0,0,0,0,0,0,0,0,0,0,0,0,0,0,0,0,0,0,0,0,0,0,0,0,0,0,0,0,0,
0,0,0,0,0,0,0,0,0,0,0,0,0,0,0,0,0,0,0,0,0,0,0,0,0,0,0,0,0,0,0,0,0,0,0,0,0,0,0,0,0,0,0,0,0,0,0,0,
0,0,0,0,0,0,0,0,0,0,0,0,0,0,0,0,0,0,0,0,0,0,0,0,0,0,0,0,0,0,0,0,0,0,0,0,0,0,0,0,0,0,0,0,0,0,0,0,
0,0,0,0,0,0,0,0,0,0,0,0,0,0,0,0,0,0,0,0,0,0,0,0,0,0,0,0,0,0,0,0,0,0,0,0,0,0,0,0,0,0,0,0,0,0,0,0,
0,0,0,0,0,0,0,0,0,0,0,0,0,0,0,0,0,0,0,0,0,0,0,0,0,0,0,0,0,0,0,0,0,0,0,0,0,0,0,0,0,0,0,0,0,0,0,0,
0,0,0,0,0,0,0,0,0,0,0,0,0,0,0,0,0,0,0,0,0,0,0,0,0,0,0,0,0,0,0,0,0,0,0,0,0,0,0,0,0,0,0,0,0,0,0,0,
0,0,0,0,0,0,0,0,0,0,0,0,0,0,0,0,0,0,0,0,0,0,0,0,0,0,0,0,0,0,0,0,0,0,0,0,0,0,0,0,0,0,0,0,0,0,0,0,
0,0,0,0,0,0,0,0,0,0,0,0,0,0,0,0,0,0,0,0,0,0,0,0,0,0,0,0,0,0,0,0,0,0,0,0,0,0,0,0,0,0,0,0,0,0,0,0,
0,0,0,0,0,0,0,0,0,0,0,0,0,0,0,0,0,0,0,0,0,0,0,0,0,0,0,0,0,0,0,0,0,0,0,0,0,0,0,0,0,0,0,0,0,0,0,0,
0,0,0,0,0,0,0,0,0,0,0,0,0,0,0,0,0,0,0,0,0,0,0,0,0,0,0,0,0,0,0,0,0,0,0,0,0,0,0,0,0,0,0,0,0,0,0,0,
0,0,0,0,0,0,0,0,0,0,0,0,0,0,0,0,0,0,0,0,0,0,0,0,0,0,0,0,0,0,0,0,0,0,0,0,0,0,0,0,0,0,0,0,0,0,0,0,
0,0,0,0,0,0,0,0,0,0,0,0,0,0,0,0,0,0,0,0,0,0,0,0,0,0,0,0,0,0,0,0,0,0,0,0,0,0,0,0,0,0,0,0,0,0,0,0,
0,0,0,0,0,0,0,0,0,0,0,0,0,0,0,0,0,0,0,0,0,0,0,0,0,0,0,0,0,0,0,0,0,0,0,0,0,0,0,0,0,0,0,0,0,0,0,0,
0,0,0,0,0,0,0,0,0,0,0,0,0,0,0,0,0,0,0,0,0,0,0,0,0,0,0,0,0,0,0,0,0,0,0,0,0,0,0,0,0,0,0,0,0,0,0,0,
0,0,0,0,0,0,0,0,0,0,0,0,0,0,0,0,0,0,0,0,0,0,0,0,0,0,0,0,0,0,0,0,0,0,0,0,0,0,0,0,0,0,0,0,0,0,0,0,
0,0,0,0,0,0,0,0,0,0,0,0,0,0,0,0,0,0,0,0,0,0,0,0,0,0,0,0,0,0,0,0,0,0,0,0,0,0,0,0,0,0,0,0,0,0,0,0,
0,0,0,0,0,0,0,0,0,0,0,0,0,0,0,0,0,0,0,0,0,0,0,0,0,0,0,0,0,0,0,0,0,0,0,0,0,0,0,0,0,0,0,0,0,0,0,0,
0,0,0,0,0,0,0,0,0,0,0,0,0,0,0,0,0,0,0,0,0,0,0,0,0,0,0,0,0,0,0,0,0,0,0,0,0,0,0,0,0,0,0,0,0,0,0,0,
0,0,0,0,0,0,0,0,0,0,0,0,0,0,0,0,0,0,0,0,0,0,0,0,0,0,0,0,0,0,0,0,0,0,0,0,0,0,0,0,0,0,0,0,0,0,0,0,
0,0,0,0,0,0,0,0,0,0,0,0,0,0,0,0,0,0,0,0,0,0,0,0,0,0,0,0,0,0,0,0,0,0,0,0,0,0,0,0,0,0,0,0,0,0,0,0,
0,0,0,0,0,0,0,0,0,0,0,0,0,0,0,0,0,0,0,0,0,0,0,0,0,0,0,0,0,0,0,0,0,0,0,0,0,0,0,0,0,0,0,0,0,0,0,0,
0,0,0,0,0,0,0,0,0,0,0,0,0,0,0,0,0,0,0,0,0,0,0,0,0,0,0,0,0,0,0,0,0,0,0,0,0,0,0,0,0,0,0,0,0,0,0,0,
0,0,0,0,0,0,0,0,0,0,0,0,0,0,0,0,0,0,0,0,0,0,0,0,0,0,0,0,0,0,0,0,0,0,0,0,0,0,0,0,0,0,0,0,0,0,0,0,
0,0,0,0,0,0,0,0,0,0,0,0,0,0,0,0,0,0,0,0,0,0,0,0,0,0,0,0,0,0,0,0,0,0,0,0,0,0,0,0,0,0,0,0,0,0,0,0,
0,0,0,0,0,0,0,0,0,0,0,0,0,0,0,0,0,0,0,0,0,0,0,0,0,0,0,0,0,0,0,0,0,0,0,0,0,0,0,0,0,0,0,0,0,0,0,0,
0,0,0,0,0,0,0,0,0,0,0,0,0,0,0,0,0,0,0,0,0,0,0,0,0,0,0,0,0,0,0,0,0,0,0,0,0,0,0,0,0,0,0,0,0,0,0,0,
0,0,0,0,0,0,0,0,0,0,0,0,0,0,0,0,0,0,0,0,0,0,0,0,0,0,0,0,0,0,0,0,0,0,0,0,0,0,0,0,0,0,0,0,0,0,0,0,
0,0,0,0,0,0,0,0,0,0,0,0,0,0,0,0,0,0,0,0,0,0,0,0,0,0,0,0,0,0,0,0,0,0,0,0,0,0,0,0,0,0,0,0,0,0,0,0,
0,0,0,0,0,0,0,0,0,0,0,0,0,0,0,0,0,0,0,0,0,0,0,0,0,0,0,0,0,0,0,0,0,0,0,0,0,0,0,0,0,0,0,0,0,0,0,0,
0,0,0,0,0,0,0,0,0,0,0,0,0,0,0,0,0,0,0,0,0,0,0,0,0,0,0,0,0,0,0,0,0,0,0,0,0,0,0,0,0,0,0,0,0,0,0,0
</data>
 </layer>
 <layer id="2" name="Back" width="48" height="32">
  <data encoding="csv">
1377,1377,1377,1377,1377,1377,1377,1377,1377,1377,1377,1377,1377,1377,1377,1377,1377,1377,1377,1377,1377,1377,1377,1377,1377,1377,1377,1377,1377,1377,1377,1377,1377,1377,1377,1377,1377,1377,1377,1377,1377,1377,0,0,0,0,0,0,
1377,1377,1377,1377,1377,1377,1377,1377,1377,1377,1377,1377,1377,1377,1377,1377,1377,1377,597,598,598,598,598,598,598,598,598,598,599,1377,0,0,1416,0,0,0,0,0,0,0,0,1377,0,0,0,0,0,0,
1377,1377,1377,1377,1983,1984,1377,1377,1377,1377,1377,1377,1377,1377,1377,1377,1377,1377,629,630,630,630,630,630,630,630,630,630,631,1377,1983,1984,1448,1984,1983,1984,1983,1984,1983,1984,1983,1377,0,0,0,0,0,0,
1983,1984,1983,1984,1486,1984,1983,1984,1695,1486,1486,1984,1983,1984,1983,1984,1377,1377,661,662,1613,1437,1437,1489,1489,1489,1489,1437,663,1377,2015,2016,1480,1480,1448,1448,1448,1448,1448,2016,2015,1377,0,0,0,0,0,0,
1951,1950,1951,1952,1951,1952,1951,1952,1951,1952,1951,1952,1951,1952,1951,167,1377,1377,1438,1405,1405,1405,1405,1405,1405,1405,1405,1405,1406,1377,1983,1950,103,1446,1671,1671,1671,1671,1671,1671,1667,1377,0,0,0,0,0,0,
1983,1984,1983,1983,1983,1984,1983,1984,1983,1886,1887,1887,1888,1984,1983,3521,1377,1377,1403,1437,1437,1437,1437,1437,1437,1437,1437,1408,1404,1377,2015,2016,1510,1672,1671,1671,1603,1603,1671,1671,1673,1377,0,0,0,0,0,0,
2015,3523,2015,1885,2015,2016,123,124,2015,1918,1919,1919,1920,2016,2015,3521,1377,1377,1403,1437,1437,1437,1437,1437,1437,1437,1437,1440,1404,1377,1983,1984,1510,1639,1639,1639,1635,1635,1639,1639,1704,1377,0,0,0,0,0,0,
1983,3491,1983,1984,1983,1984,155,156,1983,3523,1983,1984,1983,1984,1983,3521,1377,1377,1403,1437,1437,1437,1437,1437,1437,1437,1437,1437,1404,1377,2015,2016,1510,1639,1639,1639,1639,1639,1639,1639,1667,1377,0,0,0,0,0,0,
2015,2016,2015,2016,2015,3522,123,124,3490,2016,2015,2016,2015,2016,1377,1377,1377,1377,1377,1377,1437,1437,1437,1437,1437,1437,1437,1437,1404,1377,1983,3523,1510,1639,1639,1639,1639,1639,1639,1639,1704,1377,0,0,0,0,0,0,
1983,1984,1983,1984,1983,1983,155,156,3489,1984,0,3532,3499,3523,3499,3499,3499,3499,3499,3499,1403,1377,0,1377,1377,1377,1377,1377,1377,1377,2015,1984,1510,1639,1639,1639,1639,1639,1639,1639,1704,1377,0,0,0,0,0,0,
2015,2016,2015,2016,2015,2016,123,124,3521,2016,0,1681,1681,3523,1681,1681,1681,1681,1681,1681,1403,3499,3499,3499,3499,3499,3499,3499,3499,3499,3499,2016,117,2047,2079,2047,2079,2047,2079,2079,2047,1377,0,0,0,0,0,0,
1377,1377,1377,1983,1984,1983,155,156,2015,2016,0,1681,1377,1984,1377,1377,1377,1377,1377,1377,1403,1681,1681,1681,1681,1681,1681,1681,1681,1681,1681,3490,2015,2016,1983,1984,2015,2016,2015,1983,1984,1377,0,0,0,0,0,0,
1377,1377,1377,2015,2016,2015,2016,2015,2016,0,0,1950,1952,2079,1951,1952,1951,1952,1951,1952,2079,1377,1483,1483,1377,1377,1377,1377,1377,1377,1377,3489,1983,1984,2015,2016,601,1945,601,2015,2016,1377,0,0,0,0,0,0,
1377,1377,0,1377,1377,1377,1377,1377,1377,1377,1377,1377,1377,1377,1983,1377,1377,1377,1377,1983,3523,1951,1952,1952,1951,2681,2681,1951,1951,1952,1951,3521,2015,2016,600,601,633,1945,633,601,602,1377,0,0,0,0,0,0,
1377,3532,3499,3499,3499,3499,3499,3499,3499,693,694,695,3499,3499,3523,3499,3531,1377,1377,2015,3523,3522,2016,2015,1885,1917,1917,1885,2016,3523,2016,1377,1377,1377,632,633,1945,1945,1945,633,634,1377,0,0,0,0,0,0,
1377,1681,1681,1681,1681,1681,1681,1681,1681,725,726,727,1681,1681,3523,1681,1681,1377,1377,1983,1984,1983,1984,1983,1984,1983,1885,1983,1984,3523,1984,1377,1377,1377,664,1706,1401,1399,1400,1398,666,1377,0,0,0,0,0,0,
1377,1681,1377,1377,1377,1377,1377,1377,1377,1377,1377,1377,1377,1377,2015,1377,1681,1377,1377,2015,2016,1983,1983,1984,1983,1984,1983,1983,1984,2015,2016,1377,1377,1377,1401,1399,603,604,605,1399,1400,1377,0,0,0,0,0,0,
1377,1575,1605,1577,1576,1577,1576,1577,1576,1577,1576,1577,1576,1577,1669,1577,133,1608,1377,1983,1984,2015,2015,2016,2015,2016,2015,2015,2016,1983,1984,1377,1377,1377,1398,1399,635,636,637,1399,1398,1377,0,0,0,0,0,0,
1377,1609,1637,1609,1608,1609,1608,1609,1608,3462,1608,1609,1608,1609,1608,1609,1608,1608,1377,2015,2016,1983,1984,1983,1984,1983,1984,1983,1984,2015,1983,3499,3499,3499,1398,1398,667,668,669,1398,1398,1377,0,0,0,0,0,0,
1377,1641,3496,1577,1576,1577,1576,1577,1576,3461,1640,1641,1640,1641,1640,1641,1640,1608,1377,1983,1984,2015,2016,2015,2016,2015,2016,2015,2016,3491,1984,1681,1681,1681,1399,1398,699,700,701,1398,1399,1377,0,0,0,0,0,0,
1377,1609,3496,1609,3495,3496,1625,1626,1627,3460,1607,1382,1382,1382,1382,1575,3495,1608,1377,2015,2016,1983,1984,1983,1984,1983,1984,1983,1984,3523,2016,1377,1377,1377,1398,1398,731,732,733,1398,1398,1377,0,0,0,0,0,0,
1377,1641,3462,1641,1640,1381,1657,1658,1659,3462,1640,1641,1640,1641,1608,1609,3527,1608,1377,1983,1984,2015,2016,2015,2016,2015,2016,2015,2016,3523,1984,1952,1951,131,1399,1398,763,764,765,1398,1399,1377,0,0,0,0,0,0,
1377,1609,3461,1512,1512,1609,1608,1609,1608,3461,1608,1609,1608,1609,1640,1641,1641,1608,1377,2015,2016,1983,1984,1983,1984,1983,1984,1983,1984,2015,3490,1377,1377,1377,1398,1398,795,796,797,1398,1398,1377,0,0,0,0,0,0,
1377,1641,3460,1576,1577,1641,3496,3528,1640,3460,1576,1577,1576,1577,1576,1577,1381,1608,1377,1983,1984,2015,2016,2015,2016,2015,2016,2015,2016,1983,3521,1377,1377,1377,1398,1399,1399,1399,1399,1399,1398,1377,0,0,0,0,0,0,
1608,1577,3528,3493,3494,1609,3496,1609,2685,1739,1739,1739,1739,1739,1739,1739,1739,1608,1377,1377,1377,1377,1377,1377,1377,1377,1377,1377,1377,1377,1377,1377,1377,1377,1377,1377,1377,1377,1377,1377,1377,1377,0,0,0,0,0,0,
1640,1641,1640,3525,3526,3528,1640,1641,2655,1951,1952,1951,1952,1951,1952,1951,1952,3499,3499,3499,3499,3531,0,0,0,0,0,0,0,0,0,0,0,0,0,0,0,0,0,0,0,0,0,0,0,0,0,0,
1608,1576,1608,3495,1608,1609,3495,3496,2623,3490,1984,1983,1984,3490,1984,1983,1984,1681,1681,1681,1681,1681,0,0,0,0,0,0,0,0,0,0,0,0,0,0,0,0,0,0,0,0,0,0,0,0,0,0,
1640,1641,1640,1641,1640,1641,3527,3496,2655,3489,2016,2015,3522,3521,2016,2015,2016,1608,0,0,0,1681,0,0,0,0,0,0,0,0,0,0,0,0,0,0,0,0,0,0,0,0,0,0,0,0,0,0,
0,1377,1377,1377,1377,1377,1669,1377,1608,3521,1983,1983,1984,3489,1984,1983,1984,1952,1951,1952,1951,167,0,0,0,0,0,0,0,0,0,0,0,0,0,0,0,0,0,0,0,0,0,0,0,0,0,0,
0,0,0,0,0,0,3462,0,1608,3489,2015,2015,2016,3521,2016,2015,3522,1983,1952,1951,1984,1983,1984,0,0,0,0,0,0,0,0,0,0,0,0,0,0,0,0,0,0,0,0,0,0,0,0,0,
0,0,0,0,0,1377,1377,1377,1608,3521,2649,2650,1984,3489,2649,2650,2014,2015,2016,2015,2016,2015,2016,0,0,0,0,0,0,0,0,0,0,0,0,0,0,0,0,0,0,0,0,0,0,0,0,0,
0,0,0,0,0,1377,1377,1377,1608,2015,2016,2015,2016,2015,2016,2015,2016,1608,0,0,0,0,0,0,0,0,0,0,0,0,0,0,0,0,0,0,0,0,0,0,0,0,0,0,0,0,0,0
</data>
 </layer>
 <layer id="3" name="Back2" width="48" height="32">
  <data encoding="csv">
0,0,0,0,0,0,0,0,0,0,0,0,0,0,0,0,0,0,0,0,0,0,0,0,0,0,0,0,0,0,0,0,0,0,0,0,0,0,0,0,0,0,0,0,0,0,0,0,
0,0,0,0,0,0,0,0,0,0,0,0,0,0,0,0,0,0,0,0,0,0,0,0,0,0,0,0,0,0,0,0,0,0,0,0,0,0,0,0,0,0,0,0,0,0,0,0,
0,0,0,0,0,0,0,0,0,0,0,0,0,0,0,0,0,0,0,0,0,0,0,0,0,0,0,0,0,0,0,0,0,0,0,0,0,0,0,0,0,0,0,0,0,0,0,0,
0,0,0,0,0,0,0,0,0,0,0,0,0,0,0,0,0,0,0,0,0,0,0,0,0,0,0,0,0,0,0,0,0,0,0,0,0,0,0,0,0,0,0,0,0,0,0,0,
0,0,0,0,0,0,0,0,0,0,0,0,0,0,0,0,0,0,0,0,0,0,0,0,0,0,0,0,0,0,0,0,0,0,0,0,0,0,0,0,0,0,0,0,0,0,0,0,
0,0,0,0,0,0,0,0,0,0,0,0,0,0,0,0,0,0,0,0,0,0,0,0,0,0,0,0,0,0,0,0,0,0,0,0,0,0,0,0,0,0,0,0,0,0,0,0,
0,0,0,0,0,0,0,0,0,0,0,0,0,0,0,0,0,0,0,0,0,0,0,0,0,0,0,0,0,0,0,0,0,0,0,0,0,0,0,0,0,0,0,0,0,0,0,0,
0,0,0,0,0,0,0,0,0,0,0,0,0,0,0,0,0,0,0,0,0,0,0,0,0,0,0,0,0,0,0,0,0,0,0,0,0,0,0,0,0,0,0,0,0,0,0,0,
0,0,0,0,0,0,0,0,0,0,0,0,0,0,0,0,0,0,0,0,0,0,0,0,0,0,0,0,0,0,0,0,0,0,0,0,0,0,0,0,0,0,0,0,0,0,0,0,
0,0,0,0,0,0,0,0,0,0,0,0,0,0,0,0,0,0,0,0,0,0,0,0,0,0,0,0,0,0,0,0,0,0,0,0,0,0,0,0,0,0,0,0,0,0,0,0,
0,0,0,0,0,0,0,0,0,0,0,0,0,0,0,0,0,0,0,0,0,0,0,0,0,0,0,0,0,0,0,0,0,0,0,0,0,0,0,0,0,0,0,0,0,0,0,0,
0,0,0,0,0,0,0,0,0,0,0,0,0,0,0,0,0,0,0,0,0,0,0,0,0,0,0,0,0,0,0,0,0,0,0,0,0,0,0,0,0,0,0,0,0,0,0,0,
0,0,0,0,0,0,0,0,0,0,0,0,0,0,0,0,0,0,0,0,0,0,0,0,0,0,0,0,0,0,0,0,0,0,0,0,0,0,0,0,0,0,0,0,0,0,0,0,
0,0,0,0,0,0,0,0,0,0,0,0,0,0,0,0,0,0,0,0,0,0,0,0,0,0,0,0,0,0,0,0,0,0,0,0,0,0,0,0,0,0,0,0,0,0,0,0,
0,0,0,0,0,0,0,0,0,0,0,0,0,0,0,0,0,0,0,0,0,0,0,0,0,0,0,0,0,0,0,0,0,0,0,0,0,0,0,0,0,0,0,0,0,0,0,0,
0,0,0,0,0,0,0,0,0,0,0,0,0,0,0,0,0,0,0,0,0,0,0,0,0,0,0,0,0,0,0,0,0,0,0,0,0,0,0,0,0,0,0,0,0,0,0,0,
0,0,0,0,0,0,0,0,0,0,0,0,0,0,0,0,0,0,0,0,0,373,374,375,376,377,378,379,380,0,0,0,0,0,0,0,0,0,0,0,0,0,0,0,0,0,0,0,
0,0,0,0,0,0,0,0,0,0,0,0,0,0,0,0,0,0,0,0,0,405,406,407,408,409,410,411,412,0,0,0,0,0,0,0,0,0,0,0,0,0,0,0,0,0,0,0,
0,0,0,0,0,0,0,0,0,0,0,0,0,0,0,0,0,0,0,0,0,437,438,439,440,441,442,443,444,0,0,0,0,0,0,0,0,0,0,0,0,0,0,0,0,0,0,0,
0,0,0,0,0,0,0,0,0,0,0,0,0,0,0,0,0,0,0,0,0,469,470,471,472,473,474,475,476,0,0,0,0,0,0,0,0,0,0,0,0,0,0,0,0,0,0,0,
0,0,0,0,0,0,0,0,0,0,0,0,0,0,0,0,0,0,0,0,0,501,502,503,504,505,506,507,508,0,0,0,0,0,0,0,0,0,0,0,0,0,0,0,0,0,0,0,
0,0,0,0,0,0,0,0,0,0,0,0,0,0,0,0,0,0,0,0,0,533,534,535,536,537,538,539,540,0,0,0,0,0,0,0,0,0,0,0,0,0,0,0,0,0,0,0,
0,0,0,0,0,0,0,0,0,0,0,0,0,0,0,0,0,0,0,0,0,565,566,567,568,569,570,571,572,0,0,0,0,0,0,0,0,0,0,0,0,0,0,0,0,0,0,0,
0,0,0,0,0,0,0,0,0,0,0,0,0,0,0,0,0,0,0,0,0,0,0,0,0,0,0,0,0,0,0,0,0,0,0,0,0,0,0,0,0,0,0,0,0,0,0,0,
0,0,0,0,0,0,0,0,0,0,0,0,0,0,0,0,0,0,0,0,0,0,0,0,0,0,0,0,0,0,0,0,0,0,0,0,0,0,0,0,0,0,0,0,0,0,0,0,
0,0,0,0,0,0,0,0,0,0,0,0,0,0,0,0,0,0,0,0,0,0,0,0,0,0,0,0,0,0,0,0,0,0,0,0,0,0,0,0,0,0,0,0,0,0,0,0,
0,0,0,0,0,0,0,0,0,0,0,0,0,0,0,0,0,0,0,0,0,0,0,0,0,0,0,0,0,0,0,0,0,0,0,0,0,0,0,0,0,0,0,0,0,0,0,0,
0,0,0,0,0,0,0,0,0,0,0,0,0,0,0,0,0,0,0,0,0,0,0,0,0,0,0,0,0,0,0,0,0,0,0,0,0,0,0,0,0,0,0,0,0,0,0,0,
0,0,0,0,0,0,0,0,0,0,0,0,0,0,0,0,0,0,0,0,0,0,0,0,0,0,0,0,0,0,0,0,0,0,0,0,0,0,0,0,0,0,0,0,0,0,0,0,
0,0,0,0,0,0,0,0,0,0,0,0,0,0,0,0,0,0,0,0,0,0,0,0,0,0,0,0,0,0,0,0,0,0,0,0,0,0,0,0,0,0,0,0,0,0,0,0,
0,0,0,0,0,0,0,0,0,0,0,0,0,0,0,0,0,0,0,0,0,0,0,0,0,0,0,0,0,0,0,0,0,0,0,0,0,0,0,0,0,0,0,0,0,0,0,0,
0,0,0,0,0,0,0,0,0,0,0,0,0,0,0,0,0,0,0,0,0,0,0,0,0,0,0,0,0,0,0,0,0,0,0,0,0,0,0,0,0,0,0,0,0,0,0,0
</data>
 </layer>
 <layer id="4" name="Buildings" width="48" height="32">
  <data encoding="csv">
0,1389,1390,1390,1390,1390,1390,1390,1390,1390,1390,1390,1390,1390,1390,0,1377,1377,0,0,0,0,0,0,0,0,0,0,0,0,0,0,1384,1384,1384,1384,1384,1384,1384,1384,1413,0,0,0,0,0,0,0,
0,1421,1631,1631,1422,1631,1631,1631,1631,1422,1631,1631,1631,1631,1422,1423,1377,1377,0,0,0,0,0,0,0,0,0,0,0,0,0,1415,1416,1416,1416,1416,1416,1416,1416,1416,1417,1413,0,0,0,0,0,0,
1441,1453,1663,1663,1454,1663,1663,1663,1663,1454,1663,1663,1663,1663,1454,1455,1377,1377,1456,1457,1457,1457,1457,1457,1457,1457,1457,1457,1458,1445,1441,1447,39,1448,1448,1448,1448,1448,1448,1448,1449,1445,0,0,0,0,0,0,
1441,1485,1695,1695,1865,1695,1486,1695,1591,1863,1864,1695,1695,1695,1486,1487,1377,1377,1488,1489,1986,1987,1489,2148,2149,2150,1928,1489,1490,1445,1441,1479,71,1962,1975,1975,1976,1977,1480,1480,1481,1445,0,0,0,0,0,0,
1441,1517,1758,1759,1897,0,0,0,0,1895,1896,2024,2025,0,1829,1519,1377,1377,1520,0,2018,2019,0,0,0,0,1960,0,1522,1445,1441,1511,0,1994,2007,2007,2008,2009,2010,2011,1513,1445,0,0,0,0,0,0,
1441,0,1790,0,0,0,0,0,0,0,0,0,0,0,0,1911,1377,1377,1912,0,0,0,0,1697,2245,1698,0,0,0,1445,1441,0,0,0,0,0,0,0,0,0,1872,1445,0,0,0,0,0,0,
1441,0,0,0,0,0,0,0,0,0,0,0,0,0,0,1821,1377,1377,2127,2128,0,0,0,0,0,0,0,0,627,1445,1441,0,0,0,1802,1803,1804,0,0,0,530,1445,0,0,0,0,0,0,
1441,0,0,0,0,0,0,0,0,0,0,0,0,0,1900,1853,1377,1377,2159,2160,0,0,0,1881,1882,1883,0,0,659,1445,1441,0,0,1769,1802,1803,1804,1833,0,1930,530,1445,0,0,0,0,0,0,
1441,1797,1798,0,0,0,0,0,0,1377,1377,1377,1377,0,1377,1377,1377,1377,1377,1377,0,0,1769,1913,1914,1915,1833,0,0,1445,1441,0,0,1769,1834,1835,1836,1833,0,0,562,1445,0,0,0,0,0,0,
1441,0,0,0,0,0,0,0,0,1377,1377,0,1432,0,1431,0,0,0,0,1432,0,1377,1377,1377,1377,1379,1379,1377,1377,1377,1571,0,0,0,0,0,0,0,0,0,0,1445,0,0,0,0,0,0,
1441,1699,1700,0,0,0,0,1792,0,1377,1377,1450,1464,0,1463,1451,1451,1451,1451,1464,0,1431,0,0,0,0,0,0,0,0,1432,0,0,0,0,0,0,0,0,0,1778,1544,0,0,0,0,0,0,
1377,1377,1377,1377,1377,1377,1377,1377,1377,1377,1377,1482,1496,1497,1495,1483,1483,1483,1483,1496,1497,1463,1451,1451,1451,1451,1451,1451,1451,1451,1464,0,1445,1445,1445,1445,1445,1445,1445,1445,1445,1445,0,0,0,0,0,0,
0,0,0,1377,1377,1377,1377,1377,1377,1377,1377,1514,0,0,0,0,0,0,0,0,0,1495,1863,1864,1483,1483,1483,1483,1483,1483,1496,0,1445,1445,0,0,1432,0,1431,0,0,1377,0,0,0,0,0,0,
0,1378,1384,1384,1384,0,0,0,0,1379,1379,1384,1384,1384,0,1384,1385,1377,1441,0,0,0,1895,1896,0,2171,2172,0,0,0,0,0,1445,0,245,1432,1464,0,1463,1431,246,1377,0,0,0,0,0,0,
1409,0,0,0,0,0,0,0,1432,0,0,0,1431,1432,0,1431,0,0,1441,0,0,0,0,0,0,0,0,0,0,0,0,1445,1377,0,1450,1464,1496,1515,1495,1463,1452,1377,0,0,0,0,0,0,
1441,1450,1451,1451,1451,1451,1451,1451,1464,1451,1451,1451,1463,1464,0,1463,1452,1377,1441,0,0,0,0,0,0,0,0,0,0,0,0,1445,1377,1441,1482,1496,2196,0,2196,1495,1484,1377,0,0,0,0,0,0,
1441,1482,1483,1483,1483,1483,1483,1483,2329,1483,1483,1483,1483,1496,1497,1495,1484,1377,1441,0,0,0,0,0,0,0,0,0,0,0,0,1445,1377,1441,1514,2196,2161,2162,2163,2196,1516,1377,0,0,0,0,0,0,
1441,1514,0,0,0,0,0,0,2361,0,0,0,0,0,0,0,1516,1377,1441,0,0,0,0,0,0,0,0,0,0,0,0,1570,0,1571,0,0,2193,2194,2195,0,0,1377,0,0,0,0,0,0,
1441,1911,0,2388,2389,2390,2391,2392,2393,0,0,0,0,0,0,0,0,1377,1441,0,0,0,0,0,0,0,0,0,0,0,2155,1431,0,1432,2196,0,0,0,0,0,2196,1377,0,0,0,0,0,0,
1441,2266,0,0,0,0,0,0,0,0,2395,2396,2397,2398,2399,2400,0,1377,1441,724,0,0,0,0,0,0,0,0,0,0,0,1463,1451,1464,0,0,1900,1900,1900,0,0,1377,0,0,0,0,0,0,
1441,2298,0,0,0,0,0,0,0,0,0,0,0,0,0,0,0,1377,1441,756,0,0,0,0,0,0,0,0,0,0,0,1495,1483,1496,2196,0,0,0,0,0,2196,1377,0,0,0,0,0,0,
1441,2330,0,2267,2268,0,0,0,0,0,0,0,0,0,0,0,0,1377,1441,0,0,0,0,0,0,0,0,0,0,0,0,0,0,0,0,0,1900,1900,1900,0,0,1377,0,0,0,0,0,0,
1441,2362,0,2299,2300,0,0,0,0,0,2395,2396,2397,2398,2399,2400,0,1377,1441,0,0,0,0,0,0,0,0,0,0,0,0,1377,1377,1377,0,2196,0,0,0,2196,0,1377,0,0,0,0,0,0,
1441,2394,0,0,0,0,0,0,0,0,0,0,0,0,0,0,0,1377,1537,0,1777,0,0,0,0,0,0,0,0,0,1778,1377,1377,1377,0,0,0,0,0,0,0,1377,0,0,0,0,0,0,
1377,2744,0,0,0,0,0,0,0,0,0,0,0,0,0,0,0,1377,1377,1377,1377,1377,1377,1377,1377,1377,1377,1377,1377,1377,1377,1377,1377,1377,1377,1377,1377,1377,1377,1377,1377,1377,0,0,0,0,0,0,
1441,3524,0,0,0,0,0,0,0,0,3303,3304,0,0,3303,3304,0,1431,0,0,0,0,1377,0,0,0,0,0,0,0,0,0,0,0,0,0,0,0,0,0,0,0,0,0,0,0,0,0,
1441,1576,0,0,0,0,0,0,0,0,3303,3304,0,0,3303,3304,0,1463,1451,1451,1451,1452,1377,0,0,0,0,0,0,0,0,0,0,0,0,0,0,0,0,0,0,0,0,0,0,0,0,0,
1441,3469,3470,3524,2744,0,0,0,0,0,3335,3336,0,0,3335,3336,0,1495,1483,1483,1483,1484,1377,0,0,0,0,0,0,0,0,0,0,0,0,0,0,0,0,0,0,0,0,0,0,0,0,0,
0,1377,1377,1377,1377,1377,0,1377,1377,0,3367,3368,0,0,3369,3370,0,0,76,77,0,1516,1377,0,0,0,0,0,0,0,0,0,0,0,0,0,0,0,0,0,0,0,0,0,0,0,0,0,
0,0,0,0,0,1377,0,1377,1377,0,3399,3400,0,0,3401,3402,0,0,0,0,0,0,1377,0,0,0,0,0,0,0,0,0,0,0,0,0,0,0,0,0,0,0,0,0,0,0,0,0,
0,0,0,0,0,1377,0,1377,1377,0,0,0,0,0,0,0,0,0,0,0,1912,67,1377,0,0,0,0,0,0,0,0,0,0,0,0,0,0,0,0,0,0,0,0,0,0,0,0,0,
0,0,0,0,0,1377,1377,1377,1377,1377,1377,1377,1377,1377,1377,1377,1377,1377,1377,1377,1377,1377,1377,0,0,0,0,0,0,0,0,0,0,0,0,0,0,0,0,0,0,0,0,0,0,0,0,0
</data>
 </layer>
 <layer id="5" name="Front" width="48" height="32">
  <data encoding="csv">
0,1378,1379,1379,1379,3498,1379,1379,1379,3498,1379,1379,1379,1379,1379,1380,1377,1377,1378,1379,1379,1379,1379,3498,1379,1379,1379,1379,1380,1377,0,1378,1379,1379,3498,1379,1379,1379,3498,1379,1380,0,1377,1377,1377,1377,1377,1377,
1409,1418,728,1779,2721,0,1633,1633,0,0,2721,1555,1556,1909,1910,1420,1413,1409,1418,0,1954,1955,1554,0,2721,0,0,1633,1420,1413,1409,1418,7,1553,1907,1908,1602,1602,1622,1623,1420,1413,1377,1377,1377,1377,1377,1377,
1441,0,1747,1655,0,0,1665,1665,0,0,0,1587,1588,1941,1942,0,1445,1441,0,0,1986,1987,0,2116,2117,2118,0,1665,0,1445,1441,0,0,0,1939,1940,1846,1846,1946,1947,0,1445,1377,1377,1377,1377,1377,1377,
1441,0,1726,1727,1809,0,0,0,0,1922,1923,1992,1993,0,2723,0,3530,1441,0,0,0,0,0,1729,2181,1730,1857,0,0,1445,1441,0,0,1889,1744,2028,1878,1878,1978,1979,0,1445,1377,1377,1377,1377,1377,1377,
1441,0,0,0,0,0,0,0,0,0,0,0,0,0,0,1879,1445,3529,1880,0,0,0,0,1761,2213,1762,0,0,0,1445,3529,0,0,0,0,0,0,0,0,0,1840,3530,1377,1377,1377,1377,1377,1377,
3529,0,0,0,0,0,0,0,0,0,0,0,0,0,0,1789,1445,1441,2095,2096,0,0,0,0,0,0,0,0,595,3530,1441,0,0,0,1770,1771,1772,0,0,0,498,1445,1377,1377,1377,1377,1377,1377,
1441,0,0,0,0,0,0,0,0,0,0,0,0,0,0,0,1445,1441,0,0,0,0,0,1849,1850,1851,0,0,0,1445,1441,0,0,1737,1742,1711,1709,1801,0,0,1890,1445,1377,1377,1377,1377,1377,1377,
1441,1765,1766,0,0,0,0,0,0,1540,1542,3497,1539,0,1540,1543,1544,1537,1538,1539,0,0,1737,2028,1711,1808,1801,0,0,1445,1441,0,0,1737,1710,1743,1741,1801,0,0,2026,1445,1377,1377,1377,1377,1377,1377,
3529,1799,1800,0,0,0,0,0,0,1445,0,1378,1571,0,1570,1379,1379,3498,1379,1571,0,1540,1542,1542,3497,1542,1542,1542,1543,1544,3529,0,0,0,0,0,0,0,0,0,0,3530,1377,1377,1377,1377,1377,1377,
1441,1831,1832,0,0,0,0,1760,0,1445,1409,1418,0,1433,0,1590,1553,1559,1552,0,1433,1570,1379,3498,1379,2043,2044,1379,1379,3498,1571,0,0,0,0,0,0,0,337,0,1746,1445,1377,1377,1377,1377,1377,1377,
1537,1538,1542,1542,624,626,1542,1542,1543,1544,1441,0,0,1465,1592,0,0,0,0,0,1465,0,1529,1530,0,2075,2076,0,1584,1586,0,0,1540,0,624,625,626,0,369,0,1543,1544,1377,1377,1377,1377,1377,1377,
0,0,0,0,0,0,0,0,0,0,3529,0,0,0,0,0,0,0,0,0,0,1592,1561,1562,0,2107,2108,1592,0,0,0,0,1445,1377,1377,3500,1379,1379,1379,3501,1377,1377,1377,1377,1377,1377,1377,1377,
1377,1377,1377,1377,1377,1377,1377,0,0,0,1537,1538,1542,1539,0,1540,1542,3497,1539,0,0,0,1858,1985,0,2139,2140,0,0,0,0,0,1445,1377,1378,1571,2132,0,2132,1570,1380,0,1377,1377,1377,1377,1377,1377,
1377,1378,1379,3498,1379,1379,1379,1379,3498,1379,1379,1379,3498,1571,0,1570,1380,0,1441,0,0,0,0,0,0,0,0,0,0,0,0,1540,1507,1409,1418,0,2164,0,2164,0,1420,1413,1377,1377,1377,1377,1377,1377,
1409,1418,1633,0,2301,0,1618,1619,0,0,0,0,0,0,1433,0,1420,1413,1441,0,0,0,0,0,0,0,0,0,0,0,0,1445,1377,1441,277,2132,2164,0,2164,2132,278,1445,1377,1377,1377,1377,1377,1377,
1441,0,1665,0,0,1686,1650,1651,2297,0,0,0,0,0,1465,0,0,1445,3529,0,0,0,0,0,0,0,0,0,0,0,0,3530,1377,3529,0,2164,2129,2130,2131,2164,0,1445,1377,1377,1377,1377,1377,1377,
3529,0,0,0,0,0,0,0,0,0,0,0,0,0,0,0,0,3530,1441,0,0,0,0,0,0,0,0,0,0,0,0,1445,1377,1441,2132,0,0,0,0,0,2132,1445,1377,1377,1377,1377,1377,1377,
1441,1879,0,2356,2357,2358,2359,2360,1711,0,2331,2332,2333,2334,2335,2336,0,1445,1441,0,0,0,0,0,0,0,0,0,0,0,2123,1570,1379,1571,2164,0,0,0,0,0,2164,3530,1377,1377,1377,1377,1377,1377,
1441,2234,0,0,0,0,0,0,0,0,2363,2364,2365,2366,2367,2368,0,1445,3529,692,0,0,0,0,0,0,0,0,0,0,0,0,2721,0,2132,0,0,0,0,0,2132,1445,1377,1377,1377,1377,1377,1377,
3529,0,0,0,0,0,0,0,0,0,0,0,0,0,0,0,0,3530,1441,1857,0,0,0,0,0,0,0,0,0,0,0,0,0,0,2164,0,0,0,0,0,2164,1445,1377,1377,1377,1377,1377,1377,
1441,0,0,2235,2236,0,0,0,0,0,2331,2332,2333,2334,2335,2336,0,1445,1441,0,0,0,0,0,0,0,0,0,0,0,0,0,0,0,0,2132,0,0,0,2132,0,1445,1377,1377,1377,1377,1377,1377,
1441,0,0,0,0,0,0,0,0,0,2363,2364,2365,2366,2367,2368,0,1445,3529,1712,1713,1714,0,0,0,0,0,0,0,0,0,1540,1542,1539,0,2164,0,0,0,2164,0,3530,1377,1377,1377,1377,1377,1377,
1441,0,0,0,0,0,0,0,0,0,0,0,0,0,0,0,0,1445,1441,0,1745,187,0,0,0,0,0,0,0,0,1746,3530,1377,1441,0,0,0,0,0,0,0,1445,1377,1377,1377,1377,1377,1377,
3529,2712,0,0,0,0,0,0,0,0,3239,3240,0,0,3239,3240,0,3530,1537,1538,1542,219,3497,1542,1542,1542,624,625,626,1542,1543,1544,1377,1537,1538,1542,1542,3497,1542,1542,1543,1544,1377,1377,1377,1377,1377,1377,
1441,3492,0,0,0,0,0,0,0,0,3271,3272,0,0,3271,3272,0,1570,1379,3498,1379,1380,0,1377,1377,1377,1377,1377,1377,1377,1377,0,1377,1377,1377,1377,1377,1377,1377,1377,1377,1377,1377,1377,1377,1377,1377,1377,
1441,0,0,0,0,0,0,0,0,0,3307,3276,0,0,3273,3340,0,0,1623,0,14,1420,1413,1377,1377,1377,1377,1377,1377,1377,1377,1377,1377,1377,1377,1377,1377,1377,1377,1377,1377,1377,1377,1377,1377,1377,1377,1377,
3529,3437,3438,3492,2712,0,0,0,0,0,3339,3340,0,0,3273,3308,0,0,0,1656,46,0,1445,1377,1377,1377,1377,1377,1377,1377,1377,1377,1377,1377,1377,1377,1377,1377,1377,1377,1377,1377,1377,1377,1377,1377,1377,1377,
1537,1538,3497,1542,1542,1539,0,1540,1539,0,3275,3276,0,0,3305,3338,0,0,44,45,0,0,3530,1377,1377,1377,1377,1377,1377,1377,1377,1377,1377,1377,1377,1377,1377,1377,1377,1377,1377,1377,1377,1377,1377,1377,1377,1377,
1377,1377,1377,1377,1377,1441,0,1445,1441,0,0,0,0,0,0,0,0,0,0,0,0,3,1445,1377,1377,1377,1377,1377,1377,1377,1377,1377,1377,1377,1377,1377,1377,1377,1377,1377,1377,1377,1377,1377,1377,1377,1377,1377,
1377,1377,1377,1377,1377,1473,1542,1507,1441,0,0,0,0,0,0,0,0,0,0,0,1880,35,1445,1377,1377,1377,1377,1377,1377,1377,1377,1377,1377,1377,1377,1377,1377,1377,1377,1377,1377,1377,1377,1377,1377,1377,1377,1377,
1377,1377,1377,1377,1377,0,1377,0,1473,1542,3497,1542,1542,3497,1542,1542,1542,3497,1542,1542,3497,1543,1544,1377,1377,1377,1377,1377,1377,1377,1377,1377,1377,1377,1377,1377,1377,1377,1377,1377,1377,1377,1377,1377,1377,1377,1377,1377,
1377,1377,1377,1377,1377,0,0,0,0,0,0,0,0,0,0,0,0,0,0,0,0,0,0,1377,1377,1377,1377,1377,1377,1377,1377,1377,1377,1377,1377,1377,1377,1377,1377,1377,1377,1377,1377,1377,1377,1377,1377,1377
</data>
 </layer>
 <layer id="6" name="Front2" width="48" height="32">
  <data encoding="csv">
0,0,0,0,0,0,0,0,0,0,0,0,0,0,0,0,0,0,0,0,0,0,0,0,0,0,0,0,0,0,0,0,0,0,0,0,0,0,0,0,0,0,0,0,0,0,0,0,
0,0,0,0,0,0,0,0,0,0,0,0,0,0,0,0,0,0,500,0,0,0,0,0,0,0,0,0,0,0,0,0,0,0,0,0,0,0,0,0,1081,0,0,0,0,0,0,0,
0,0,0,0,0,0,0,0,0,0,0,0,0,0,0,0,0,0,532,0,0,0,0,0,0,0,0,0,0,0,0,0,0,0,0,0,0,0,0,0,1113,0,0,0,0,0,0,0,
0,0,0,0,0,0,0,0,0,0,0,0,0,0,0,0,0,0,0,0,0,0,0,0,0,0,0,0,0,0,0,0,0,0,0,0,0,0,0,0,0,0,0,0,0,0,0,0,
0,0,0,0,0,0,0,0,0,0,0,0,0,0,0,0,0,0,0,0,0,0,0,0,0,0,0,0,0,0,0,0,0,0,0,0,0,0,0,0,0,0,0,0,0,0,0,0,
0,0,0,0,0,0,0,0,0,0,0,0,0,0,0,0,0,0,0,0,0,0,0,0,0,0,0,0,0,0,0,0,0,0,0,0,0,0,0,0,0,0,0,0,0,0,0,0,
0,0,0,0,0,0,0,0,0,0,0,0,0,0,0,0,0,0,0,0,0,0,0,0,0,0,0,0,0,0,0,0,0,0,0,0,0,0,0,0,0,0,0,0,0,0,0,0,
0,0,0,0,0,0,0,0,0,0,0,0,0,0,0,0,0,0,0,0,0,0,0,0,0,0,0,0,0,0,0,0,0,0,0,0,0,0,0,0,0,0,0,0,0,0,0,0,
0,0,0,0,0,0,0,0,0,0,0,0,0,0,0,0,0,0,0,0,0,0,0,0,0,0,0,0,0,0,0,0,0,0,0,0,0,0,0,0,0,0,0,0,0,0,0,0,
0,0,0,0,0,0,0,0,0,0,0,1082,0,0,0,0,0,0,0,0,0,0,0,0,0,0,0,0,0,0,0,0,0,0,0,1696,0,0,0,0,0,0,0,0,0,0,0,0,
0,0,0,0,2210,2211,0,0,0,0,0,1114,0,0,0,0,0,0,0,0,0,0,0,0,0,0,0,0,0,0,0,0,0,0,88,1728,1810,0,0,0,0,0,0,0,0,0,0,0,
0,0,0,0,0,0,0,0,0,0,0,0,0,0,0,0,0,0,0,0,0,0,0,0,0,0,0,0,0,0,0,0,0,0,0,0,0,0,0,0,0,0,0,0,0,0,0,0,
0,0,0,0,0,0,0,0,0,0,0,0,0,0,0,0,0,0,0,0,0,0,0,0,0,0,0,0,0,0,0,0,0,0,0,0,0,0,0,0,0,0,0,0,0,0,0,0,
0,0,0,0,0,0,0,0,0,0,0,0,0,0,0,0,0,0,0,0,0,0,0,0,0,0,0,0,0,0,0,0,0,0,0,0,0,0,0,0,0,0,0,0,0,0,0,0,
0,0,0,0,0,0,0,0,0,0,0,0,0,0,0,0,1145,0,0,0,0,0,0,0,0,0,0,0,0,0,0,0,0,0,0,0,0,0,0,0,0,0,0,0,0,0,0,0,
0,0,0,0,0,0,0,0,0,0,0,0,0,0,0,0,1177,0,0,0,0,0,0,0,0,0,0,0,0,0,0,0,0,0,0,0,0,0,0,0,0,0,0,0,0,0,0,0,
0,0,0,0,0,0,0,0,0,0,0,0,0,0,0,0,0,0,0,0,0,0,0,0,0,0,0,0,0,0,0,0,0,0,0,0,0,0,0,0,0,0,0,0,0,0,0,0,
0,0,0,0,0,0,0,0,0,0,0,0,0,0,0,0,0,0,0,0,0,0,0,0,0,0,0,0,0,0,0,0,0,0,0,0,0,0,0,0,0,0,0,0,0,0,0,0,
0,0,0,0,0,0,0,0,0,0,0,0,0,0,0,0,0,0,0,0,0,0,0,0,0,0,0,0,0,0,0,0,0,0,0,0,0,0,0,0,0,0,0,0,0,0,0,0,
0,0,0,0,0,0,0,0,0,0,0,0,0,0,0,0,0,0,0,0,0,0,0,0,0,0,0,0,0,0,0,0,0,0,0,0,0,0,0,0,0,0,0,0,0,0,0,0,
0,0,0,0,0,0,0,0,0,0,0,0,0,0,0,0,0,0,0,0,0,0,0,0,0,0,0,0,0,0,0,0,0,0,0,0,0,0,0,0,0,0,0,0,0,0,0,0,
0,0,0,0,0,0,0,0,0,0,0,0,0,0,0,0,0,0,0,0,0,0,0,0,0,0,0,0,0,0,0,0,0,0,0,0,0,0,0,0,0,0,0,0,0,0,0,0,
0,0,0,0,0,0,0,0,0,0,0,0,0,0,0,0,0,0,0,0,0,0,0,0,0,0,0,0,0,0,0,0,0,0,0,0,0,0,0,0,0,0,0,0,0,0,0,0,
0,0,0,0,0,0,0,0,0,0,0,0,0,0,0,0,0,0,0,0,0,1542,0,0,0,0,2211,2210,1890,0,0,0,0,0,0,0,0,0,0,0,0,0,0,0,0,0,0,0,
0,0,0,0,0,0,0,0,0,0,0,0,0,0,0,0,0,0,0,0,0,0,0,0,0,0,0,0,0,0,0,0,0,0,0,0,0,0,0,0,0,0,0,0,0,0,0,0,
0,0,0,0,0,0,0,0,0,0,0,0,0,0,0,0,0,0,0,0,0,0,0,0,0,0,0,0,0,0,0,0,0,0,0,0,0,0,0,0,0,0,0,0,0,0,0,0,
0,0,0,0,0,0,0,0,0,0,0,0,0,0,0,0,0,0,0,0,0,0,0,0,0,0,0,0,0,0,0,0,0,0,0,0,0,0,0,0,0,0,0,0,0,0,0,0,
0,0,0,0,0,0,0,0,0,0,0,0,0,0,0,0,0,0,0,0,0,0,0,0,0,0,0,0,0,0,0,0,0,0,0,0,0,0,0,0,0,0,0,0,0,0,0,0,
0,0,0,0,0,0,0,0,0,0,0,0,0,0,0,0,0,0,0,0,0,0,0,0,0,0,0,0,0,0,0,0,0,0,0,0,0,0,0,0,0,0,0,0,0,0,0,0,
0,0,0,0,0,0,0,0,0,0,0,0,0,0,0,0,0,0,0,0,0,0,0,0,0,0,0,0,0,0,0,0,0,0,0,0,0,0,0,0,0,0,0,0,0,0,0,0,
0,0,0,0,0,0,0,0,0,0,0,0,0,0,0,0,0,0,0,0,0,0,0,0,0,0,0,0,0,0,0,0,0,0,0,0,0,0,0,0,0,0,0,0,0,0,0,0,
0,0,0,0,0,0,0,0,0,0,0,0,0,0,0,0,0,0,0,0,0,0,0,0,0,0,0,0,0,0,0,0,0,0,0,0,0,0,0,0,0,0,0,0,0,0,0,0
</data>
 </layer>
 <layer id="7" name="Front3" width="48" height="32">
  <data encoding="csv">
0,0,0,0,0,0,0,0,0,0,0,0,0,0,0,0,0,0,0,0,0,0,0,0,0,0,0,0,0,0,0,0,0,0,0,0,0,0,0,0,0,0,0,0,0,0,0,0,
0,0,0,0,0,0,0,0,0,0,0,0,0,0,0,0,0,0,0,0,0,0,0,0,0,0,0,0,0,0,0,0,0,0,0,0,0,0,0,0,0,0,0,0,0,0,0,0,
0,0,0,0,0,0,0,0,0,0,0,0,0,0,0,0,0,0,0,0,0,0,0,0,0,0,0,0,0,0,0,0,0,0,0,0,0,0,0,0,0,0,0,0,0,0,0,0,
0,0,0,0,0,0,0,0,0,0,0,0,0,0,0,0,0,0,0,0,0,0,0,0,0,0,0,0,0,0,0,0,0,0,0,0,0,0,0,0,0,0,0,0,0,0,0,0,
0,0,0,0,0,0,0,0,0,0,0,0,0,0,0,0,0,0,0,0,0,0,0,0,0,0,0,0,0,0,0,0,0,0,0,0,0,0,0,0,0,0,0,0,0,0,0,0,
0,0,0,0,0,0,0,0,0,0,0,0,0,0,0,0,0,0,0,0,0,0,0,0,0,0,0,0,0,0,0,0,0,0,0,0,0,0,0,0,0,0,0,0,0,0,0,0,
0,0,0,0,0,0,0,0,0,0,0,0,0,0,0,0,0,0,0,0,0,0,0,0,0,0,0,0,0,0,0,0,0,0,0,0,0,0,0,0,0,0,0,0,0,0,0,0,
0,0,0,0,0,0,0,0,0,0,0,0,0,0,0,0,0,0,0,0,0,0,0,0,0,0,0,0,0,0,0,0,0,0,0,0,0,0,0,0,0,0,0,0,0,0,0,0,
0,0,0,0,0,0,0,0,0,0,0,0,0,0,0,0,0,0,0,0,0,0,0,0,0,0,0,0,0,0,0,0,0,0,0,0,0,0,0,0,0,0,0,0,0,0,0,0,
0,0,0,0,0,0,0,0,0,0,0,0,0,0,0,0,0,0,0,0,0,0,0,0,0,0,0,0,0,0,0,0,0,0,0,0,0,0,0,0,0,0,0,0,0,0,0,0,
0,0,0,0,3497,1542,0,0,0,0,0,0,0,0,0,0,0,0,0,0,0,0,0,0,0,0,0,0,0,0,0,0,0,3497,1542,1542,1542,3497,1542,1542,0,0,0,0,0,0,0,0,
0,0,0,0,0,0,0,0,0,0,0,0,0,0,0,0,0,0,0,0,0,0,0,0,0,0,0,0,0,0,0,0,0,0,0,0,0,0,0,0,0,0,0,0,0,0,0,0,
0,0,0,0,0,0,0,0,0,0,0,0,0,0,0,0,0,0,0,0,0,0,0,0,0,0,0,0,0,0,0,0,0,0,0,0,0,0,0,0,0,0,0,0,0,0,0,0,
0,0,0,0,0,0,0,0,0,0,0,0,0,0,0,0,0,0,0,0,0,0,0,0,0,0,0,0,0,0,0,0,0,0,0,0,0,0,0,0,0,0,0,0,0,0,0,0,
0,0,0,0,0,0,0,0,0,0,0,0,0,0,0,0,0,0,0,0,0,0,0,0,0,0,0,0,0,0,0,0,0,0,0,0,0,0,0,0,0,0,0,0,0,0,0,0,
0,0,0,0,0,0,0,0,0,0,0,0,0,0,0,0,0,0,0,0,0,0,0,0,0,0,0,0,0,0,0,0,0,0,0,0,0,0,0,0,0,0,0,0,0,0,0,0,
0,0,0,0,0,0,0,0,0,0,0,0,0,0,0,0,0,0,0,0,0,0,0,0,0,0,0,0,0,0,0,0,0,0,0,0,0,0,0,0,0,0,0,0,0,0,0,0,
0,0,0,0,0,0,0,0,0,0,0,0,0,0,0,0,0,0,0,0,0,0,0,0,0,0,0,0,0,0,0,0,0,0,0,0,0,0,0,0,0,0,0,0,0,0,0,0,
0,0,0,0,0,0,0,0,0,0,0,0,0,0,0,0,0,0,0,0,0,0,0,0,0,0,0,0,0,0,0,0,0,0,0,0,0,0,0,0,0,0,0,0,0,0,0,0,
0,0,0,0,0,0,0,0,0,0,0,0,0,0,0,0,0,0,0,0,0,0,0,0,0,0,0,0,0,0,0,0,0,0,0,0,0,0,0,0,0,0,0,0,0,0,0,0,
0,0,0,0,0,0,0,0,0,0,0,0,0,0,0,0,0,0,0,0,0,0,0,0,0,0,0,0,0,0,0,0,0,0,0,0,0,0,0,0,0,0,0,0,0,0,0,0,
0,0,0,0,0,0,0,0,0,0,0,0,0,0,0,0,0,0,0,0,0,0,0,0,0,0,0,0,0,0,0,0,0,0,0,0,0,0,0,0,0,0,0,0,0,0,0,0,
0,0,0,0,0,0,0,0,0,0,0,0,0,0,0,0,0,0,0,0,0,0,0,0,0,0,0,0,0,0,0,0,0,0,0,0,0,0,0,0,0,0,0,0,0,0,0,0,
0,0,0,0,0,0,0,0,0,0,0,0,0,0,0,0,0,0,0,0,0,0,0,0,0,0,1542,3497,1542,0,0,0,0,0,0,0,0,0,0,0,0,0,0,0,0,0,0,0,
0,0,0,0,0,0,0,0,0,0,0,0,0,0,0,0,0,0,0,0,0,0,0,0,0,0,0,0,0,0,0,0,0,0,0,0,0,0,0,0,0,0,0,0,0,0,0,0,
0,0,0,0,0,0,0,0,0,0,0,0,0,0,0,0,0,0,0,0,0,0,0,0,0,0,0,0,0,0,0,0,0,0,0,0,0,0,0,0,0,0,0,0,0,0,0,0,
0,0,0,0,0,0,0,0,0,0,0,0,0,0,0,0,0,0,0,0,0,0,0,0,0,0,0,0,0,0,0,0,0,0,0,0,0,0,0,0,0,0,0,0,0,0,0,0,
0,0,0,0,0,0,0,0,0,0,0,0,0,0,0,0,0,0,0,0,0,0,0,0,0,0,0,0,0,0,0,0,0,0,0,0,0,0,0,0,0,0,0,0,0,0,0,0,
0,0,0,0,0,0,0,0,0,0,0,0,0,0,0,0,0,0,0,0,0,0,0,0,0,0,0,0,0,0,0,0,0,0,0,0,0,0,0,0,0,0,0,0,0,0,0,0,
0,0,0,0,0,0,0,0,0,0,0,0,0,0,0,0,0,0,0,0,0,0,0,0,0,0,0,0,0,0,0,0,0,0,0,0,0,0,0,0,0,0,0,0,0,0,0,0,
0,0,0,0,0,0,0,0,0,0,0,0,0,0,0,0,0,0,0,0,0,0,0,0,0,0,0,0,0,0,0,0,0,0,0,0,0,0,0,0,0,0,0,0,0,0,0,0,
0,0,0,0,0,0,0,0,0,0,0,0,0,0,0,0,0,0,0,0,0,0,0,0,0,0,0,0,0,0,0,0,0,0,0,0,0,0,0,0,0,0,0,0,0,0,0,0
</data>
 </layer>
 <objectgroup id="9" name="Object">
  <object id="1" name="out" x="94" y="463.75" width="20.5" height="9.5">
   <properties>
    <property name="targetMap" value="farm"/>
   </properties>
  </object>
  <object id="2" name="outStore" x="107" y="454.5">
   <point/>
  </object>
 </objectgroup>
</map>
