<?xml version="1.0" encoding="UTF-8"?>
<map version="1.10" tiledversion="1.11.2" orientation="orthogonal" renderorder="right-down" width="40" height="40" tilewidth="32" tileheight="32" infinite="0" nextlayerid="4" nextobjectid="12">
 <tileset firstgid="1" source="Screenshot_20250619-123151.tsx"/>
 <tileset firstgid="2476" source="Screenshot_20250619-190401.tsx"/>
 <tileset firstgid="4951" source="Screenshot_20250620-145526.tsx"/>
 <layer id="1" name="Tile Layer 1" width="40" height="40">
  <data encoding="csv">
3012,3012,3012,3012,3012,3012,3012,3012,3012,3012,3012,3012,3012,3012,3012,3012,3012,3012,3012,3012,3012,3012,3012,3012,3012,3012,3012,3012,3012,3012,3012,3012,3012,3012,3012,3012,3012,3012,3012,3012,
3012,3012,3012,3012,3012,3012,3012,3012,3012,3012,3012,3012,3012,3012,3012,3012,3012,3012,3012,3012,3012,3012,3012,3012,3012,3012,3012,3012,3012,3012,3012,3012,3012,3012,3012,3012,3012,3012,3012,3012,
3012,3012,3012,3012,3012,3012,3012,3012,3012,3012,3012,3012,3012,3012,3012,3012,3012,3012,3012,3012,3012,3012,3012,3012,3012,3012,3012,3012,3012,3012,3012,3012,3012,3012,3012,3012,3012,3012,3012,3012,
3012,3012,3012,3012,2496,2497,2498,2499,2500,2501,2502,2503,2504,2505,2506,2507,2508,2509,2510,2511,2512,2513,2514,2515,2516,2517,2518,2519,2520,2521,2522,2523,2524,2525,2526,2527,2528,2529,2530,3012,
3012,3012,3012,3012,21,2572,2573,2574,2575,2576,2577,2578,2579,2580,2581,2582,2583,2584,2585,2586,2587,2588,2589,2590,2591,2592,2593,2594,2595,2596,2597,2598,2599,2600,2601,2602,2603,2604,2605,3012,
3012,3012,3012,3012,96,97,98,99,100,101,102,103,104,105,106,107,108,109,110,111,112,113,114,115,116,117,118,119,120,121,122,123,124,125,126,127,128,129,130,3012,
3012,3012,3012,3012,171,172,173,174,175,176,177,178,179,180,181,182,183,184,185,186,187,188,189,190,191,192,193,194,195,196,197,198,199,200,201,202,203,204,205,3012,
3012,3012,3012,3012,246,247,248,249,250,251,252,253,254,255,256,257,258,259,260,261,262,263,264,265,266,267,268,269,270,271,272,273,274,275,276,277,278,279,280,3012,
3012,3012,3012,3012,321,322,323,324,325,326,327,328,329,330,331,332,333,334,335,336,337,338,339,340,341,342,343,344,345,346,347,348,349,350,351,352,353,354,355,3012,
3012,3012,3012,3012,396,397,398,399,400,401,402,403,404,405,406,407,408,409,410,411,412,413,414,415,416,417,418,419,420,421,422,423,424,425,426,427,428,429,430,3012,
3012,3012,3012,3012,471,472,473,474,475,476,477,478,479,480,481,482,483,484,485,486,487,488,489,490,491,492,493,494,495,496,497,498,499,500,501,502,503,504,505,3012,
3012,3012,3012,3012,546,547,548,549,550,551,552,553,554,555,556,557,558,559,560,561,562,563,564,565,566,567,568,569,570,571,572,573,574,575,576,577,578,579,580,3012,
3012,3012,3012,3012,621,622,623,624,625,626,627,628,629,630,631,632,633,634,635,636,637,638,639,640,641,642,643,644,645,646,647,648,649,650,651,652,653,654,655,3012,
3012,3012,3012,3012,696,697,698,699,700,701,702,703,704,705,706,707,708,709,710,711,712,713,714,715,716,717,718,719,720,721,722,723,724,725,726,727,728,729,730,3012,
3012,3012,3012,3012,771,772,773,774,775,776,777,778,779,780,781,782,783,784,785,786,787,788,789,790,791,792,793,794,795,796,797,798,799,800,801,802,803,804,805,3012,
3012,3012,3012,3012,846,847,848,849,850,851,852,853,854,855,856,857,858,859,860,861,862,863,864,865,866,867,868,869,870,871,872,873,874,875,876,877,878,879,880,3012,
3012,3012,3012,3012,921,922,923,924,925,926,927,928,929,930,931,932,933,934,935,936,937,938,939,940,941,942,943,944,945,946,947,948,949,950,951,952,953,954,955,3012,
3012,3012,3012,3012,996,997,998,999,1000,1001,1002,1003,1004,1005,1006,1007,1008,1009,1010,1011,1012,1013,1014,1015,1016,1017,1018,1019,1020,1021,1022,1023,1024,1025,1026,1027,1028,1029,1030,3012,
3012,3012,3012,3012,1071,1072,1073,1074,1075,1076,1077,1078,1079,1080,1081,1082,1083,1084,1085,1086,1087,1088,1089,1090,1091,1092,1093,1094,1095,1096,1097,1098,1099,1100,1101,1102,1103,1104,1105,3012,
3012,3012,3012,3012,1146,1147,1148,1149,1150,1151,1152,1153,1154,1155,1156,1157,1158,1159,1160,1161,1162,1163,1164,1165,1166,1167,1168,1169,1170,1171,1172,1173,1174,1175,1176,1177,1178,1179,1180,3012,
3012,3012,3012,3012,1221,1222,1223,1224,1225,1226,1227,1228,1229,1230,1231,1232,1233,1234,1235,1236,1237,1238,1239,1240,1241,1242,1243,1244,1245,1246,1247,1248,1249,1250,1251,1252,1253,1254,1255,3012,
3012,3012,3012,3012,1296,1297,1298,1299,1300,1301,1302,1303,1304,1305,1306,1307,1308,1309,1310,1311,1312,1313,1314,1315,1316,1317,1318,1319,1320,1321,1322,1323,1324,1325,1326,1327,1328,1329,1330,3012,
3012,3012,3012,3012,1371,1372,1373,1374,1375,1376,1377,1378,1379,1380,1381,1382,1383,1384,1385,1386,1387,1388,1389,1390,1391,1392,1393,1394,1395,1396,1397,1398,1399,1400,1401,1402,1403,1404,1405,3012,
3012,3012,3012,3012,1446,1447,1448,1449,1450,1451,1452,1453,1454,1455,1456,1457,1458,1459,1460,1461,1462,1463,1464,1465,1466,1467,1468,1469,1470,1471,1472,1473,1474,1475,1476,1477,1478,1479,1480,3012,
3012,3012,3012,3012,1521,1522,1523,1524,1525,1526,1527,1528,1529,1530,1531,1532,1533,1534,1535,1536,1537,1538,1539,1540,1541,1542,1543,1544,1545,1546,1547,1548,1549,1550,1551,1552,1553,1554,1555,3012,
3012,3012,3012,3012,1596,1597,1598,1599,1600,1601,1602,1603,1604,1605,1606,1607,1608,1609,1610,1611,1612,1613,1614,1615,1616,1617,1618,1619,1620,1621,1622,1623,1624,1625,1626,1627,1628,1629,1630,3012,
3012,3012,3012,3012,1671,1672,1673,1674,1675,1676,1677,1678,1679,1680,1681,1682,1683,1684,1685,1686,1687,1688,1689,1690,1691,1692,1693,1694,1695,1696,1697,1698,1699,1700,1701,1702,1703,1704,1705,3012,
3012,3012,3012,3012,1746,1747,1748,1749,1750,1751,1752,1753,1754,1755,1756,1757,1758,1759,1760,1761,1762,1763,1764,1765,1766,1767,1768,1769,1770,1771,1772,1773,1774,1775,1776,1777,1778,1779,1780,3012,
3012,3012,3012,3012,1821,1822,1823,1824,1825,1826,1827,1828,1829,1830,1831,1832,1833,1834,1835,1836,1837,1838,1839,1840,1841,1842,1843,1844,1845,1846,1847,1848,1849,1850,1851,1852,1853,1854,1855,3012,
3012,3012,3012,3012,1896,1897,1898,1899,1900,1901,1902,1903,1904,1905,1906,1907,1908,1909,1910,1911,1912,1913,1914,1915,1916,1917,1918,1919,1920,1921,1922,1923,1924,1925,1926,1927,1928,1929,1930,3012,
3012,3012,3012,3012,1971,1972,1973,1974,1975,1976,1977,1978,1979,1980,1981,1982,1983,1984,1985,1986,1987,1988,1989,1990,1991,1992,1993,1994,1995,1996,1997,1998,1999,2000,2001,2002,2003,2004,2005,3012,
3012,3012,3012,3012,2046,2047,2048,2049,2050,2051,2052,2053,2054,2055,2056,2057,2058,2059,2060,2061,2062,2063,2064,2065,2066,2067,2068,2069,2070,2071,2072,2073,2074,2075,2076,2077,2078,2079,2080,3012,
3012,3012,3012,3012,2121,2122,2123,2124,2125,2126,2127,2128,2129,2130,2131,2132,2133,2134,2135,2136,2137,2138,2139,2140,2141,2142,2143,2144,2145,2146,2147,2148,2149,2150,2151,2152,2153,2154,2155,3012,
3012,3012,3012,3012,2196,2197,2198,2199,2200,2201,2202,2203,2204,2205,2206,2207,2208,2209,2210,2211,2212,2213,2214,2215,2216,2217,2218,2219,2220,2221,2222,2223,2224,2225,2226,2227,2228,2229,2230,3012,
3012,3012,3012,3012,2271,2272,2273,2274,2275,2276,2277,2278,2279,2280,2281,2282,2283,2284,2285,2286,2287,2288,2289,2290,2291,2292,2293,2294,2295,2296,2297,2298,2299,2300,2301,2302,2303,2304,2305,3012,
3012,3012,3012,3012,2346,2347,2348,2349,2350,2351,2352,2353,2354,2355,2356,2357,2358,2359,2360,2361,7312,7313,2364,2365,2366,2367,2368,2369,2370,2371,2372,2373,2374,2375,2376,2377,2378,2379,2380,3012,
3012,3012,3012,3012,2421,2422,2423,2424,2425,2426,2427,2428,2429,2430,2431,2432,2433,2434,2435,2436,7387,7388,2439,2440,2441,2442,2443,2444,2445,2446,2447,2448,2449,2450,2451,2452,2453,2454,2455,3012,
3012,3012,3012,3012,3012,3012,3012,3012,3012,3012,3012,3012,3012,3012,3012,3012,3012,3012,3012,3012,3012,3012,3012,3012,3012,3012,3012,3012,3012,3012,3012,3012,3012,3012,3012,3012,3012,3012,3012,3012,
3012,3012,3012,3012,3012,3012,3012,3012,3012,3012,3012,3012,3012,3012,3012,3012,3012,3012,3012,3012,3012,3012,3012,3012,3012,3012,3012,3012,3012,3012,3012,3012,3012,3012,3012,3012,3012,3012,3012,3012,
3012,3012,3012,3012,3012,3012,3012,3012,3012,3012,3012,3012,3012,3012,3012,3012,3012,3012,3012,3012,3012,3012,3012,3012,3012,3012,3012,3012,3012,3012,3012,3012,3012,3012,3012,3012,3012,3012,3012,3012
</data>
 </layer>
 <objectgroup id="3" name="object1">
  <object id="9" name="outstore1" x="649" y="1158">
   <point/>
  </object>
  <object id="11" name="doorstore1" x="614" y="1169" width="71" height="12">
   <properties>
    <property name="targetMap" value="bigmap.tmx"/>
   </properties>
  </object>
 </objectgroup>
</map>
